Amin173/slam_and_shape_estimation_for_soft_robots/bags/maze4/2021-11-24_15h15/data.csv
X0,Y0,Theta0,X1,Y1,Theta1,X2,Y2,Theta2,X3,Y3,Theta3,X4,Y4,Theta4,X5,Y5,Theta5,X6,Y6,Theta6,X7,Y7,Theta7,X8,Y8,Theta8,X9,Y9,Theta9,X10,Y10,Theta10,X11,Y11,Theta11,X12,Y12,Theta12
0,0,0,0,0,0,0,0,0,0,0,0,0,0,0,0,0,0,0,0,0,0,0,0,0,0,0,0,0,0,0,0,0,0,0,0,0,0,0
5.847206997465612,-30.302888518871654,-107.31496878405535,-5.4870278638944825,-25.04114626730628,126.59072320127912,-11.111838357576659,-11.30088999718413,-167.42047447564588,-11.863680217027628,1.9725896732227195,89.96100464616376,-6.917658187327163,13.500783448760622,135.95595636805606,4.50733378196044,20.134411671295744,12.337470374540048,19.168700159508745,19.620292176572313,75.8628906474998,31.040691702982926,13.355955136928714,-58.08728019584964,37.088570344403664,1.28179059849011,14.427926264096065,37.33058931403467,-11.371994959641016,-94.87327299871627,32.5029736500086,-24.258209070682057,-42.714793733502134,20.10474711620182,-30.70469944451864,-154.9046114409052,-152.0324796441459,63.03934139686136,0.5185462898337093
5.912337004236406,-30.352252814392067,-107.25608587847853,-5.505066707079102,-25.027315549820905,126.6703093615525,-11.115777362950297,-11.298117714206176,-167.49576980604547,-11.854560098649138,1.9693957432246663,89.96440115972412,-6.932819850005437,13.49828063227312,135.9948418212198,4.471438311016229,20.12581349400763,12.390029386800848,19.224154080895943,19.624747650403087,75.89783612932095,30.96319292108268,13.35390093273169,-57.86367879578501,37.08071177796745,1.2801600319517252,14.412577996261035,37.35598059805535,-11.37947334058372,-94.93903570275053,32.578134944769175,-24.29065815824397,-42.68474051448319,20.20099159979432,-30.76239410251616,-154.87320777765592,-152.3158761041729,63.19053327918904,0.4971021612720493
5.928065636468702,-30.362017716948174,-107.23983402987162,-5.480141163384751,-25.048533785251443,126.71179911592687,-11.130493640312451,-11.289844327489797,-167.55608232483115,-11.846207708720506,1.9688137154089294,90.0215307728907,-6.966071870591442,13.500125842755722,135.9629772687989,4.470416603118714,20.12673679739723,12.384371558443208,19.282471897447934,19.632699754692123,75.87952972762074,30.972488313567666,13.354740873920045,-57.97341264243636,37.094289770227434,1.2814558011163335,14.392306503063802,37.39178205650006,-11.386136026575839,-94.92485208755558,32.520696311079746,-24.262373241304175,-42.73867112919875,20.108217660809856,-30.705571072513713,-154.89699039380807,-152.1299280666845,63.094966668511574,0.48036686718222005
5.852823143900537,-30.30200434618431,-107.2879218856737,-5.4599623009630776,-25.06414559187496,126.80061518508049,-11.1206564046595,-11.293062665244028,-167.45328600504877,-11.68504404299481,1.9274571939298522,89.64518066313491,-6.912508546861602,13.506895747766716,135.95002593611216,4.478463303613296,20.134051164166817,12.38340809472557,19.248370454681975,19.63563453873323,75.85225186124173,30.935999028351105,13.359686084734356,-58.02364514782802,37.12604154153928,1.2836890526973193,14.342338237856998,37.36198232072685,-11.373640831045448,-94.94220684954861,32.61862081375348,-24.303171565821103,-42.728521494942925,20.00738357146723,-30.645219973595616,-154.79665033331108,-152.06208960944014,63.04890908460564,0.5393324370773875
5.759324759531488,-30.233206916824955,-107.04983192566584,-5.44499235199293,-25.07007796604097,126.55070014008477,-11.108779751633115,-11.29426606526974,-167.5033553561914,-11.754648467580026,1.945409505330371,89.96200060245278,-6.949375907139434,13.50785738506585,135.99047533706315,4.484532724912313,20.13608392344623,12.364792409115134,19.244630732174883,19.63745751256303,75.84815200262685,30.98289425844827,13.363415348562114,-57.99597835752744,37.07916856527852,1.290274574153658,14.43153927044467,37.26899315617156,-11.347690680200552,-94.88602156753541,32.556604953224735,-24.270676036352484,-42.735382450951,20.046072663044882,-30.664754510422313,-154.86110266336703,-151.93789966638332,62.98339757974214,0.5853642241680975
5.861696577191552,-30.309835450241884,-107.23113884763849,-5.461203776523476,-25.06282889703882,126.6963569756639,-11.09284525618775,-11.306514804874103,-167.47961498862662,-11.815396735831342,1.953743945951409,89.80935482902686,-6.893830797280081,13.509313358587764,135.95588633606755,4.473460477017873,20.133361015859276,12.366239317294832,19.227709307287256,19.634089679627685,75.87864876819432,30.899347409148675,13.360379862906003,-57.967230035998924,37.03679937366695,1.2917858596639338,14.434831251480905,37.36986451871769,-11.377710459982913,-94.911404039865,32.56608036721491,-24.281515822291247,-42.77284663043169,20.02033529248648,-30.654662224173833,-154.85223401725352,-152.06975225511036,63.051410369094604,0.5190981071096366
5.8704931825888025,-30.31951042302407,-107.21100590865707,-5.490235794413884,-25.040134582202832,126.61511707335099,-11.156767354293926,-11.275779091468072,-167.50891776841075,-11.852998379559871,1.968739808129401,89.97117539924866,-6.909832330497117,13.500591628548046,135.95539847305596,4.512470787277472,20.133919219151068,12.327440042188616,19.241354250729174,19.625226468773377,75.85894065534414,30.959640037928466,13.352330608864895,-58.00088124526968,37.12047326574074,1.2756289379841554,14.391065069041366,37.329420459275866,-11.372803182109601,-94.90816399939277,32.522682999905825,-24.266012550697845,-42.733532250185995,20.067994220176217,-30.684048854023246,-154.94899720859263,-151.9124278561743,62.98030574118112,0.5715619558883247
5.897599975931264,-30.177176072905745,-106.58726946989967,-5.4635994620092845,-25.036341862865456,126.44665187741872,-11.060346145553822,-11.315120691016586,-167.27130894520457,-11.692050005766902,1.8895876398164457,90.02651826705065,-6.75602814080635,13.398774378531638,136.26581397113566,4.442237238149403,20.131945892806087,12.375201000213172,19.258510296296677,19.67852734380043,76.00575264393649,31.086168513180425,13.408845875813487,-57.893005782705416,37.037194892756986,1.3305914597601483,14.807845177704397,37.44294415924311,-11.364531790949004,-95.2221575807537,32.55097390970984,-24.168390293233195,-42.114723359129854,20.31333113300441,-30.702332201300813,-155.62344707561198,-152.0771632384862,63.055974348993374,0.5415785102248407
6.174357065897489,-30.049963010499994,-105.29233903387816,-5.229204944786453,-25.10899495734391,126.32736722136086,-10.915374961573654,-11.412337709225119,-166.49550741325808,-12.015317761694888,1.951867928810005,90.88911151355964,-6.940752676994961,13.401117041251569,137.610753537514,3.948339029150681,20.181686783858275,11.207029598483397,18.8935411707634,19.715862503412765,78.54348614072167,31.548707990660333,13.879720257320846,-57.015535670130994,37.465253381088715,1.8007555383716554,17.170899759255008,38.69992244440377,-11.099317186932529,-97.42723186607849,32.6596086347171,-23.744411654357037,-39.3502292121505,20.84545888630295,-30.518061377908523,-155.9591643297872,-152.11760456781548,63.07576709889824,0.5022422104216956
6.770707187373169,-29.7399510530909,-102.19632361546213,-4.871913683296064,-25.28406097942699,128.1944944121521,-10.921882094244069,-11.767902441103578,-165.48816896797584,-12.145283194740202,1.5862110817514807,92.64462171077368,-7.887904663255547,13.1427418546443,139.59144171714084,3.025402084908251,20.430882422684128,14.286727152689034,18.67734464105591,20.8438119275606,81.46548718935207,31.878353561681138,15.408368308146578,-56.572200846448006,37.32777034643995,3.1290019986949673,19.57057657832129,37.869798827163876,-9.44100845481483,-96.08507910880829,32.94441407984284,-22.820703338176273,-35.06423593784328,21.6595156301794,-29.659898048561438,-155.55555969527072,-152.3955983644676,63.21753048458915,0.4914155172190977
6.730818786163169,-29.486972367612083,-101.39358350453719,-4.591322291292471,-25.348940051145135,127.63348782723504,-10.579125682356967,-11.787751219904619,-164.28991003738705,-12.020502565434775,1.527212698414763,93.77873491849654,-8.304815215816824,13.24030049233506,134.95232101746788,2.6908335177494536,20.71117847083546,14.880783573804386,17.45355823169548,21.185287410405202,82.48414975824774,29.37998737011354,15.95269060308409,-57.578322594667306,36.16776333581879,3.742810715509899,19.90950637420268,37.105773345541124,-8.830081238497483,-93.585797043557,33.342444568039326,-22.238319502883073,-35.746165429595536,21.390015811982778,-29.017551197959833,-154.2503165165881,-152.0006700017162,63.0154302031074,0.4397952636288944
6.90167320538324,-29.144734898471803,-100.11739828607912,-4.508398240899048,-25.33300972258875,129.48173058312136,-10.732008258180862,-11.943887967633456,-164.95430609500875,-12.325797276303199,1.5458586062347113,94.94764643761944,-8.5966330930545,13.11621835614753,134.7524529320004,2.348386076674565,20.892379181869558,16.760808843446345,17.408413692278273,21.90591529011325,82.54695718766423,29.134657720320348,16.620749955093014,-56.87837867624338,36.288004773604825,4.281941574878335,21.553855764002066,37.66511014442723,-8.316561225687947,-93.16818786524982,33.202852040058985,-21.66488318608488,-34.29500043735708,21.8628858047379,-28.57347761965086,-154.08474537966126,-151.90543593887938,62.97857419467046,0.5035754997348616
7.648206845096745,-29.30983145139598,-98.48651655279798,-3.912301913124857,-25.57058692652783,129.23839705092783,-10.51814951071976,-12.088432880148309,-162.54495345345836,-12.527252168593357,1.2220332122015307,96.94561073026841,-9.098843134065625,13.275130586550485,144.07811667438983,0.8974054742769866,21.16753301740575,16.999021989238926,15.869599145239874,22.048541456294522,84.26060558074127,28.375127986445037,17.32216523475563,-53.64433354709709,35.55584443074689,5.711543867129306,21.870257963734286,36.77787696331575,-6.851157034875305,-92.15858904933563,33.256965666019184,-20.333480759868266,-32.9740101244211,21.814954555971312,-27.834583232436536,-150.69467655260885,-152.0972815213596,63.077313796069134,0.4670858618122413
7.895123475094643,-29.03887798580447,-97.47906617049662,-3.767640013306263,-25.590325163733652,130.85189065625414,-10.451909864774066,-12.309381507418996,-162.3394292020853,-12.336165670673005,0.8847287779375925,97.44140545945845,-9.564016831439027,12.947363578130425,145.4780492741454,0.7720556519457631,21.18226607765036,18.07748924010023,15.564704759457186,22.612803306110386,87.11299084056039,27.98332285250899,18.08701634155541,-54.79847616960605,35.76878917101449,6.120524846418114,24.387654236315917,37.63759355320617,-6.40098355059156,-91.85142706532092,33.024343545539324,-19.857104076181813,-30.845032890943884,22.390253026512013,-27.56870184846366,-150.91280318677227,-152.06534725105095,63.05550147241368,0.41971583109447785
8.371665789558236,-28.65139594981735,-95.02353759505418,-3.213015670915233,-25.677479718019733,131.68925885348725,-10.18274534837552,-12.607166229889264,-160.36678511270046,-12.927538109150689,0.7064818593528184,99.11179568855329,-10.087553195870967,13.029776800199155,147.3211709332422,-0.1863014952035158,21.23698806343117,19.525040910506313,14.810872993697032,23.08823609927888,87.72991165181186,27.096601095959855,18.85024125437235,-51.27437248677977,35.00475084190229,7.659788877243982,25.182756498915623,37.24989257154253,-4.716646007400774,-91.23359694904072,33.59506090536965,-18.59798089112686,-29.053050596348537,23.05298907516017,-26.631717646359874,-148.42622726536484,-152.08604383261357,63.06010189616246,0.5447833653596774
8.689752989728376,-28.48205662245853,-94.4314012156112,-2.994888597810842,-25.740648786200197,133.93681733709622,-10.273328735439442,-12.825557532425067,-160.1569304968074,-13.019972557232492,0.41512843700472857,99.78276195792735,-10.127677437229416,12.523480518248864,148.54115291734126,-0.5384912344334936,21.294332037788262,21.20859790522315,14.315687410658086,23.48084139110098,88.71796954527414,27.112934446078427,19.418194236453104,-49.4052511817608,35.76262246978061,8.371110237197676,26.692275325350607,37.09246017219087,-3.7980584195478837,-92.34720916268216,33.482467623634335,-18.030058401420746,-26.87295810342321,22.999642170205036,-26.248682556135286,-146.9115235738839,-152.07020754336622,63.051100035554256,0.5042941635611703
9.593494054090328,-28.32411465254615,-92.46955560016428,-2.3820965731513937,-25.73278905542992,134.64153258627854,-9.990034676760814,-13.00090236276674,-157.9188462729868,-13.360165547637202,0.1469469602105189,102.22971826130045,-11.026664241836023,12.470664634470843,150.35365019880948,-1.6322500340572361,21.211071645253696,21.811923385162743,13.188707604349915,23.618674484013415,90.8025091427545,26.050073350420732,20.127737409491594,-46.446980805650036,34.566949045756786,9.775957512044084,27.303387936672966,36.77653751406962,-2.539682045836196,-89.90231568867618,33.706685390041315,-16.605705611672306,-25.72169447850371,23.65837720797181,-25.333729304760638,-144.6483031465161,-152.1119587370692,63.083987170982795,0.548780270143329
9.442746205462946,-27.517812888126535,-90.78079831491672,-2.317495027399353,-25.62273481510463,138.1124178229719,-10.196822679187846,-13.675577496174553,-155.4920001002952,-13.685689499929914,-0.6828925544456865,100.46191184771153,-11.016087397333273,12.097977028944467,152.17458095094165,-2.340109671440395,21.24929966752038,24.440180117457427,12.891943781550872,24.416047317595982,92.64293639615062,25.149876411386572,21.144292204928306,-45.04769477769698,34.32330636226759,11.048515248502149,30.19560238388105,37.729240735232224,-1.1023250871445853,-90.98251376175672,33.57165902594048,-15.371373457975691,-23.206544202674788,23.47836247107935,-24.28035400046442,-143.02753885996404,-152.05412655703353,63.05213335247433,0.4891450655415652
9.768440411396504,-27.144533760561394,-88.98743470755744,-2.409766350945908,-25.497726562543022,140.36372898648705,-10.906660743501646,-13.62320091614554,-154.16109830381615,-13.934095560940705,-0.9932508820301447,98.75090520422728,-11.633717044874594,12.034216884486092,149.87300137485155,-2.413368928770147,21.32854753624799,26.652691767511875,12.326570644077535,24.97507380866119,93.48191983624885,24.905522666146908,21.82586154386244,-45.316993206723765,34.12454333643463,11.611589208429253,29.681202077733108,36.35812701060263,-0.40324320966438165,-88.46189468129425,34.012399325412446,-14.755057709334787,-23.33942360195163,24.000807434557117,-23.5919908160758,-143.59810195175356,-152.12555491929314,63.07859144603487,0.45777037934012144
10.119246305084545,-26.92873485086568,-88.7082500400222,-2.440186872028093,-25.50662556592662,144.19670796561877,-11.112520841760592,-14.293464146241055,-152.7267618132829,-14.01141199170521,-1.8694559013210252,96.41552780638114,-10.910289525665426,11.735496747311345,155.5559900008914,-2.5859537086035544,21.432784198264827,28.640447241034092,11.650508781586574,25.356429336204727,94.51130061072622,24.390978027148535,22.401499267058398,-44.793723187525096,34.03126197725305,12.254112330746587,32.24815629562721,36.31200859749774,0.4351957020552657,-89.86933335467488,33.67654652910643,-14.14901281260243,-21.740088420417695,23.98615908043952,-23.2106711759307,-142.60409430650537,-152.06021266916474,63.03820142060821,0.4710066654495271
10.414340718930525,-26.573188054268165,-85.66684445131064,-1.8258525873851568,-25.73201658430559,144.2428551348649,-10.807076406735106,-14.469312059368574,-151.5495579229967,-13.59421799277898,-2.1075630923808255,98.29639917276299,-11.558010169357125,11.350680917327663,153.17728167281473,-2.8192847867682787,21.439591650709062,31.96710619351838,10.973785209120685,26.014078181125804,95.39930347848575,23.770334177103294,23.274944700464715,-43.28828479073191,33.25610289599739,13.41962511070041,32.37141629613051,36.05310599951517,1.585680230453999,-87.65770617468267,33.9019735519873,-12.830867178803041,-20.918142895054906,24.55186160658056,-22.253071534912124,-140.72933443933925,-152.1529867364199,63.091642785416724,0.5618864980718213
10.830074110894415,-26.698088239474934,-83.40735607812142,-1.3076855634105087,-25.993098264899317,143.8290380949345,-10.59130398132831,-14.56806511107965,-150.6338649247606,-13.254943135983858,-2.3688375555085983,98.92097361102176,-11.042694766404871,11.190679157197284,156.29083257406006,-2.967512343853919,21.453344392424327,32.55526566041067,10.754658046973148,26.30183653772589,97.93097233039467,23.69249082663967,23.944556056711928,-43.57552680811618,33.41711389490804,13.97849822945126,34.313962298747406,36.65393158775531,2.185222971634845,-87.70091830313753,34.26451271402428,-12.432366013115244,-20.052284060317795,25.503514905066908,-22.25666500098464,-140.5334641599547,-152.16604669187453,63.10581157339039,0.5112361219852962
11.115910435964203,-26.052038003000874,-81.58057731679762,-0.964813163679608,-25.947737014899296,146.52610210223742,-10.110679036777547,-15.118562386304925,-149.70968426349086,-12.851530418331635,-2.9621155932863363,97.88976366035027,-10.562984672346929,10.907682275054839,158.92221337820496,-3.001956299990482,21.55971572489968,36.227718879105154,10.175410117739368,27.00745633754285,97.6805268782552,23.372509884311,24.67560304569018,-41.36468587944272,32.97205444089987,15.367406978665029,34.51322855054975,36.12583170169202,3.5226887222974934,-87.29420988290694,34.104024291462196,-11.283917068398209,-17.90686172746515,25.416486788070245,-21.031952791731847,-139.48720677752365,-152.0370786244489,63.04542349608888,0.5205588064860038
11.698427349405065,-25.747413771270885,-79.58616348410523,-0.6407355775327304,-25.949295689294935,148.65429607850226,-9.929806593093197,-15.533026674334634,-149.11174182919444,-12.892710979873598,-3.3934865995174555,98.10584027164363,-11.2903780887288,10.588021798283766,156.8639197880138,-3.1230891403207863,21.372425140887444,37.047965722327824,10.024044423912166,27.163042068938516,99.71369139293814,23.296274414316144,25.158852877586202,-41.3169444393465,33.58081059485502,15.636301483712653,35.89811166685686,36.21197363257336,3.836702398782271,-85.30514140433002,36.720768858232034,-11.468007324028138,-16.433112057473288,25.748441559538733,-20.148539161389344,-140.95911460331743,-152.0333367704355,63.035909769993594,0.48964913442718405
12.204382268456953,-24.930745194075335,-77.33194671403453,-0.014931874015395863,-25.842623416253936,152.01496876548362,-10.096477429686686,-15.718664375779836,-146.45331040700023,-12.665430997417161,-3.949529605494,97.69713302025862,-10.693153237582365,10.163925383059777,162.2735220286991,-3.341758106293206,21.407858213372727,40.2328039481087,9.535377081053461,27.864959276176165,101.6490725187174,21.94434113005471,25.924945162277403,-41.91224567572973,32.24807924979977,16.32608656445337,37.31988571509827,36.4530687338969,4.645870182695105,-81.73559685419032,40.67796209384839,-11.343331974134658,-14.247120408707808,27.01159691883541,-19.178124065747994,-141.50058658409793,-152.05444226976604,63.04517888460619,0.4622847763985763
12.901142128482633,-24.949823858819265,-75.85865772952856,0.659853156539377,-26.011865262823775,152.5182783419065,-9.325020647483385,-15.984126700603438,-145.93768351224932,-12.708818913936085,-4.079258296786955,99.29008397699162,-10.360232577746785,9.861192386341104,162.3208911102627,-3.6048055298560016,21.274647754908376,41.702176032818215,9.149406882442598,27.942368138861795,103.02620114891181,21.62376572245843,26.286373857908416,-41.314529899632255,32.237359283510145,16.71165135266566,37.679791468917905,37.542026131026574,4.9031525506367855,-79.90890643383291,35.936582842481315,-9.653350383619232,-12.277882276707198,27.760619673858713,-18.86941754816945,-140.7810882074457,-152.1269003631995,63.07979500984029,0.5115836273660432
13.563662375422481,-24.32198299518722,-73.45980508209576,1.3880277707953823,-25.96819710513786,155.76782387963507,-8.75246876972809,-16.61494268195586,-144.36230632332226,-12.133429829396981,-4.806983025475192,98.79273904400247,-10.087361621042014,9.420145947752632,164.54222672062824,-3.622940650455682,21.245500279892227,45.06318853209715,8.46467401414916,28.46504612455869,104.57032538471238,21.084525578100653,27.116563115951344,-39.734991815730886,31.321326024941413,17.842440591420246,38.71057337009303,36.40221657954734,6.283788259366787,-78.62841669942031,35.99079989747918,-8.557162069897894,-9.926570176602844,28.046404486353552,-17.693897550092224,-140.51202328721615,-152.09259773539685,63.06589130137004,0.4897867213543565
13.743277408874818,-24.29628655492725,-72.55640015921878,1.8182908459220855,-26.0521496620768,154.75398267322353,-8.509943988780257,-16.327936887421757,-143.9322838066113,-12.30054798343155,-4.548241809482242,101.39958680017742,-10.476804815380746,9.367118680138983,164.40820895592083,-4.0908052687059495,21.025424946435294,44.22525431674353,8.35711432819312,28.40622928712039,106.09759082680972,21.1566824899206,27.48135251906446,-37.998970336486394,31.343135465042096,18.538997590757507,39.37197083040388,35.94864790440219,7.122553729878138,-80.66399754414732,36.08744770112931,-8.00293237974426,-8.860422325095179,27.915192142761896,-17.443404821085288,-138.77670450336313,-152.13350645371816,63.09606167234414,0.5532895009464516
14.080634823081894,-24.274585177526994,-71.66868153786862,1.8833493714630478,-26.039934898799075,156.04647550296096,-8.597715042237702,-16.626021630211405,-143.39272659980227,-11.79273119934625,-5.045883136725047,100.19932194434845,-10.764465193898587,9.248491036708511,163.48750214166378,-3.7208927869964654,21.303062112157214,46.98492819128959,8.467552764690552,29.10669048430477,106.10865128363805,20.502417368872102,27.94859335507543,-38.08410172507667,31.141601240717833,18.95559190395916,40.42004991185175,35.7718935424309,7.7457983206615975,-79.69609933895978,35.74268961893907,-7.28375498279731,-9.303608040748239,27.84718829118586,-17.010890728728796,-136.86166779599654,-152.16340845908567,63.106805600960456,0.5211284023474898
14.89275543515322,-24.201307067534742,-70.11307070007628,2.9050442821520974,-26.215186566859458,156.30440233016867,-7.695292880738883,-17.04320872111974,-141.4631611207021,-11.677842828136413,-5.368791570079464,101.70920580057434,-10.601875321530834,8.853580121113389,167.79100811063162,-4.326150767895065,21.081142348827683,48.25765912976994,7.1756983808081,29.203263413936412,109.28607808443013,19.550591555969802,28.782934412777756,-35.801831405509624,30.65324294799869,20.208498383583727,41.42415026648057,35.80634854375381,8.99172629006414,-79.37196385969513,35.35457029222766,-6.053788485526608,-7.175159562411399,28.08800876331074,-16.39280815782312,-133.14173159407676,-152.01722302355464,63.02230180803452,0.4188559991851022
15.45471297372164,-23.927142437266866,-68.82866197476336,3.261594178617827,-26.228681223096267,158.9911944128485,-7.682672053430885,-17.2180046178184,-141.15117361736566,-11.364716726204342,-5.761530030887252,101.64827522113804,-10.548472024166315,8.667519095922788,169.35377257551423,-4.578689989910629,21.080151032736627,50.15165683742535,6.765164340009996,29.456128591692533,111.02438648921188,19.46344687927943,29.333026287170625,-35.24034856766085,30.586061677824574,20.849247972393147,43.229311237426806,36.495484994751735,9.768824721456081,-79.04528500000465,36.05833626038192,-5.51276572615402,-5.6154199002671135,28.621122867810115,-15.732310131302958,-132.85709767622487,-152.15825785715475,63.090564051032125,0.5144488624909023
15.78514539236582,-23.59811373816177,-66.77242669592273,4.07982329181835,-26.33010147895841,159.46196871035286,-6.864249806443446,-17.494719880411004,-140.06542684475656,-11.08385361371942,-5.94028961734333,103.351417052202,-10.016465719050387,8.315909336999136,170.50727255482997,-4.9520780991558695,20.964779405146665,52.93041310184731,6.274801270638996,29.977722028377855,112.707011649167,18.42454406579577,30.000010143111886,-33.61405600868539,29.912164849649727,21.960699659591796,43.752282527467116,34.8665286525907,10.910753221215863,-78.30606004360634,35.52377230802867,-4.32294353776301,-4.1614750397612195,28.789987588861806,-15.115262435955957,-130.29892755720005,-152.0939803450039,63.07213032490972,0.46529032118971286
15.97575801342245,-23.225244445797784,-65.58953778244319,4.159198053662614,-26.252981513518613,161.89488067330558,-6.974396121068018,-17.82288096326313,-139.37622790695286,-10.64576535541476,-6.519818975535054,102.10568985349607,-9.729830387648683,8.059101361828992,172.40462802023478,-4.904230286458031,20.92675681473782,54.007702155235734,5.9941512210842305,30.101239654135732,113.36160283992085,18.46939724902967,30.480345478531603,-31.743969499017794,29.67832129321323,22.561057156545527,43.40069466387131,34.41134138617491,11.623900728825554,-77.51057720509417,36.166758357145824,-3.783929061202665,-3.5403517642791376,28.961670831895688,-14.454036709038279,-129.93424700081803,-152.12589347017808,63.094380227005175,0.48591729261897476
16.823021906152007,-23.066751649480302,-63.541057337213275,5.145161569964145,-26.300683708025183,162.38366210897516,-6.0426078061845345,-18.158913328661697,-137.2413054179866,-10.201550804763961,-6.944859122739095,104.29745593182706,-10.288185896618074,7.69682031199663,172.77983418350314,-5.415331062811724,20.626625372771606,55.86834170042498,5.176793032735745,30.291622817121144,116.4349942985572,17.289562885942786,31.113402412618946,-30.233944090777307,28.699934796749503,23.59450597453172,45.02669842450914,34.087673840977686,12.789135854743064,-76.45732255613625,35.43620068223436,-2.3813914642379483,-2.9717908908859725,28.743680624931713,-13.601836223831045,-126.1497331566422,-152.05739595001052,63.05393407098268,0.45504351455545683
17.40671238774341,-22.592799802940043,-60.55210822554614,5.876320218108148,-26.25885722621915,164.61883537273638,-5.629741491963287,-18.237930953067703,-136.39203664990683,-10.191065808540053,-7.096345555161177,105.48966639989986,-9.826244453950075,7.292170404936541,174.15117521808676,-5.407070346420589,20.61416050773432,58.609334583654395,4.46917657936465,30.634154713934194,117.76387588945016,17.086857232057554,31.908339430727708,-27.30366428719248,28.888776901982638,24.965448789279257,47.19522206708205,34.205340654623484,14.189310137265332,-77.09490996272018,35.01259518873076,-1.1170110794956205,-0.8546619063938208,29.07652459178415,-12.505051676620363,-125.1461929141719,-152.24406381994018,63.12865711932743,0.5319308045985959
18.265980910279325,-21.620527129849073,-57.06178092047501,7.2337910967003225,-26.08075540098696,168.0095739273414,-4.933665682757841,-18.598360277331906,-133.53009650695097,-9.795471934043299,-7.639349876124596,107.07268198230304,-9.85438761567103,6.7258989843897865,175.6644360718551,-6.086412169649009,20.392230754303498,62.321455895066116,3.5422986159198544,30.972271398821015,120.149171380597,15.686137463675053,32.54588259766856,-25.07864027362034,27.495037097862664,26.103302647091787,48.055537947370425,33.28795435403495,15.460469636546872,-73.23909531575077,36.210304604522804,0.31484760321091976,2.232508953202907,30.665327542576605,-10.944702454009805,-125.73513339580296,-152.14729424259997,63.1051577642979,0.49941552157355623
18.573769845105943,-20.58796764539612,-54.67447828812607,7.622508321133623,-25.673915838700246,171.7561904928198,-4.382085750143901,-19.008996393344262,-131.87285607686852,-8.740114193637694,-8.443570402547108,106.66197330534591,-9.373043653682998,6.32077905421219,178.21904175640537,-6.317416060781348,20.197173569413536,64.76425049901428,2.973754238257847,31.232035061851427,122.89765626983373,14.958139080840098,33.16415168086043,-24.124614109811244,26.877959227671084,26.76871325984058,51.06917432758509,33.492621062488624,16.632276497524945,-69.88031764695398,37.53202529857285,1.0919691928998265,4.104700272754568,30.487363077767228,-9.400038792368184,-125.70867858354556,-152.17848086209207,63.1181227353403,0.4876574828380297
19.006575910855403,-20.088485216187586,-53.61673570743635,8.233657420989047,-25.553559725130036,174.05807791390123,-3.9349683812444596,-19.236716089447135,-130.78659335647984,-8.724756288331669,-8.761995002661584,107.23932710323052,-9.397839592559421,5.89874265966109,179.74170884803524,-6.601509005284683,19.82297986043738,66.81737390083421,2.0744584934291055,31.125676306528867,124.92932644108613,13.792421940959997,33.437002545041814,-22.778052669157457,26.477937954951585,27.573318652956814,52.395899909644854,32.78835352826536,17.47959584887672,-68.75327920099743,36.06163682104575,2.4622874108267485,4.060282792752676,30.451702013106228,-8.724547687998369,-123.46976962590752,-152.1148496651225,63.06464886426527,0.4786783556004097
19.750928524703653,-19.799328886411494,-51.36432143077309,9.145201919199579,-25.464654474634415,175.56652412060345,-3.1923472140583087,-19.359369121127642,-129.6399579465981,-8.328332584368269,-8.868310045700023,108.69032215966946,-9.55179059259067,5.715146505502515,-178.96250808947,-6.6854828892281475,19.86085714027725,69.24613975698237,1.383621766309382,31.364653742017524,126.0339375961517,13.080045160500745,33.96930272207508,-20.733054585226075,25.736141347495575,28.5069724497368,53.56335551757388,32.457643620848344,18.560928534299528,-68.44830644688402,35.720097285220845,3.7404433401317254,5.138655573601316,30.883542770133246,-7.969574660806982,-121.56257579046714,-152.12845927068258,63.07583539518742,0.6529037608044537
19.957306936686166,-19.187430172362802,-49.15374420630218,9.616854242863312,-25.32205153303493,177.71246962807575,-2.74521244086543,-19.74853558447868,-128.17843305308017,-8.0376985699247,-9.345653070608558,109.57379543966475,-9.768008914760586,5.3254507829760644,-177.23285903748896,-7.23469665968998,19.557651807378612,70.72140476028342,0.5631505706403672,31.39919829809981,128.96816550366364,12.172080457528885,34.40593965215594,-18.946280460404214,25.466927843269048,29.50486529328647,55.79627378655554,31.961698332920108,19.584359200620227,-68.19023627824006,35.290234924073516,4.782458355226583,6.67046407766596,30.47482185541159,-6.914565834042916,-119.75504889321844,-152.10361933064618,63.08263975450517,0.4868089963271685
20.166258697560608,-18.950511455407394,-48.50070375545087,9.79010519501523,-25.22529714818534,178.39200181754035,-2.455493036737792,-19.680924177039806,-127.79669785184142,-7.905327421617443,-9.396448136124421,110.27308419946453,-9.02365297658433,5.14578210495645,-176.76141831521375,-7.431365574318633,19.321070120813875,71.30885757125043,0.3903026448306477,31.394207454705544,130.2629730437283,12.180518485739356,34.779198023992244,-17.597148934280895,24.993525340195674,29.94169389603465,56.54422286584977,31.439756808972987,20.122850626786658,-67.9022721257527,35.10562468427638,5.4019662703686295,6.5992347022443,30.242344025601966,-6.537133210041441,-118.09464806459323,-152.08599601203377,63.07357459257452,0.4983042637656325
20.369911263333265,-18.38720056127749,-46.99324715486144,9.982917691211433,-24.78445509407137,179.6179403833994,-2.293368720861352,-19.68186551676893,-126.17316071431107,-7.8219025619809415,-9.649240444584764,113.18766431533363,-10.515074397078685,4.957132948630778,-174.12232303502333,-8.32270791924504,19.006049154601754,70.68603212144231,-0.35611140961002974,31.413487184965,133.4055490640057,10.80679255897936,35.12806960800535,-15.931407063850095,23.739126249818867,30.75119649263003,58.034952734541896,30.6900064687333,21.161012266317364,-67.47123301035099,34.498363202134044,6.340014280594484,8.733770277398435,30.151898701395652,-5.730694063444981,-116.38575977028938,-152.05186016468838,63.04788079526442,0.5654031757716632
20.82002957440622,-18.19990599285221,-46.666042371722114,10.554094865761364,-24.768978032571667,-179.19375810519,-2.048524512864006,-19.554824992104443,-125.70728872015628,-7.9825700247155424,-9.527097968335076,113.15796337769758,-10.452439882123699,4.922040252651054,-174.27440295892774,-8.330936331823452,19.04180421190468,71.74322047071087,-0.6138974731016802,31.34264588940507,132.5490348306762,10.805596277915484,35.237226187945325,-14.810337296028289,23.598121551175012,31.082465416352193,57.984928999464145,31.08266483135965,21.604495862550287,-66.68925524085687,37.072290345577215,6.568870940875561,9.251505640301223,30.303927594043913,-5.245629452235976,-116.07712055276973,-152.03116097334475,63.029842382413584,0.5535523702544244
21.029380327510154,-17.60555999700587,-44.76195785735474,11.264324688287857,-24.714463936498355,-177.61628972209402,-0.859753612513515,-20.345307763027513,-124.26088529978884,-7.540965884576174,-9.903727577368889,113.34822002341113,-10.259626438377126,4.671333481991955,-172.6574030160485,-8.552260743287327,18.804409226769888,72.64777551046188,-1.0048072405798436,31.28375038603643,134.02926091622516,10.202157466208504,35.27386992335199,-14.219310605081873,23.194337153416825,31.27384681770915,59.02645939692686,30.650043102243743,21.81184342634814,-65.074345532582,35.704245961098124,7.365379150865477,11.234934640223685,31.731553875635058,-4.5132768935959735,-118.29894280649015,-152.0529030281577,63.03701117978685,0.5183201249768802
21.557392315738852,-16.692962400359697,-43.970768732969105,11.947141128009271,-24.078545025160743,-174.58260057813905,-0.965827126787957,-19.72344972902504,-122.40610062113522,-7.217160956796292,-10.003386811803297,114.85892662815037,-9.661796634641966,4.307643037366574,-173.41656694823766,-8.621525089461016,18.639715748256197,75.29901333367407,-1.5942668817804204,31.430575853227673,135.19078765634742,9.48308918312329,35.6173134106307,-12.943431823371677,22.669946019713308,31.951009084913075,60.585582092127844,30.6638035199485,22.78846730148851,-62.20567875460505,35.924844567673986,8.219436486829846,12.176728490643749,31.22711085240293,-3.3709490283327366,-116.10377767739065,-152.01414501471004,63.02969467888124,0.5170555148569761
22.527424934312933,-15.951649757957695,-42.58353186011654,12.42904361106325,-23.58887066902681,-171.95117650636672,-0.5716554477716969,-19.952609499005113,-119.83415524712439,-5.976192212734205,-10.729247934011807,114.54935899485552,-9.118488230882932,3.9966312133101862,-170.91238371635683,-8.62143682734905,18.520008537708065,77.17658028602239,-2.2585164147126804,31.479233693683007,137.55317785409986,8.632730674848887,35.96536528862523,-11.928047097230136,21.926201707901186,32.510976819376914,62.93660935672038,30.237059755423275,23.636750558702097,-59.78993736605599,35.394853113131305,9.676383486261141,12.871390872132258,32.51957350936209,-2.400463206144156,-116.3231973596978,-152.06294709354592,63.059918393187,0.4991290474693258
22.949728508067537,-14.934341881405969,-40.42278958483711,13.472700448218433,-23.182944903144943,-169.7980981683112,0.07325738442007435,-19.978326365029808,-117.1388507845626,-5.997260549944997,-10.799473538811162,116.07073871809986,-9.24056529276207,3.6690125240681652,-167.80373927614795,-8.99488948068074,18.166998273256674,78.6874187414508,-2.9366085556034704,31.40484621926833,139.88885785623296,7.729485259053568,36.192221827529174,-10.408090134881949,21.099526201185242,33.112047118034255,65.39564178126092,30.341878140420306,24.68739015031853,-57.809230979006706,35.83160247797598,10.995890171258234,15.644921689800594,33.020008570449264,-1.0330962617269197,-116.17192403955443,-152.1231269125737,63.076854627152315,0.5039548844988936
23.003388788018057,-13.899040646491924,-39.59781224068242,14.10322601885946,-22.605149315870968,-167.0997683237051,0.9541930734706412,-20.005601284672416,-115.32653586917958,-5.851968920755084,-10.889671654321438,118.16270507389318,-9.354170345251795,3.380851471752302,-169.84442743109787,-9.430910638660066,17.837605163626815,80.57218880055686,-3.8012622335097888,31.231004058954966,141.79388517524973,6.738152514990368,36.34535389355666,-8.531215375271827,20.656911222031198,33.83769450371541,67.74818869326977,30.5175602222659,25.820743850435825,-55.63903795037951,35.58828767495261,11.826641721063464,16.405668454144916,31.858457101616125,0.13081927507130864,-113.70835552721665,-152.07398777969848,63.04857913523809,0.5586997656780026
23.823470964677597,-13.71970971556217,-38.59975073553947,14.402663726563233,-22.232208780929987,-167.4764777934989,1.0074310020546235,-19.702925253288676,-113.74330879651751,-5.994930018551109,-10.936362970884067,120.78041915400459,-8.82095925386212,2.7007440102294904,-169.08913182184372,-9.932583800238248,17.442238445757315,79.77061798946957,-3.8484198006945647,31.11213199962284,143.75050626405488,6.496124090400208,36.56302674812373,-6.352664762909465,20.50047071819499,34.507982233648306,69.2775411248797,29.452705094376824,26.390165180243535,-56.89132275538609,35.761686187854195,12.469777563206787,18.554879506572725,32.02730928131989,0.484990589860816,-112.40333484565612,-152.00525844400983,63.014814074419334,0.5873066592980669
23.73509750167335,-13.054587708191773,-37.001572585222554,15.216874038957926,-21.749491566738158,-167.44611738526515,1.534985673602101,-19.50355832546112,-111.85497591362274,-6.231408096528391,-10.966589738751255,124.58892565385595,-9.827627015606666,2.1729018973608287,-163.80674455426623,-10.639071356081885,16.915385338569955,79.35380992930415,-4.671499873876293,30.63151248585617,145.51314383189126,5.473187542469525,36.63151959074355,-3.2786005873240884,18.95096056958498,35.21549429907009,70.22462511695497,28.27880153992605,27.462402451776562,-56.24844541594115,34.63296209589302,13.46807319360323,18.960066645690784,31.484338499943178,1.3219511442436573,-109.41428416731274,-152.0670354687491,63.0690189366262,0.462751586160993
24.476456098124046,-12.57118961840518,-35.41982570186053,15.467285187048333,-21.26333391603736,-165.4616042653205,1.8999714188000922,-19.33319626751358,-110.91193688803715,-5.746703100397383,-10.898706434133965,124.51906353960774,-10.619589025867981,2.7107544814153606,-162.44665287984708,-10.983377463409518,17.186543772310575,82.15987197214521,-5.365587111168956,30.815394766969064,143.79242712403675,4.860595987976531,36.89948832362189,-1.9471936664170655,18.43645778546106,35.81878586831331,70.9917440967903,27.743875185270227,28.129769472913374,-54.19637879006297,34.20402204021609,14.50514564888085,19.200062723564805,31.47764955512993,2.222419355470773,-108.1527687792786,-152.12070182363973,63.079101455363265,0.5223340777659046
24.846020599994787,-11.919067683525212,-34.35848449275376,15.927968812633083,-20.951741452236107,-163.5589086230481,2.1835429702287996,-19.516764042732078,-108.87025280159635,-5.185448977624574,-11.377392966868511,124.7914909128294,-10.357501024978845,2.3660255480634405,-165.72994472407558,-11.067344394460527,16.65861616844346,82.46576180942186,-5.727171231690939,30.652810718655132,146.83797406412805,4.151098855462763,36.91829039712703,-1.284079172296368,17.74798328330671,35.93576570873197,72.41924272539582,27.043336261854463,28.452731077851546,-52.86651326537405,34.27429479871968,15.439615866839528,21.97874463996517,33.36577592792953,3.0389140709666904,-109.8233329866624,-151.99257011421264,63.01283707572951,0.5449496172184185
24.71429410978969,-10.801927423570385,-33.47632589115884,16.621663811374887,-20.34228631464071,-159.9656410867982,3.147997271816756,-19.378179215110585,-108.00753047271317,-4.531287434102381,-11.338328769984491,125.90548252174374,-9.929336157621023,2.3391301667165934,-159.98297558453396,-11.13764268634354,16.896262555518998,85.79936723662279,-6.516393565348849,30.75974041848466,146.91423373767202,3.40783319821751,37.033953493488504,-0.629084433248952,17.049899690851234,36.26310921518255,72.98025841705378,27.02594513449408,29.040770869282127,-49.34673373483243,34.316333426830894,16.475792980134248,22.706925405133852,32.547000126300134,4.113209753964799,-108.85738370794213,-151.9955484887816,63.01423026920614,0.6056616457881414
25.786415792940375,-9.869821036259781,-32.82513958157108,17.672897210211502,-19.81860031026369,-157.6991981211352,3.7666997899042656,-19.17713215825446,-105.5591329662989,-3.9106214573896807,-11.505540453544013,127.00535005325332,-9.247461121530911,1.8667896951530167,-161.7092337359676,-10.965722698944212,16.52075597583286,86.94633661130848,-6.9940300204306425,30.557989825695415,148.9111552663969,2.638656295723081,37.195077109701124,1.4887159589041339,16.437390997508075,37.01176937399704,75.66626416842898,27.147438115668024,30.283040399976784,-47.99197889644032,35.975372316858426,17.22876349429341,25.73464452385529,32.547954769792,5.318579509536276,-107.43921661310988,-152.10385405831914,63.07406012290278,0.499286399699011
26.039813659462183,-8.908022629258435,-30.787377090218182,18.175036410673343,-19.182858489436974,-155.21242113181907,4.579020766281204,-19.21723488154406,-103.57109252948008,-3.2344079604237734,-11.681544535811403,127.65763549834038,-9.197017006895429,1.77247694318992,-161.0784146882477,-11.424706025133943,16.143852924307524,90.0083409226357,-7.907784009450538,30.39471428287414,150.77758038277813,1.5487951067151684,37.13462652804237,1.6449853617634493,15.447165518529673,37.11984633179601,77.48989243433007,26.026492798938463,30.669682248018788,-44.92282244149922,34.810401858575375,18.384266951735214,26.682783713139962,32.56337845795403,6.462548895876652,-106.22585680949234,-152.01391110660273,63.02962656862423,0.4833371629229607
26.425594293469217,-8.699469835323152,-30.56253205944232,18.382757217038446,-18.94112118009386,-154.3235388885037,4.800170940019896,-19.05560946838404,-103.29318552104213,-3.2212794270313836,-11.63834128669434,128.68522055689363,-8.23504811673503,1.5314027047822698,-155.513825763449,-11.07453354357979,16.165305966348974,90.29654802257079,-8.089317316698576,30.26505830081085,151.34282449827444,1.4437710143149758,37.206799266261854,2.964874628422052,15.224367209614968,37.383966554634036,78.6353517136822,26.97048510144701,31.48572102308836,-44.12116103720939,34.80405207832632,18.596586030390185,26.891829968229082,32.53623851625443,6.826649473641282,-105.2801293241882,-152.0603255636654,63.04953125837363,0.4504423313736485
26.32270120659551,-8.069935162527786,-29.687261468070542,18.97278324717881,-18.481647916960895,-153.4214186426799,5.467718397826779,-18.93783050218284,-101.9647289770182,-2.8540064809919983,-11.802751286669706,132.1064332623191,-9.501472986000493,1.419289933328507,-154.29646736708284,-11.877976485999937,15.605534439787085,90.15250138344476,-8.408972099493234,29.986351036583706,152.32281276142513,0.9081608210651453,37.0696575121186,3.5670419257977426,14.583003301041018,37.33368037467759,77.90239047869191,25.98360279035454,31.24257310688943,-41.806117767834614,34.14749208352592,19.501164896179752,27.86682029187864,32.6213138326636,7.547140963375973,-105.62413151218716,-151.95327518586913,62.98658056391591,0.5842647989478461
27.246966580019347,-7.281029000295048,-29.519726825187025,19.52858741799416,-17.651585237592748,-154.02218825734414,5.719620981037565,-18.263799590802307,-99.97006198560156,-3.4164980465199903,-11.410506084902194,135.31661212106496,-9.993648501524255,1.1183030967991652,-160.85784721065696,-12.454999313684802,15.415777527357632,91.45185743191381,-9.021083255788945,29.920930735493187,153.43464328156242,-0.05260601686161692,37.007324663321306,4.455357006915058,13.939838567256615,37.657186772479385,81.27885903178151,26.347567957512922,32.246221689211,-39.29339300370365,35.0210355813641,20.197659525565896,30.10345465665846,32.73740734805743,8.416531056207834,-103.38274732214752,-152.15473079659262,63.09749965704997,0.47622995635667525
27.154464017367943,-6.628104084431515,-28.036425036273975,19.905432023071768,-16.9812573710848,-154.21508640229456,5.695816447248198,-17.87760965511177,-98.17782709600013,-3.358371479542278,-11.339841552208922,136.77651508221766,-10.45853409267849,0.9001661856835934,-159.83653479419615,-12.763340067857392,15.188604904983622,91.27227569908345,-9.576189520169855,29.54359342309109,152.81529210271927,-0.18185919762555613,36.985508858509974,5.984365145110765,13.553433239689184,37.83740152256889,80.9376431596344,25.09599429665461,32.27842216586809,-38.69771896920306,34.260339056904584,20.94645753317898,30.73630844667236,33.10321222596406,9.095549278697536,-104.22563222683178,-152.00096443133793,63.02080570360774,0.48966308550518095
27.162721346121472,-5.604513646946424,-27.730212302194218,20.06226863042056,-16.346577459457492,-151.10593345928316,6.252130622090711,-17.816880583714315,-96.2327982423754,-2.6521724940518894,-11.45150945092871,136.57304319974494,-9.98151236500808,0.7561683016189704,-152.54551823515087,-13.00471325128104,15.041833360875472,93.09556111570623,-10.04903470849198,29.4007526852512,153.619869549677,-0.9315720763465833,36.8948665225875,7.394392296130614,13.0841500410328,38.187664738809225,83.30959608985175,24.984425728413427,33.06330988118604,-35.96828482450311,34.31371900765414,21.79525196181485,31.577696428222495,32.89104295551863,10.132774040094045,-102.22631642099851,-152.25128456680108,63.15262453367131,0.5145588452247174
27.9284617234904,-4.603949389152639,-26.389900114343213,20.802098329778232,-15.517931313036007,-148.42644148720998,7.120667555109826,-17.724391410738754,-93.6275305903464,-1.8034996030345098,-11.753555114546446,137.5671423845809,-9.533187333740244,0.4172028378430941,-154.79366952387002,-13.283329171713817,14.62338186802479,95.68654157283198,-10.59551406661749,29.193605729489818,156.4941371345246,-2.0817894958744816,36.72254541356127,7.678240754239928,11.86451874536369,38.370614197827315,86.99268630818788,23.783231998218653,33.80064187418922,-35.04832638812988,33.14886776046343,22.547615201578832,33.285696767123625,33.15535694994486,11.289308257016346,-100.84899015869179,-152.375946224215,63.20760968677062,0.5196532659441654
28.10328978516212,-4.108823460269075,-26.267422805745376,21.53698308325484,-15.553516832800215,-146.7034020897767,7.533717638105685,-17.749338645597874,-93.32459455663191,-1.3974956995705625,-11.779873576011719,138.33772166854948,-9.456442060047287,0.37984978555720517,-148.48833515004895,-13.312643836644455,14.309731120590287,94.41538726373646,-10.593918202237262,28.887819774959517,157.04617306475296,-2.0007387515304202,36.77370771840735,9.839097069892812,11.859281411462717,38.77292469314385,87.11501541906755,24.343258737927414,34.40061598927091,-34.026276433823405,35.58265853059558,23.730142947323372,68.26812198815155,32.87665314555021,11.814370342757934,-100.41300638955911,-152.35788616837138,63.19879236720012,0.4778487353194662
28.522564171570977,-3.492758472049008,-24.74509452263913,21.60853736620784,-14.74625529053453,-145.92482425501595,8.007873857417678,-17.53369002686062,-91.68597116076235,-1.2652386394298105,-11.682218056458654,139.0566501031897,-9.209666541790511,0.20275275033259632,-152.63462286554733,-13.239134220707705,14.223156128710793,96.1137930828474,-10.79367160946127,28.744905827937608,157.36114844870968,-2.3933276023148338,36.7597527738513,11.273608859192981,11.271669894370532,39.04831015983694,87.34208691842059,23.498025596715934,34.70403595381641,-33.60719681929199,34.1850113084261,24.399230150180884,37.67399975062496,33.41415175980116,12.59948702831422,-100.39330919708955,-152.33421769988877,63.18648633720406,0.5288994572963079
28.16790419115121,-2.4166526602175242,-23.795877585687283,22.255121888861424,-14.163000413653078,-142.91847655975718,8.684706394859738,-17.30752826067674,-89.64157990004846,-0.5397106248198611,-11.82658908660306,140.960770900464,-8.928179151779354,-0.15411347795175523,-145.66337664964635,-13.201050858085537,13.635637299517816,96.6919477690197,-11.108921855725313,28.283265046383136,159.0860805154243,-2.9785866329663335,36.707606917799176,13.401659407380201,10.47092484598543,39.427517172388015,89.0352188075244,23.23079681788684,35.55182188994284,-31.069611251299833,33.66736550320924,25.24504807645537,37.91355248790102,32.94166312744137,13.589480691613122,-98.37897371017786,-152.25569767212818,63.16026444846349,0.5053769467934056
29.220605378475057,-2.0308466592041174,-21.22626916635655,24.72922733049043,-13.819300104266164,-145.27030913479362,9.747161597401565,-17.14334674545176,-86.94620956618698,0.12017646748380884,-11.851916893290914,141.98511802446424,-8.277545546215443,-0.36154557271326127,-150.26402841966086,-13.24445491711866,13.48783634871798,100.30850155036704,-12.279666658489766,28.050494501980857,162.09272057203842,-4.37118716998517,36.47819526676316,13.103328043142637,9.496278339950614,39.55091656013487,92.43099975213661,21.325460942159282,35.90298324278307,-30.617181523819312,32.79507243747881,25.94975663451632,40.01984481202052,32.733146795630006,14.209306735884844,-94.59193053433808,-152.11207661211188,63.08319091082441,0.5243724587860413
29.646877054455913,-1.2775274667921295,-19.603712760856663,24.978333236177704,-13.212730933650116,-144.5401114211634,9.986365175422073,-16.60338979793366,-86.12492821019391,0.5531322319072132,-11.705209419364335,144.0060798122886,-8.403633999034156,-0.5075529609550653,-148.74647227891197,-13.251061678200152,13.244330555754129,99.49376644625359,-12.18911628548183,27.675803988225212,161.44843789738968,-4.176489460791444,36.527514954285124,15.5293872840051,9.211298620047764,39.82541184257712,91.04208348579242,21.1428777195961,36.07714505843211,-29.388642988639702,33.48284676429269,26.733021055927665,41.48932460576433,34.01326319672572,14.816325737128192,-94.19645959352103,-151.90621987127207,62.976722591857204,0.5192328740059692
30.47838237807605,-0.5551288929791465,-17.299420319404184,25.585466637456705,-12.060916940186528,-146.10920893417244,11.15537246774494,-16.17106314692841,-84.00961297955041,1.5685904070925147,-11.535604628884025,145.53513294606964,-7.661610874461495,-0.5578500042538046,-141.23653005683417,-13.184759202044596,12.954515974398374,102.73798748850729,-12.809420629262526,27.599593221404817,164.27019633759352,-5.262073257262685,36.37752643577752,16.205025538628885,8.256811044077622,40.036666253555985,94.36204808926605,20.489406231544592,36.84439884781476,-28.951828333995632,33.23396051872125,27.37092985204844,44.48685873677874,33.027832098763554,15.394019088478174,-90.50316597801145,-152.01689347913177,63.025412665533864,0.46041590389522136
30.855738142775962,0.18366907815420852,-16.326453220872047,25.521709920143806,-11.410456908815371,-144.17941600773221,11.81669005815506,-15.781594024273906,-83.34779163006773,2.0782911966939324,-11.291534632540875,146.710687889632,-7.489753728399009,-0.5066027900715184,-139.76821234029734,-13.344568470755824,12.98300145871468,103.94323270467729,-13.319877718653402,27.388058587938183,164.93340148976324,-5.8145980149237815,36.27130028746813,16.11665521428194,7.7190942198482375,39.98611533942026,94.15891037289214,20.15798613257327,36.92476413689581,-26.066820918736774,33.143366941810655,28.04323886972886,46.07763840986529,33.28274783531512,16.397367206206464,-90.10803264861543,-151.9886862436189,63.00409538801055,0.6138696287358981
31.802108313182345,0.7147205221501363,-13.811868800672178,27.528389917994375,-10.647119940782764,-146.17911896926464,12.860140856152455,-15.010776662485972,-81.70084117479432,3.096593543277635,-10.88154178858761,148.14105914004708,-6.744432151174628,-0.37706005691168976,-143.42412091031525,-12.818940559674452,12.977547268134789,107.75244030565791,-13.97934264455425,27.306913802424507,166.9040963990156,-6.865248742748115,36.12521006171117,16.83557962095401,6.823905148556705,40.162141654932505,96.2623670660177,18.774001088344946,37.34353099958951,-25.900822135130156,32.781283001324354,28.48191525604237,47.61927655141231,33.32854855510652,16.896429359292366,-85.78167881559826,-152.1143302199894,63.08809746488171,0.4682686666319738
33.042105314579274,0.9787933294199149,-13.840587388221563,27.78713967043268,-10.35379488999652,-144.66077830380172,13.450546086450785,-14.658225378252622,-82.34106524379436,3.5893028749514926,-10.57213366099973,148.89670776790902,-6.7745362853962945,-0.11639862383432309,-142.03799562571584,-13.247207333628296,13.01091835693876,108.03514308526815,-14.308448758302646,27.14186322831511,166.8889064051989,-6.965883444284636,36.13473082505747,17.117489255711018,6.377747767413652,40.02206000266818,95.11400574688822,18.96748212656182,37.33132242815521,-23.183017513276788,31.122814963655202,29.00880185862168,48.40326431045268,33.46270864309126,17.414023363626036,-85.55644909386244,-152.1228448804884,63.09143813693699,0.47477244667501267
33.684687193913334,1.923703359835903,-11.964164397517342,29.091958639899588,-9.38451330398736,-145.85625962150772,14.572059387349512,-14.143488066695204,-80.40165793540856,4.518811203395231,-10.195621166068394,150.12507773777,-5.693958607176661,-0.10928327233667545,-139.57107222731196,-13.085323203346448,12.734103328202902,110.1450652178794,-14.62271257944873,27.00586807002402,169.3823384415296,-7.77338441172563,36.07040114208739,18.49733419955637,5.515557924595136,40.295241658118975,96.92255104847328,18.381308582523744,38.10605265798264,-23.53104895588593,31.453292490634922,29.498477165288868,51.41845962612124,33.78366081296191,17.90277153535628,-81.32230454427906,-152.02766120014348,63.035022560149024,0.4373060914830773
33.34368486493817,2.339921847707295,-11.814816616389033,28.77493192565248,-8.91511636837692,-144.1622228068722,14.95172779926321,-13.686826849697384,-80.62704972778019,4.7984527972270214,-9.956607979822094,151.50865969379586,-5.758824185977815,-0.04479113051704431,-138.99513704563773,-13.010469102614124,12.790973421080736,110.99093917196713,-14.892162499659115,26.932112393965213,170.57777273581956,-8.148039047992029,36.05232079080578,18.767295237046497,5.11000187452548,40.29539401616937,96.27661175833641,18.152748762721984,38.005625843504944,-22.491892267724026,30.99142737694676,29.948078591759867,53.02565941224891,33.82308613078652,18.61720050973093,-80.97043479231695,-152.2407256523997,63.132225397737585,0.4851305569888759
35.6908867228931,3.120476428046336,-8.314340001204389,30.426785325322854,-8.097352251949209,-143.77072541193021,16.110839375905627,-13.141293774333578,-78.84898033200737,5.9966668194189765,-9.675113506118935,152.5339434585246,-4.98163741525309,0.007990595815257961,-137.11572710700375,-12.61291176431677,12.640427154854784,112.942454090486,-15.096826798291652,26.73651206339433,173.12702261197094,-8.780094423196367,35.99931759003913,20.60847568074283,4.356053272263821,40.615042572238536,97.8326349247905,16.966507082626705,38.43425754847781,-21.238927659547485,31.07879910279452,30.896654522912563,55.33967904489052,33.81086707077452,19.55944540575605,-79.874797956765,-152.09546334027482,63.06753041338568,0.5209915190477501
34.9872279817008,4.075210995734348,-6.369449764771812,31.625582539229697,-7.2284832184783685,-144.40959861270093,17.163728471351277,-12.48132117346326,-77.28547930761614,6.676814041105082,-9.304655763087284,154.4401058993368,-4.350344474962078,0.010384238173335447,-135.174413820797,-12.51638161309706,12.409959649055375,114.61938099392988,-15.145304128597331,26.49708500381879,175.1575845049391,-9.289245877202596,35.98981409912179,23.086754162260625,3.5625778092570144,41.03745310358021,98.73109072971565,15.841592195615974,38.97991282031237,-21.522392317794445,29.86287013926831,31.079381667096932,55.72333270721609,33.79098460712218,19.88962177316783,-75.56411274669176,-152.07042761364056,63.06702189037065,0.5245081621507858
34.81601718738057,4.616994418216903,-5.460916890903135,32.359338499831765,-6.712491849373604,-142.9315674905565,17.815007223083626,-12.2673578784829,-76.412066425239,7.213613459682939,-9.127065870454254,155.42024116447962,-4.174589707759047,-0.059112779946529415,-128.05690172258022,-12.351018395454318,12.012879423639392,115.34136618367435,-15.429044664262804,26.217402538748633,177.12273446242824,-9.634903693675412,35.80810586068678,23.456412892214683,3.147460280602985,40.85763695641484,98.68444653395723,15.75517810904239,38.92741541487353,-19.22619429553932,29.54807175737517,31.902695985227076,58.05411832114437,33.74392102207034,20.718317965393155,-75.25126361009258,-152.0275405946661,63.04260371042645,0.4525765097145475
35.39298407249696,5.848994093671274,-2.7687403193822284,32.816917905967685,-5.5142694492047095,-141.3978089464126,19.02421844572514,-11.528681049117539,-74.6468499211742,8.243563322645947,-8.807388476521394,157.2334506256015,-3.1588903455179462,-0.03342747232738219,-132.69411540672087,-11.992949890603882,11.843172946666842,117.07930184911467,-15.40931801466568,25.950049963001355,178.69233649522224,-10.02966683588275,35.81113159788924,26.187442761855735,2.4306360291559486,41.3248550528547,100.00414749616907,15.258303921999058,39.738221115769086,-19.441021358416055,29.72189333252281,32.668744978930114,60.62876984239947,33.604373525913516,21.600980240588775,-73.30969823132816,-152.18570644112498,63.10665676342588,0.4992542218316529
35.661296660539605,6.752387722611952,-1.1277783456790764,33.6877515350983,-4.6118486188589785,-138.92893464588636,19.888176901898717,-10.734923756245317,-73.7491222425187,9.125219383674626,-8.374559364802886,159.43691997790552,-2.699814835054738,-0.12377396956537545,-130.4606446359235,-11.84302362949159,11.49390789688061,118.49663383397309,-15.503502411536374,25.488794433690856,-179.38599599377815,-10.455422297856835,35.637664169868465,28.549984864756965,1.6802406005904373,41.55851847726063,101.34008529863509,14.055708935545667,39.99109065793983,-18.16204369442476,29.313694737925772,33.65012664366424,62.976323665334014,36.79139354398792,23.253314133040142,-71.48925606835132,-152.1053843929683,63.070276159788804,0.5578326004723122
37.19480202642285,8.019235471479567,0.8978327706422011,34.8164191319477,-3.4067942671436615,-137.92430518694917,21.463392833129433,-10.305693719168575,-71.24032272060008,10.38852722087362,-8.135619126735714,160.9788784445649,-2.118361620539673,-0.1655542791394069,-128.08077559683184,-11.332808679112809,10.988990274755324,119.17597036920786,-15.405959466617034,25.11211535560755,-177.95785219056546,-10.89694115103294,35.227285345337435,29.374031484936847,1.259399422036772,41.53637246856238,103.80353292271604,13.680445497629762,40.45344559547459,-15.517804280915028,28.30532272791541,34.597564109846225,63.94233493793425,33.56290510494097,23.96049023744263,-69.66076204030786,-152.0622726597275,63.055777154235614,0.5531356858638317
36.94656315911823,9.273820555845246,3.76261318156121,35.57928809789108,-2.1121404897035916,-136.88341820265754,22.29885500248649,-9.152105657320595,-69.85563723581487,11.438538353892454,-7.593743942920552,163.34741261514128,-0.6072696987183193,-0.2626617679664083,-126.6694798743774,-11.056664222307425,10.811010024296271,121.55691424552361,-15.48640691267758,24.679615969201958,-175.37489447998655,-11.25158217503187,34.99967790720699,31.62305919632982,0.8244744076574051,41.88809465716585,106.11253592278172,13.50196162599029,41.318934045674695,-15.525970085720619,30.587726403976774,36.1154141237268,65.93260341685827,33.66206997969006,24.92050360924084,-67.84647301855254,-152.13933793882597,63.10279772490943,0.44662169223476506
37.72264183078123,9.715211492231486,3.723049624958971,35.584901696583316,-1.9205595636367079,-132.82220588920157,22.859774028755226,-9.24331735331815,-69.28602161473285,11.89189684002747,-7.707524010674129,163.79689830656116,-0.9080707553583593,-0.3332715469051415,-125.35173094949302,-10.469717259433502,10.476716128643444,120.97230171323544,-15.190348320563317,24.583017448484096,-174.7523609042443,-11.277428742951564,35.019370162984856,33.21441895973654,0.4939411531730471,42.09860243876028,106.95189141848329,12.901975015334699,41.609543919138716,-13.737247740482077,27.254064788900735,36.06043852011107,66.32245698146889,33.18895962536662,25.85443469109177,-68.68209587384084,-151.9409261153777,62.995418515953496,0.5097448801873681
36.68710009632521,10.263831199477082,4.720276278428883,35.53537558722273,-1.4909802872884885,-130.5211687740211,23.345354516522335,-9.149104373155408,-68.33625933086626,12.229254460658694,-7.432574844375923,162.94901593431885,-0.4812312650809858,-0.07009919797852149,-124.37394172611346,-10.51526853767664,10.539606489619572,122.59921250959093,-15.184512499967724,24.36401268019831,-173.36885291209876,-11.407260851862183,35.0369656997414,35.09415946465629,-0.11824859711721558,42.226339294621674,107.39365892626698,12.32578113152811,41.86406491909112,-13.499515282449982,27.253975323653236,36.4936428619165,67.88267799311416,32.936028370916006,26.417305633282385,-68.92902871363816,-152.20182120642966,63.119936010443226,0.4503128765050228
36.46235134188784,11.425781589335035,5.954192606513099,37.078040768584046,-0.6692831926228813,-127.77647998468161,23.99374500184321,-8.685147801826202,-65.68126702497452,12.933575736123458,-7.4522811118526615,165.51441110988077,0.37657636548072304,-0.6027564063708564,-123.67260279919346,-10.060449460607437,9.887230716085154,122.48436608803763,-15.027767148812039,23.93783647928334,-170.51689832026094,-11.693726584226027,34.6961426599386,36.6617156106623,-0.6916655736168664,42.28857537034838,110.47912874527908,11.792414928172732,42.575236990558224,-11.1879814640428,26.931640058024854,37.865395534102106,68.8892798920336,32.32334559198313,27.650428345606677,-67.92581415689611,-152.14023424336352,63.08243323747663,0.48680083155651344
36.083096170209274,12.588777792885487,7.055047953362427,35.870835612843635,0.3917559323707671,-124.00300571520376,24.58128699925028,-8.269954112709085,-63.31859133549836,14.03786732427318,-7.505170957748346,166.9439543969174,1.0309515509486644,-0.8954469461169481,-122.83727191470484,-9.535974687002259,9.458942427686857,123.75887814255799,-14.912346524201098,23.429357493565544,-168.99099309356708,-12.091374815951639,34.282630063880354,39.533910575459835,-1.1018094676378496,42.56669122017065,112.18909598912963,11.219991862100251,43.10775801108911,-9.35375087352971,27.36283185539574,39.13447770364747,69.74685702863218,31.915422014628334,28.829403772483715,-68.2245888595136,-152.0888685879616,63.06796062882639,0.5372272874749752
36.35151406104258,13.852950127708343,8.901434424732495,36.39572148570507,1.6865106898394853,-122.48920256072358,25.69529129628016,-7.70005399103467,-60.384387838063034,14.580922713730672,-7.14691159725084,168.45222465461137,1.4851591867113925,-0.8313355134010276,-121.46856829640556,-8.973570512967491,9.261770548936305,126.17654047652637,-14.905862452906995,22.86720951478754,-168.00440237028363,-12.241729494573299,34.03428009079157,41.84388651844999,-1.82895355695414,42.64957221978025,114.95733701825183,10.389043633524302,43.60130803668546,-8.273920789021112,25.639422257019746,39.42529345219434,71.88822375286678,32.470756669668745,29.84826324963234,-65.12527870948185,-152.0016488168672,63.02941993170615,0.43959139382137064
36.783141954489324,14.982736461458739,10.480462115727398,37.12164880706247,2.420981571761155,-118.89464295550381,26.211187103316092,-7.135585258830348,-58.7263399854144,15.259443548841418,-7.012597005217424,170.89319772223598,3.0623811590581127,-1.4245563939731891,-120.71742412909705,-8.679703231563145,8.664208357569155,126.62219308174339,-14.707379905758117,22.34778394774289,-165.06653525284446,-12.662335031158555,33.515104557948725,43.94614589508334,-2.608073480084066,42.484592273002924,117.57067325635077,9.553912508221849,43.944674022159695,-6.088380713084318,24.538021928113636,40.38874764266941,73.12348993387394,31.302619437569348,30.89352131850186,-65.20021453397689,-152.0662427253576,63.04267582523633,0.6166607190587445
35.65517049718649,15.83322174672116,11.730719849648558,37.00635765620426,3.1753176489324684,-115.10519591910533,26.98859821357236,-6.860046327346771,-56.45603841582047,17.19077282717207,-7.267332637003749,172.09679305388838,3.29324274137268,-1.5362647144044193,-119.48813979482131,-8.032660951681166,8.274413245253722,127.79383473987446,-14.735798932066835,21.854233804291177,-163.22409027705405,-12.883782784838786,33.27307225009879,46.75467677732206,-2.5877701790533933,43.07374704001147,118.47769503861969,8.92113583514223,44.42528616633478,-4.371620879313527,23.701313776330196,41.20964790372005,73.67463577800663,30.63237245932278,31.892855599643703,-65.01347696850908,-152.10036583507338,63.05737119591007,0.4906114499596842
35.497260349441845,16.697244970672955,12.466406641851263,36.844187294044076,4.145739547711082,-111.61224151366697,27.77772365479187,-6.350599986869705,-54.52807234577571,16.890889034062383,-6.658477195331207,172.92126975055842,3.486798571484492,-1.3674696043339694,-117.82769148784702,-7.584302494126348,8.137278832501163,129.21617283205936,-14.478807487574805,21.485791513405452,-161.8487420106158,-13.248605803537345,33.02005821043224,55.06484761952035,-3.9499560070609903,42.893544830153154,120.93473733510007,7.991669578786706,44.888924170457365,-3.341444702589377,24.360963579200103,42.376291590663214,74.56038530328301,30.06092368060311,32.646146816775016,-62.72659442392123,-152.1265795061743,63.08992519271239,0.5214500892082264
35.358048661007004,17.226727641338922,13.852412908793115,37.556790403522314,4.612021742924544,-110.7595870039735,28.351045272870223,-5.944267386159735,-53.2856237801282,17.049655166854336,-6.609495840108115,175.02357792470562,3.691338202713041,-1.6470342892839263,-117.39356757848014,-7.2600957940351165,7.739523302428562,128.96982667430083,-14.385648774145878,21.262090626515466,-159.86390526822825,-12.583183675817658,33.07252041425133,49.440011738772405,-4.175604700418212,42.49718083493963,122.02731459512292,7.940373449507021,45.046818250332585,-0.5468935930208232,23.464746472417232,42.87807269002668,74.89274646680991,29.445622451518318,33.24209225290988,-63.40803859273775,-152.1154377079585,63.08710975129676,0.4662306880947404
36.510598165617054,17.629087053472773,15.053527001930147,38.2695509906017,5.174874352684552,-111.29964621027992,28.42380129259034,-5.487725053724782,-52.76045284336181,17.82231892807451,-6.337911917629507,175.44147586763214,4.114244998719471,-1.4144433230691877,-116.83457047881858,-7.191407752994685,7.834781415723871,130.00463471392527,-13.909859117358955,21.181490382704702,-159.87441678527227,-13.265482163182192,32.75154825786274,50.7639025330154,-4.447550203749515,42.828567036143774,122.60963408160585,7.342111473626488,45.14786147186328,-1.46164378429661,22.95752743693204,42.8751575479954,76.68801184981072,31.96084396951231,34.15875065130608,-61.34709100007711,-152.14771752479592,63.099235741704284,0.5199310788479539
36.44671375901052,18.458382303564463,16.01841968326374,37.81840486614185,6.07918904422703,-111.73992702103902,28.980274480525637,-5.10537223726878,-50.854944083594766,17.935977266916623,-6.062873881075012,176.63811991368547,4.327347600280483,-1.5372519028004081,-115.41149977930111,-6.814200121159942,7.463164724873527,129.4592547307998,-14.05327805492557,20.951285986355465,-159.52646757448136,-12.264209213689597,33.29660791669456,52.97950992578058,-4.691080813079559,42.86481427292596,122.37114033289097,7.085278643926429,45.24891228902963,-0.49556993352875073,23.40597697394655,43.38725383421003,76.87359351986501,29.66099649705467,33.92381948489808,-60.06316039762765,-152.02083799921036,63.03003390196539,0.5880124298844813
38.17577041256527,19.64971603524082,18.05842984746187,38.645300130633146,7.311308944162931,-110.59487755248983,30.027710371491267,-3.971888973251943,-49.111354896014355,18.815310902295337,-5.429088285846648,179.47930758052837,5.046964315035261,-1.452019051965749,-113.68965972940691,-6.282690423743482,7.154300001004257,131.40116306884215,-13.846117339487662,20.36410184843914,-157.24747846983686,-13.445077262102629,32.297581578565364,54.78071897057553,-5.469112479870326,42.71263769242751,125.01869026567137,6.372543397234693,45.61769986077238,0.092402827283714,22.539556496557125,43.950474486384664,79.45849224043052,29.44910822853157,35.01016726537887,-57.75631171401477,-152.0499647540387,63.032226756345246,0.5007008121474902
36.807607865335655,20.785627309626705,20.35488857322504,38.777169716360845,8.869388145621626,-109.30655293374163,30.543039803763463,-2.69529308545728,-47.55860794193594,19.627861339351526,-4.6929767664514355,-177.97238929061825,5.699095427989448,-1.3249177438577089,-111.12306468006204,-6.114743432584916,6.82343847184585,133.74509616173995,-14.099724258478147,19.65257435059759,-154.68626761171754,-14.107646542211867,31.388872461635316,56.36176641053358,-6.0604433175793915,42.36595339030621,127.42200298850327,5.420186993064,45.60630977874471,3.3849074657370015,23.763209553599907,45.75327941011027,80.960023397609,28.925103239573673,35.88362368571129,-54.75638977469188,-152.0570704836635,63.04222463691178,0.5597205234033394
36.345038842618564,21.718056147603125,21.51057680796227,38.68077066889461,9.762599865209067,-105.01547037622292,31.489430991540175,-2.1995337307374836,-45.39211947960004,20.571432935201784,-4.193454080023326,-177.5159601318143,6.35734585333158,-1.2469098764030448,-107.99709428365885,-5.372777806458949,6.274605217856253,134.52201219317314,-13.592364726025714,19.15896041166315,-154.68418314509606,-14.170915279872716,31.015328799435736,59.40473083039734,-6.993845864718324,42.10396884127954,129.4320550430347,4.497900258316044,45.84980977113343,5.312364129002445,19.92136134411595,45.138975355477655,81.5405135109656,28.240519956213987,36.73836433138737,-53.958786832311134,-152.17322999211984,63.12239883498933,0.4650755220618669
36.179800665168884,22.450907087737225,22.788100524570833,39.310220115619174,10.423927105954006,-104.07965512561623,31.9779808964107,-1.6014541663892263,-44.05115970085825,20.859545038338126,-3.9478586534998623,-175.67854599196428,6.92728142484664,-1.2987990297458722,-107.79226013860477,-5.3113619347749506,6.1311682550996665,135.87079972543833,-13.766121007419898,18.7458576972879,-152.4789450498328,-14.497466557450615,30.565532037113556,60.62518965057995,-7.270513459575973,42.02265417152536,131.0794926355249,3.977441214400109,45.910895579045565,6.571906371477267,19.56294121415982,45.66965258106188,83.57300653018983,27.699356035244605,37.45827962265833,-54.181102632398094,-152.16037729541296,63.102123115782625,0.6165045668239919
35.855725763547966,23.567270420818016,23.70648577901982,38.757448439158594,11.676782217555976,-101.6623356246723,32.65119412477266,-0.8159591039051612,-41.51910672399683,21.712962269020665,-3.45282515286401,-174.22783347232743,7.324747781672443,-1.2142676770781922,-105.5257642781142,-4.874433820658034,5.800976605278458,135.86239881918252,-13.33253591184289,18.381605849800717,-152.6571894670925,-14.515180821783353,30.41113035004713,63.437809340399184,-7.966652504365399,41.951467568236666,132.56665012828057,3.4484001000881435,46.36312737628803,8.59272986869306,18.58850271228269,46.16817775887536,83.83815163687689,27.159505972662984,38.21642865108561,-51.577653247517055,-152.13608454123866,63.081439628432534,0.5061225330139614
37.2641568905933,25.201556071176647,26.764714002577147,40.75224371579699,12.98725367231531,-100.76763987443486,33.51144706603759,0.28293399385696283,-39.797318559640885,22.611731127109493,-2.8146435321151344,-171.6816077944296,7.9116262736556635,-1.1418315746484122,-103.33219375832668,-4.054841826396078,5.39413235839651,135.4117318704323,-12.764527655189333,18.106518312728788,-151.3494177287058,-14.372941578009545,30.286919913443732,65.34005655311327,-8.339545023533901,42.01243206970657,134.74718089852473,2.7343713902253626,46.68746565589216,9.818189413362052,18.303857184998563,47.171839282252456,85.66121726759208,27.01366038529777,39.37840029147921,-50.624894154459874,-152.19474970761053,63.10894708148093,0.5183775057805892
35.695845626383544,25.876635574119675,27.725894265591315,39.231101040482386,14.277942103886291,-100.14498971641832,33.747735084150634,1.3649703794516608,-37.538209313341284,23.126735080738044,-2.3381814839982873,-168.32442098582766,8.986653693344422,-1.1413330070268781,-103.34099105972643,-3.310437159475356,5.288308597119965,137.03209237689634,-12.532452712419229,17.72401157663797,-146.82437606040028,-14.590124820411638,29.780864542309352,67.35595337124467,-8.897896997618233,41.729054647544956,137.13522520356838,1.9750487197887168,46.877005294049404,11.397478899386675,17.136689162584275,47.59545848244841,87.1402746662833,26.33426859548409,40.24417976818273,-49.47945673575213,-152.09141804845524,63.071365086399524,0.5192493331839139
35.85741074437381,27.13285322599903,29.140527193449607,39.34918023419209,15.698831491405269,-100.16414913096224,34.02401669891823,2.455294536867621,-35.16650595271473,23.424391329202066,-1.6715388554090058,-166.1620142621647,9.4647435232378,-0.9982455159714352,-101.67057990101578,-2.894841252301518,5.2201416867747055,138.25518407929357,-12.28236564183581,17.533558845560716,-148.9348572175721,-14.665257533637728,29.688198986163187,70.19672645218266,-9.339406574815733,41.93472640024958,138.76266226118346,1.0519662200739148,47.01463004876242,12.258528683122135,16.7702501192653,48.25412540984104,88.45267918429136,25.997599699618263,40.98252068054829,-45.98486316354798,-152.11113750342804,63.0852968644016,0.5022905528110454
35.010958505962236,27.884474162976474,31.79137598976026,40.43625741586958,16.54186550232008,-99.80695873675941,34.48337204670143,3.0386070735369035,-33.40695543899399,24.25631424855024,-1.1915574367657769,-165.50138522686282,9.928307047137928,-0.8009635702426614,-99.80186211864711,-2.361679719458458,5.000274928549569,138.43306337425508,-12.118632948835433,17.37030830416119,-147.6188525255206,-14.74209330234968,29.33784876832177,70.69714809735795,-9.74329583698357,41.6269052503709,139.8194189112867,0.8000149274619517,47.14893440636213,13.973756908590506,15.572028228902113,48.29607879700912,89.31660820246721,25.414525613564123,41.58264014714398,-46.44097595354404,-152.09042914635188,63.06286885635453,0.5129647101737554
38.22524130283618,28.77262258706628,31.360098503285425,39.762880509055634,16.93519986192289,-98.53261352939619,34.64533626325759,3.4194169023535705,-33.36196728513643,24.371099106349348,-0.8569765215203926,-165.35321912532905,9.872640314431834,-0.6694276851591834,-98.5666371918426,-2.3856417421918366,4.972335899147136,138.35248692681859,-12.11261195032204,17.232598517443417,-146.66832361034662,-14.81261417452378,29.242228332724927,71.52600807383779,-9.863154983856063,41.68150445097078,140.3872815772031,0.714757752064294,47.317480494964954,14.766259202679404,16.07880959214853,48.905185805995956,89.42605164571518,26.74775167834855,42.376608789300214,-43.62557299872166,-152.01145205347916,63.02343734073735,0.5361522930222955
35.345302532215484,28.779403793058812,32.12851235401317,39.38327591995029,17.569916315837066,-97.71093955424335,34.54550412899478,4.118736023602791,-32.65896907665582,24.491672086749446,-0.4776114526775057,-163.28161343513165,10.834733121033224,-0.6511595165060164,-98.54772806832189,-2.4285456475819984,5.007368559819931,139.9114756934723,-12.054799224132914,17.008794780307657,-146.5667884020679,-15.014702246840436,28.891084620029325,72.37315887003462,-10.172362702997702,41.50480998175785,141.49970250703475,0.09353863718803268,47.15454542533867,15.562795696338744,17.578580321855483,50.28999456708815,90.5337194082996,25.722477114576236,42.54979185817784,-44.26441726559694,-152.1271846481509,63.0802980111544,0.3981604435621124
35.09996923257101,29.971296316723112,32.05837574872156,40.19781337941053,18.557848787219612,-95.40985795848586,35.31004758337701,4.860406504465921,-30.560885247967352,25.253787168943873,0.23887469319558008,-163.17411488870513,10.809695681562758,-0.2743622707125901,-95.45860253320943,-1.7495342344967995,4.695045312100454,141.38908867690944,-11.659240429167404,16.618444810345302,-145.6303641025351,-14.904782795403214,28.593889183497573,74.29341977223835,-10.682595913632774,41.206329218221605,143.19583588732922,-0.5685445867129175,47.27081235634116,17.649003732664344,15.353507714182982,50.215438186833985,93.5703469040069,24.35512783897066,43.2042497367459,-42.263113158848,-152.16549581893588,63.10783322641383,0.4658140886242333
34.504894887250416,30.633119988758132,34.35506843423628,39.37374013230692,19.353742336138083,-95.27945162174396,35.518040084790684,5.598028718883906,-29.155041361845306,25.33937042628709,0.5361570987547477,-160.54632484011935,11.051983417576544,-0.2136968310451035,-95.87177334275965,-1.7590269192908679,4.7153924503276885,143.3481882673584,-11.838597786451402,16.201963103176062,-145.77632102133228,-14.818553513179673,28.25819387768901,74.5652187351064,-10.985032018117536,40.84476993838944,138.48494394700535,-0.9319765290602575,47.22648028526007,18.597584790639015,13.660167182935183,49.67043362233725,94.16320240487124,24.18279867719086,43.68210203623559,-42.72641531822953,-152.16796997975888,63.117838090168554,0.4465567079798179
35.59157865042695,31.862155643890794,35.028249479101405,39.57838279934755,20.564278542727727,-93.71232643208491,35.33758043197179,6.660877176626197,-27.88371918947852,26.127036234645047,1.338188610990823,-159.3233903522728,11.62024249466755,0.04368260376854849,-92.49104750187408,-1.0704619620135034,4.369428660532938,143.77966968214716,-11.413663952911833,15.870162375163758,-140.08651865046295,-15.029262480962025,27.76245314215484,76.91526875877764,-11.595699901415308,40.500538596309674,146.44683735105312,-1.7765997427137705,47.106229325862394,20.03265780231408,14.082264375605462,50.7588539171145,96.25637486110753,23.59124220996324,44.38697853415823,-39.264140016725456,-152.05298202173992,63.042785396839264,0.6060883320594646
35.7133901285259,33.27838833060471,38.03212476124267,39.60039078762816,22.144761829658563,-94.04605582250278,36.24144946179155,7.814000262560337,-24.872613913736707,26.72333409838076,2.0909305323054674,-156.49731033790061,12.415004008570136,0.1485694828559243,-90.13578401273737,-0.3739456093172535,4.021775305240105,144.7673678849389,-10.834683312898228,15.331705310084876,-138.38133820163432,-15.219606246514338,26.828671543194055,78.08359121953775,-11.961070854845346,39.900266170470914,148.55913127488643,-2.3837098208203287,46.843522301477364,22.97170058209503,12.523011155747938,50.6708996969968,98.59311867899719,23.206719088371642,45.21293036284243,-38.08718711133623,-152.06188012195338,63.043738361482795,0.5056091844061649
34.273398283977144,34.29584216229853,39.86549566800663,39.22037695488986,23.408798472285817,-92.46176355459312,35.97185547675933,9.137894591255398,-23.3527081310933,27.161006996143428,2.8784903466214935,-153.60882620477506,13.195638775924678,0.5158713033496731,-89.43988528909209,0.07269694718165454,4.095216823634385,146.79987291124453,-11.051775641160226,15.033460771441156,-140.51072149519405,-15.229729027988135,26.50188376331056,80.25490974800002,-12.293334344656849,39.74575750370131,149.9909480797485,-2.9825141902869206,46.92980605594063,24.254542343817864,11.71711181085707,51.091942298895525,100.89112156501635,22.509549891744925,46.110717242005684,-36.53669269971473,-152.0081430727039,63.02538334238188,0.4322965453002265
33.76212471539387,34.619320388336924,40.06699509326386,39.75038367833598,24.031296231572824,-91.73564726746108,36.57131295689413,9.577910198034198,-21.943184635943577,27.720216106666953,3.3267981554531065,-153.4876207650083,13.338752659277475,0.6767589253721589,-87.36266967175396,0.6790873234327535,3.8306251450828093,146.63004829334542,-10.525044419906372,14.843754313301734,-139.98574645980787,-15.379637104950469,26.27508962703032,87.38365393434898,-12.85469585515726,39.344332114001766,150.67003927225466,-3.454798159143536,46.7299884949889,25.093204997180745,11.183649775515512,51.24504456192135,101.6513999392274,22.114612408945945,46.394503229100124,-34.87912702448256,-152.07073437641859,63.06970630892157,0.5305920738878553
33.39425536937448,35.81173842677717,42.25219376829549,39.489337741436316,25.280190875200738,-89.62242206956577,37.10117852645162,10.75768283045656,-19.35791911513736,28.368100544521596,4.137279994398454,-151.06748886032645,15.236947552548443,1.001266965104593,-86.0159280215359,1.5495339369159424,3.8879406588032612,148.54274162616696,-9.758171747997444,14.556610453936154,-135.9335862125522,-15.220813789639877,25.701293301081655,83.14827163676195,-12.990446523605293,38.980615287551956,152.71734983795648,-3.9657763790029534,46.7520153466917,27.78933714650227,10.123355645544436,51.55016844310721,102.67892890265384,21.3658080099147,47.1624956823627,-34.15909806038395,-152.1088336648449,63.07970529667255,0.5476049152868975
35.55883614759247,36.84177033997635,41.94720481464396,38.8078018330024,25.725115544642875,-89.03774752040354,37.19518217320207,11.201037896926739,-18.29863722751823,28.834684254763317,4.613406192131857,-151.06728211031205,14.817869873019177,1.2431590103506043,-84.49937042057898,1.9720010602808102,3.8407641092776386,148.81375926708105,-10.021499253480044,14.390026220233844,-136.055790413209,-15.126993268123755,25.533688560623688,84.32409781952205,-13.290172006802415,38.66680118016602,154.1398952563294,-4.397875448985737,46.61266383962851,28.02755757063289,10.602665995731712,52.25723739748045,104.2040148251843,21.71795740347713,47.65696646852986,-31.72009509054203,-152.03400935449247,63.04114808792565,0.5271896897419288
32.948342049661306,36.77805237286977,42.58807827297179,39.419950225592686,26.320704106704312,-87.85042123034984,37.28682240755255,11.659364118015667,-17.721843794299364,29.369124516190553,4.84194326201926,-149.94271353015725,14.935467422039366,1.4767234540257181,-84.91591097754518,2.10721965788661,4.082923142245514,150.405239373735,-9.795332041591315,14.355499777835469,-136.03028736164657,-15.045203805840238,25.453636788792068,84.83356507893362,-13.316254137904473,38.723719028123575,154.3798665689892,-4.424162530423665,46.78687886005119,28.98496013082644,9.613209951320506,51.896492978581215,104.09927352510941,20.829511720861916,47.744167072759744,-31.53747466811412,-152.2008830580651,63.11974080074621,0.517952825391056
32.56219834483052,37.85887822364019,45.091419095654295,39.0843523701532,27.708570511002826,-86.09554946561549,37.686067045233386,12.878794327436433,-15.901617181288985,29.666608147933445,5.91870701967822,-148.21406087252035,15.647910152858444,1.8686324894503503,-81.47786047746463,2.7300735936137954,3.8446783005573133,150.96581822641738,-9.166585207445742,13.916872913052481,-135.1304364192819,-14.996205601493251,25.020195286911466,87.49703447200571,-13.788949831159343,38.210129373554956,156.80210529360883,-5.207299549653115,46.60943249052369,30.8361081937803,8.521919089900052,52.16142451543064,106.48073308221376,20.122990627318416,48.66689238975411,-30.20809769340193,-151.98505527074522,63.00669587163152,0.5249970716331405
32.90280755554549,39.09968484933111,46.14211797556377,38.7306577054991,28.8840999062146,-85.0341793360767,37.44522276795125,14.05555452975267,-14.277758524015642,29.991378434799785,6.634354192949276,-145.0391522566441,17.141332680421613,2.0885404667518355,-80.36942413229521,3.361402063976648,3.8220409283742187,152.47719291509702,-9.060799521363208,13.592153052808857,-133.44769159859646,-14.863547032660101,24.53747403545531,88.50712474695017,-14.013801493827579,37.9736059987662,158.6608556516804,-5.8265814513982335,46.672498782417584,33.75374925907643,9.903923649413812,54.316590352165946,108.18878590560391,19.00226268780385,49.41912619919282,-28.936167804090566,-152.15045804703055,63.102895526106465,0.4753672963837389
31.85610883445328,39.555944741386845,46.92891966448412,39.30324428747835,29.64852938534709,-84.15949443548412,38.560722060266215,14.55849910722668,-13.555003006191024,30.36982456136633,7.158312988685138,-145.00805018377216,16.663077213152334,2.4074095084483442,-78.94846308970222,3.733008920185526,3.818810546506179,153.320483352777,-8.724157861173055,13.480534952122333,-132.43104886244234,-14.883373395258275,24.257041149218477,88.83330095507485,-14.17269594787517,37.672732255713406,159.74011437510518,-5.939236284456818,46.607406073226464,34.263039788567234,7.278754233875624,52.69777639350458,108.14334507622807,19.326217093469708,49.60232493586631,-27.040983084145964,-152.02556092501584,63.05030204862373,0.5636886639321583
32.16018176419297,40.60991028347001,47.83660693793547,39.94208652262951,31.039073356422016,-82.2549959704521,38.09152560994532,16.01077485290112,-11.336705774171218,30.727983269034368,8.206097079691563,-142.84365762184203,17.061959655632847,2.9932927323959397,-76.85971171511738,4.048152410093863,3.9076574280315786,155.49665310107338,-8.5102867474193,13.003610154711435,-131.48845797077715,-14.819185976118384,23.58894774503593,90.50726187067215,-14.461244588670553,37.06557744856664,162.1009816697813,-6.696678996126408,46.39760590472791,36.75875314190913,6.680269984207065,53.369182199256635,111.18037431858043,17.82882085107667,50.531787465027236,-26.563173078239757,-151.9821172970003,63.00914903222443,0.4315772645530709
32.59266394010514,41.5099614634283,49.42829887024878,39.62132326856677,31.665832757279922,-82.92976534991277,38.2811252636737,16.379542938314977,-10.517075032013173,30.62760648002444,8.559108070976556,-142.06986153816902,17.280250184383505,3.0921455935219537,-75.92859416841111,4.241509781798236,3.863610239516709,155.83870257746506,-8.455402646318916,12.92389345283419,-130.57695630671276,-14.672967566874817,23.505621408990667,91.17712035983519,-14.41006967662743,37.19260572578518,162.43534022933895,-6.915880837530018,46.20129260974848,37.09399613975289,6.35746691854186,53.333562742750715,111.25760249143467,19.05743577547976,51.15546392920757,-22.968940650786703,-152.05957581459333,63.042394142927286,0.4524286880122455
30.63964842570836,42.05799820806688,50.836000223793825,38.38540622070781,32.80194270673032,-81.34070889697574,38.70277863883557,17.752309602512106,-8.325702644831088,31.12932073881045,9.510087193705992,-138.9496590950382,19.40702458182585,3.4071450300330817,-73.54764688022601,5.136750993818012,3.784820069366008,158.00955025945774,-8.136518680596417,12.317260483153872,-129.02019414848886,-14.686921514994488,22.66441594230863,92.54303924970299,-14.943303290921278,36.25516394140689,164.6666290022201,-7.59850769526475,45.89582321679227,39.967437521795674,5.403244355185308,53.5959442460768,113.53271811716948,17.773603688548917,51.82606862135385,-21.788009583284776,-152.1728569488987,63.10614881172126,0.4862553887251565
30.24892081297145,43.04878940458831,52.56308126190799,37.57999188691525,33.806665274203525,-78.83435555339018,37.825622021059814,18.853936908902202,-7.075844052564095,31.371618718234615,10.440494382291229,-136.95928756620162,18.79105891442758,4.057583784706188,-72.45150738704245,5.370015479708144,3.9991378841276246,160.301056974301,-7.738557479645365,12.064789131500508,-121.90019084266576,-14.649583266120636,22.335609408060456,94.84378023374123,-15.350209998528527,35.823302426770425,165.95833308754231,-8.153969773584507,45.761035172916415,41.7478962800433,6.406485702648887,55.659298007477695,116.72344510517382,15.817041064786963,51.84370870932939,-22.12828370646039,-151.9639746704072,63.01369801488437,0.432837658548252
29.576247800128613,44.14625547605105,54.334995550288106,38.2124747706077,35.41634008146008,-78.18089581065017,38.4854998301046,20.060713081305202,-5.081580140728288,31.976991181822328,11.748493546513496,-136.86483993393335,18.986117426052317,4.835303503621947,-68.76333764570786,5.931100097311479,3.9133263970885217,163.70797070560096,-7.565770411091606,11.177751460631617,-119.19116423384828,-14.153251978351726,21.28245276915769,94.07532120261874,-15.500465700509906,34.89239617366342,169.49005548670382,-8.756146903382465,45.135684521768674,43.466237699752476,5.139730549221817,55.089417847892236,118.697880631618,15.306963421820043,52.2611381441322,-18.611328149800848,-152.07693148632103,63.05846678090272,0.5549367329690659
28.984351602535128,45.312660030343515,57.78703809767111,37.44015156358178,36.82733867015324,-77.39737299655896,38.44187745402469,21.41400868461484,-2.8711765382722545,32.21650418708734,12.680511522950436,-133.63844266440597,19.657598309128588,5.16174077503854,-66.29547902740616,6.628443146195671,3.7430460403156527,165.5131880311455,-7.233566226419775,10.552987960412779,-122.62925445290048,-14.38425832765894,19.962042849051095,95.25196846511392,-15.588342699564059,34.014544560735835,171.13566109207736,-9.373462781021495,44.3791480632254,47.5017074554023,2.628520298467805,53.8666180065212,120.53124598885184,14.419871130125486,52.7902357038016,-16.320965901945076,-152.0649220160442,63.03989345700951,0.44722330711778724
28.13727508782739,45.92552873562259,58.608263493364554,36.301617710152414,37.69643748682956,-75.36497525008897,37.74615742511811,22.50121561895324,-1.4437811346904965,32.16307145367985,13.486150481831896,-130.72641781119898,20.408399626471024,5.648048350695239,-64.89835235801783,7.2746999588884265,3.8192745980459,167.48355275835843,-6.834072058320984,10.168770679527713,-121.92953888369799,-14.166287587891837,19.50338492516964,97.19815687093943,-15.716507544753256,33.366802737101835,171.42685244136115,-9.565361471782445,44.308803459900304,50.446967023292174,1.8334462580746447,54.174640323429855,122.92998336307403,13.908253696062147,53.73962304581373,-15.219984200025461,-151.9844713863206,63.01552584510305,0.5456256830218241
27.88024301293089,46.56741320896429,59.55130217478914,37.76725338925492,38.800439960941645,-74.42898578731125,38.74389184003992,23.189331724424335,-0.18138102744039022,32.632590804478355,14.149088658917124,-131.1746225140266,20.632906887527753,5.9326240657298195,-62.81061313570361,7.768054416365409,3.8030162577389373,167.35812953492962,-6.202640219907046,10.211284372194177,-115.60743149900354,-13.42176373209675,19.564419512079734,98.57689319694622,-15.888892650411137,33.32631257184496,173.61059797809952,-10.130673953617205,43.919047654818925,49.39580102197113,1.0712009068228099,53.689299209333434,124.8866485725441,12.784969439578951,53.342505709654816,-13.970357627918844,-152.1590428210951,63.11397265065513,0.48440555130032537
27.837440841034578,47.07022075335453,59.38489621459057,36.016730363511954,38.816985578973494,-74.1736779903485,38.08939796642217,23.684951861369886,0.36081201166548454,32.990615397581365,14.498931954250772,-130.0097186822136,20.934279242684298,6.086395343880856,-62.21233437221321,7.968914560068413,3.882609838085468,167.8779466224753,-6.0800361218397825,10.105860625642368,-120.91943022289057,-13.993577387047274,19.332221188236073,99.81957425170341,-16.11651266910546,32.94956384511275,173.48552084497388,-10.430010442283773,43.792740805708874,50.28393707464437,1.3498633747079651,54.69025316103211,126.07171667094043,12.494871772495614,53.7478515479616,-12.944125728913043,-152.02108126116934,63.040739677341364,0.5255448546146033
28.0765529684779,48.537521379283014,62.24554812078702,36.067999156508634,40.37968546110425,-73.17374914271284,38.541688103787905,25.06633458092956,1.882099579725468,32.78583973100024,15.627563049518344,-128.0781532619232,21.138918308001067,6.782199647696802,-59.59190098957605,8.446769925368322,4.051464580446605,169.71222469179617,-5.726045666106437,9.93610355538063,-119.84022849492708,-13.737679653898631,19.04670654145572,101.43096130288792,-16.396487197347874,32.606816722466974,176.33996149323195,-11.018704197039682,43.561802311218386,51.31832162403194,0.24932896560014228,54.34247745695633,127.78637137056147,12.000960185854254,54.338361852155295,-10.815573971684895,-151.8980914587233,62.96781666151862,0.5106037976612088
26.753300550908676,48.526658769869115,61.66823368896176,36.12713162252787,41.055037079523835,-72.56208929600709,37.895806172737466,25.619766402462627,1.9829888500095318,33.539524071308506,16.056426317885375,-126.78578038872779,21.68981416731934,6.940059538451751,-58.87018713016496,8.773552148397044,4.081791258470934,170.35176920680357,-5.550795329757662,9.681602642689098,-119.00728688205764,-13.559579290745766,18.645412506058193,100.54974002643,-16.437943155263312,32.500232318992886,178.01462741821538,-11.406865691994234,43.419410161289065,51.950605572961635,-0.23803302857096753,54.5105087962348,128.4178435919271,11.422560557947364,54.56760809572714,-9.588368042235928,-152.12457412897703,63.07162088681903,0.5329690063376044
25.910050523720344,48.84141929900322,64.44135315514072,36.234016795320315,41.91028822959565,-72.39892477675504,37.934230609518906,26.24059915110113,3.244965028366467,32.7448928706073,16.697464636985515,-125.34526513527493,21.95780862585393,7.37471388123104,-57.866572088337705,8.942834501597538,4.245710405176885,171.22052619724514,-5.379958387639043,9.74656888597857,-118.4810981955364,-13.386928332682231,18.63254937317231,101.98331743000251,-16.39449752666902,32.38855299299398,177.98613600040767,-11.50146515365082,43.554056633280304,54.81042345146974,-0.5131903618018114,54.66986802625735,128.0655226744798,11.148887558071259,54.85053772312762,-9.435953694740002,-152.19749302220487,63.1140262069273,0.44041663602183123
26.922444328196434,49.844193077974296,64.71726239499893,35.23997812058866,42.01529420849571,-70.64601112283998,38.09440633459806,26.80176835495088,3.921166970969075,32.903338795154625,17.34279475667978,-125.87080753531177,21.910302868059105,7.787945150757734,-56.75641953754393,9.23315756642593,4.411809910215315,172.4549069989799,-5.412193526212285,9.551018037218318,-117.90454120978899,-12.895427875654057,18.448014492041235,101.88394556928674,-16.193228074618332,32.341977181348085,179.7702521194991,-11.840918929007898,43.35080231650053,54.13887979987269,-1.2472745504825085,54.41768161623075,129.82160661788393,10.445133115417732,54.795909298441224,-8.628933164510329,-152.1836237628611,63.11433906256529,0.5165356060691021
25.562029309912205,49.77782532774573,64.39073343791678,34.39284384932405,42.425430920121876,-70.7725257282094,37.09205681513218,27.203303593788867,4.128960276052597,32.654797380594815,17.549307343849726,-123.6348740581135,21.94708577495024,7.956977649525369,-56.675521552394535,9.387384204631793,4.5727869031463015,172.3879760815823,-5.042593411745102,9.708013166833595,-117.21339944830024,-13.255192059834727,18.384898476073953,102.43449331076897,-15.680933493244687,32.65073078361666,178.72262443818826,-11.903648716821984,43.5066850702963,56.18222599123947,-1.542227698911475,54.615149626617836,129.43742009580296,10.080938407171033,55.18489805656325,-8.277280070563371,-152.04128048755615,63.04819469113922,0.4757455682325817
25.280289317825392,50.22070331335119,65.47872867564317,35.837082434922365,43.52486927835722,-69.14132388133928,37.84880781801898,27.901988776828702,5.359817843741957,32.989316804070725,18.213227460589067,-123.79064066084682,22.551960760917012,8.562325452862325,-56.087813142215005,9.448819539548033,4.93972173982306,174.582378026456,-5.056799301660341,9.635170867149217,-116.48061241931977,-13.165989721741603,18.163091960143298,102.5404049681705,-16.580589152356495,32.02814388828247,-179.29721324048228,-12.221597809077906,43.27417687526283,57.39383324123261,-2.0494377923253637,54.641437213924085,130.23363136572505,9.649168689410622,55.37193138010754,-7.827972097285065,-151.95360768925735,63.00292248427319,0.5443545973174357
24.89379488829711,50.63708755598005,65.219037515706,33.7365164456011,43.368466963777955,-68.26222699108094,37.20297687190876,28.369002690505603,5.954312572291648,32.971145109438154,18.61634022471631,-123.35220243199082,22.255568393659473,8.829745702784132,-54.560806196760595,9.902693650605393,4.99211027823241,174.46780535145314,-4.828946507284769,9.7023984087053,-116.12179631508413,-13.219696831665786,18.257920448927933,103.66815366766207,-16.476735036696468,32.06675394644166,-178.02890777666946,-12.569236198391671,43.16838206801647,56.36908995332064,-2.2907388542931173,55.000558967241474,132.44509180052574,9.279142245007492,55.71883589074396,-6.710810548392783,-152.0129967587497,63.03679390171373,0.4282875150940619
24.54480593725664,51.09030950458742,67.20344844536947,34.12214640391598,44.17519649131899,-68.46356465443425,37.06303118035011,28.902894453661766,6.943060630893015,33.0104866724793,19.045401903586335,-122.67701665787114,22.67152197375154,9.301128174246948,-54.29231139329048,9.971452148196157,5.357669415210068,175.20777473697225,-4.285878914540746,9.790403846432351,-115.26830251701772,-13.041322634517073,18.175727706627786,103.59441820733504,-16.620627753529696,32.103090410371614,-177.5842946100779,-12.637485467244247,43.58064453029869,59.22325276911165,-2.7970770162280942,54.965011469950625,130.6192006708569,9.193648220966352,56.19346268040199,-6.683197272864051,-152.05222671921857,63.04228700228243,0.5151569562560652
24.28598477099945,51.343397603286164,67.21622902785677,33.32259880427172,44.408488281325695,-66.81277184591897,37.1983180172183,29.50028734001048,7.4389459188903855,32.96983278691178,19.57973680914945,-121.5424312247813,22.937594437587038,9.756824877231304,-53.853230599775834,10.38423007858028,5.611079590247412,175.85975987376366,-4.459285187264101,9.878958449095158,-114.4880000794028,-12.968083376654604,18.226263295434798,104.36975460911641,-16.782621200088364,32.00522075355106,-175.93677601531365,-12.9470235400876,43.4321170435652,58.80484835381905,-3.1811220382083576,55.03257571923859,132.44630255381065,8.449675469254366,56.206910702092536,-6.178244803957823,-152.1873591421013,63.11112866662619,0.46717014545497976
23.98471232201193,52.1047604406129,66.81180383479263,33.03816410063007,44.97790496803687,-67.02635192693954,37.181438759980225,30.06859570318033,8.682486704053591,33.23530806417412,20.17795561121001,-121.3858640707211,22.938586847444142,9.922293931358706,-52.100028922895916,10.733597773619948,5.63242684073441,175.5970671695566,-4.202716070825652,9.89705030126705,-113.56459540444366,-12.654122978498052,18.05841348799334,105.21603016215354,-16.648714648049314,31.97390649700833,-175.53595674603,-12.96654397633597,43.64434482954348,60.715423337956615,-2.9162128266046494,56.02842317741187,132.33463894267013,8.273201517832511,56.582780533269414,-4.156904811097674,-152.21425611709924,63.12716615466925,0.4594888316560369
23.102300933269873,52.07900951534947,68.80031723841661,32.68857535774542,45.432041566566674,-65.71249050449349,36.903390468720204,30.63945052957996,8.932081699611604,33.159116607873,20.514103316939664,-119.48965046981397,24.183665406105476,10.231027791779377,-51.20189568790223,11.001025679175754,5.88071719779642,176.39213599905756,-3.671236458653418,9.965654254456416,-112.7989721065025,-12.584804489015305,18.00964122779449,105.97576333889704,-16.870704140468433,31.7326707422811,-173.97906900099815,-13.412768340394777,43.37918044700665,61.057660398907245,-4.0645624288508415,55.060549194501874,133.70336273482545,7.493588042450504,56.477113887796726,-4.611736814076731,-152.12347318985627,63.07513556774167,0.4900135783521561
23.811617101599197,53.155095553859844,70.33222016244228,32.41257855879786,46.29286724688371,-64.72961177755629,37.06752869108392,31.547346489615215,9.859143428378225,33.11442522370429,21.346310782239172,-118.6592673490674,23.6681853204273,10.852817074795684,-50.14134648916235,11.29085622622825,6.136254804748144,178.20351977614234,-3.584227962507555,9.866724455777142,-112.48100524844507,-12.417080783308144,17.793675022927985,107.30729452183455,-16.923220702989774,31.44726203299669,-173.09121038769428,-13.805085173543574,43.00289648441563,61.325751924171804,-4.492201252063005,55.400862143922794,135.60947871866443,6.901778780479688,56.78971895510972,-3.0673702755015424,-151.9842007810635,63.01109469149549,0.4464616042031202
22.46821284256977,53.07202909436198,70.75651639293324,32.89097460485243,47.03253318128736,-64.78110869101529,37.03732415261166,32.00721537166219,10.949830374721193,33.57347528411054,21.78383157320612,-118.83755214326108,23.657145776962224,11.02259754270388,-48.87142619469834,11.689854268275852,6.207864348433623,177.87720801871092,-3.31899049406379,9.856710298546732,-110.8074346741267,-12.29449308651757,17.589246341390457,107.22805073370355,-16.885916287053696,31.36374753063717,-172.2254064120111,-13.89440091796272,42.96293121317781,62.87970338867563,-5.009158342515818,54.8106355461009,134.80050767871774,6.95424951041803,56.98232631696034,-1.6296131180656366,-152.05671806128467,63.05519416890244,0.5012623965898372
