Amin173/slam_and_shape_estimation_for_soft_robots/bags/maze4/2021-11-23_22h39/data.csv
X0,Y0,Theta0,X1,Y1,Theta1,X2,Y2,Theta2,X3,Y3,Theta3,X4,Y4,Theta4,X5,Y5,Theta5,X6,Y6,Theta6,X7,Y7,Theta7,X8,Y8,Theta8,X9,Y9,Theta9,X10,Y10,Theta10,X11,Y11,Theta11,X12,Y12,Theta12
0,0,0,0,0,0,0,0,0,0,0,0,0,0,0,0,0,0,0,0,0,0,0,0,0,0,0,0,0,0,0,0,0,0,0,0,0,0,0
-1.9209597456249128,-9.007479285095446,170.97932797254717,3.199408857451971,3.634261379877604,56.38320197999256,12.785407788811753,13.888516145152309,119.78528887215884,23.92515539037462,15.111738947087115,-8.690087420284435,37.69869435706552,9.145922885276635,60.84993695930798,45.73003017874622,-1.077485956116882,-65.30351615056748,48.15313188257194,-15.310817194909678,-8.774421508035433,44.69258067372944,-28.847125534249777,-131.8931630703793,0,0,0,0,0,0,6.818225020635587,-33.85841286282376,-109.77514143062061,-1.6010638424861199,-24.106260495523046,113.7590805813633,-140.84962758693877,57.97286579440815,0.5157095597675835
-1.9296171532586186,-9.00959654308921,170.93678756759678,3.201075203819215,3.716813004964828,56.509446588169986,12.77210847592277,13.91493842599984,119.76245350851036,23.89300604885711,15.101200361232888,-8.64255944586601,37.66534794222511,9.136657677169751,60.83408440273592,45.62111534331045,-1.077273368739748,-65.32387285492189,48.221179855984346,-15.337210605060047,-8.859181672003837,44.69093637546905,-28.86333504202087,-131.85560815634037,0,0,0,0,0,0,6.811803453032972,-33.87829439849811,-109.76941191551342,-1.6188693320642926,-24.09225671374932,113.85946009627838,-140.78900126738006,57.94449738277167,0.49058445297118053
-1.9361270670596795,-8.981004264391455,171.13846289843198,3.028620030862129,4.050562928237258,57.58387644565654,12.508807921505237,13.828292396621475,117.93050932249412,23.695479392985547,14.947385508018378,-7.379325138599322,37.71361011219811,9.098691591512654,61.09487481445919,45.78660953341826,-1.0299563468306046,-64.89701178502038,48.25263576905556,-15.36576090581822,-8.576747072112086,44.54904592689074,-28.808238322047202,-131.88122642524084,0,0,0,0,0,0,6.7372691876125685,-33.79715144795586,-109.7177434855282,-1.5565452999996197,-24.13024462964087,113.69371807066244,-140.78375818983443,57.98200745407024,0.4587288938538696
-2.0241257732244122,-8.951240888664309,171.06648575546612,2.3265690459494763,4.132237204236692,55.780385972804375,12.324516335306875,13.623993003277633,117.58278014189311,23.643113269568538,14.848057114695088,-6.735505922121224,37.372686574866975,9.04693354617865,60.885842926380086,45.46777311598794,-0.9905280898683086,-64.88362668520992,48.17424285724785,-15.351160636720042,-8.464720114030863,44.61284471424844,-28.84564226318382,-131.71795007988212,0,0,0,0,0,0,6.790695194585496,-33.86126186828598,-109.81451148324649,-1.6169408739404005,-24.0996533304988,113.6397319938062,-140.8439363355979,58.03233474662731,0.43443613621502314
-1.9409901316498832,-8.859442766633666,171.71833200000373,1.543272395854153,4.396005936481995,54.78979614582557,12.0765196842665,13.303500922658195,116.82077681987947,23.611507765398414,14.669610723993884,-6.135037074890012,37.36983214163051,8.956074616508054,61.14070519076412,45.413538084113526,-0.9834680329445424,-64.79228761957643,48.21856892285116,-15.349579869496598,-8.413525837155085,44.591151125191814,-28.823565239017178,-131.8073163196755,0,0,0,0,0,0,6.774474022461781,-33.76725251921183,-109.84747609999658,-1.502364842612053,-24.100335476103414,113.28429959033369,-140.7168000913218,57.99775813802017,0.44542973242241635
-1.975783778357794,-8.813765749984032,171.7552125033991,1.4852835992190876,4.516627291299216,55.49626823658145,12.042721474433499,13.265465394250857,116.37789315448403,23.5308847318639,14.660364466238676,-5.963845964235488,37.21869827064144,8.955351065365686,61.04824466449165,45.39723251451754,-0.9710548214517054,-64.69187137042975,48.22678001548054,-15.337814164556164,-8.408433439292164,44.84284884859136,-28.920920555270897,-131.71865632629073,0,0,0,0,0,0,6.745460557987052,-33.729355760871634,-109.7627002916636,-1.492484515620518,-24.068026702496287,113.29854647548079,-140.7005069969653,57.960524126776775,0.5035852912162075
-1.9764851943888218,-8.851347942512515,171.8806149938935,1.9055647477504323,4.272286092005826,55.86977024380756,12.25154903135499,13.492350059008498,116.43114645875703,23.649573507376687,14.751598781280087,-6.390249680205486,37.455038862666726,9.007523173838228,60.953557576336394,45.66227757884779,-0.9797788681525894,-64.75785952925878,48.27508071828696,-15.347389772140389,-8.401084066616574,44.639877984446045,-28.81673594951485,-131.74300932530863,0,0,0,0,0,0,6.777495654930064,-33.79401137836229,-109.91026931012243,-1.4711218028207327,-24.09520971912818,113.56037708939029,-140.84695498521762,58.01809432153167,0.46046957579387465
-2.009571624213919,-8.83210542888444,172.01780095011077,1.8383266537139988,4.241156293242655,55.57118444078237,12.175034206314393,13.493297240317414,116.38662171430327,23.56638731645264,14.759169529326812,-6.538446125227122,37.36421349057356,9.025300022076939,60.952695177368355,45.339778971424266,-0.9369178477076572,-64.85097094392275,48.18523945920809,-15.311631042065233,-8.365057500219594,44.64536168137094,-28.804392653121184,-131.7318073924768,0,0,0,0,0,0,6.77460133640831,-33.780004696027724,-109.83865700847484,-1.5227361205935637,-24.046446114853488,113.53722452290164,-140.85702872815102,57.98914508683301,0.5257614203613946
-2.0213368364157347,-8.829839938953356,172.0408975875965,1.848034983086741,4.226652759058528,55.541835733761936,12.15717162208589,13.482972387061206,116.39629318825732,23.6853811004191,14.778118603614242,-6.350183921037232,37.47266848765193,9.070696889991659,60.862209884370685,45.47359440199993,-0.9470739964356572,-64.77923964212981,48.18919519056375,-15.315145539015191,-8.384387168389305,44.79923304898263,-28.881094365086433,-131.64489885192194,0,0,0,21.28769566033489,-37.40998079753684,-179.58842099660816,6.756651579082828,-33.77844575309885,-109.85218393324736,-1.5503479039974124,-24.034820523545193,113.49519211293565,-140.87005590765182,57.98757336747756,0.49232461673280603
-1.992203015547389,-8.837556249239736,171.8479114010547,2.05544942655807,4.2098639902545525,55.63268858966026,12.27220458604232,13.389297167249342,115.02908220075776,24.16610049330604,14.742154030784508,-5.926894437037897,37.90338482673411,9.087136767514775,63.34343081962285,45.51826125803211,-0.938090883341788,-64.84726218282891,48.16305870622408,-15.296369250746736,-8.333276588494115,44.79923304898263,-28.881094365086433,-131.64489885192194,0,0,0,21.343655490237197,-37.44461722970848,-179.78738820700042,6.797514712387915,-33.796446572222386,-109.8667126242685,-1.5215977097963176,-24.040263558901326,113.46465185027932,-140.94164596589758,58.04425559290624,0.5377723967138972
-1.9774229587066259,-8.85709911114036,171.79864928751437,2.257361456009427,4.185685712034647,55.60260799554663,12.299125787870409,13.370833931538307,114.27392893027192,24.248700193965405,14.679598550322243,-5.757402230951744,38.0011582315676,9.30086541891701,63.69057512149211,45.52198296601762,-0.9382474488558392,-64.87831967187087,48.15858157196659,-15.300027774727486,-8.238008325320218,44.79923304898263,-28.881094365086433,-131.64489885192194,0,0,0,21.44071564866036,-37.52986396977702,-179.87596334171246,6.7538281726680935,-33.77454157026873,-109.88300976403411,-1.5202242855401522,-24.05826969404804,113.42822133908433,-140.9325272345461,58.06373745918573,0.423746507603199
-1.9538266692976904,-8.868325603926564,171.78373940521632,2.2088994633532124,4.174060787345338,55.79040912163838,12.245976775356944,13.355473813721868,113.86900752181603,24.350468424311288,14.675070173667617,-5.514981785686032,37.806267891905605,9.35629964553648,63.54631772050632,45.546174456685165,-0.9311276427070139,-65.00448800789475,48.116323491100374,-15.301034376110394,-8.126052501476432,44.79923304898263,-28.881094365086433,-131.64489885192194,0,0,0,21.312423422944157,-37.43546431651354,-179.7656153108666,6.763016984019757,-33.778965789407046,-109.8687401142108,-1.4620177687249267,-24.100255558843383,113.4399473775645,-140.74292943726374,57.99123181546844,0.5792871569280179
-1.942930876418643,-8.865876851533972,171.89433207105682,2.2878944330670663,4.176735066040064,55.87112797094158,12.26617984662159,13.381138572624618,113.87878560436977,24.291467260825982,14.683869405634884,-5.504873686513115,38.1733642746501,9.270817826172593,63.368000728796076,45.63295997974795,-0.9370952069723604,-64.98472961460355,48.2919992699736,-15.348580790421515,-8.075153969377993,44.79923304898263,-28.881094365086433,-131.64489885192194,0,0,0,21.484570758806697,-37.54758777052039,-179.86554457622597,6.754505071357862,-33.763443984202056,-109.84129423866,-1.5176060790688481,-24.047652690252065,113.43221619495657,-140.83839188766757,58.03192664571756,0.47028504287459266
-1.9605283320650955,-8.84798458263798,171.77338941000932,2.2686897876124874,4.1898047284380375,55.91426350349536,12.286388588236335,13.40149457635259,113.71945128176226,24.281152783380406,14.714689443939367,-5.360157363741934,38.66642644997155,10.111654786645614,63.155781838108545,45.44781670277288,-0.7561466003262378,-64.8543625624902,48.082133263832475,-15.223455704414413,-8.053813153039338,44.79923304898263,-28.881094365086433,-131.64489885192194,0,0,0,21.38476716979818,-37.45851336237563,-179.6584830048806,6.733546700302291,-33.740775983180576,-109.77951158212674,-1.546269103701242,-24.018227051653312,113.41388035426152,-140.80904088413598,57.95809845868532,0.5240931786555083
-1.9771615054895548,-8.839201794996722,171.8112463799065,2.4016513985831764,4.1818256954470066,55.952096044266874,12.313413679319439,13.383957024648183,113.49351901687976,24.34077905100284,14.69419579291327,-5.200956922992066,38.55266976066768,10.234653318248153,63.40994305738899,45.545403353076324,-0.7632885834214811,-64.83916570299817,48.16838292095494,-15.234287158550899,-7.9210051495621325,44.79923304898263,-28.881094365086433,-131.64489885192194,0,0,0,21.292313335222296,-37.39468268337165,-179.63539310906324,6.730118407367122,-33.727531428826595,-109.89505750077784,-1.531934589026541,-24.028731302012236,113.43864326398119,-140.87392627354149,58.000553092871655,0.5925843740981219
-1.9651756779439111,-8.858952263168792,171.7057066503886,2.3477328496057837,4.174007997373392,56.02196703362693,12.259812748525079,13.36648327543777,113.4177776646678,24.465348319579945,14.694112797295922,-5.172653903595052,38.50248959956093,10.24271422909564,63.292886529880825,45.43078462318732,-0.7752624440290008,-64.76532218662454,48.12976007720542,-15.243118035787333,-7.895563213423229,44.79923304898263,-28.881094365086433,-131.64489885192194,0,0,0,21.29923423213433,-37.41909777746187,-179.7074117419561,6.78036307804696,-33.7937117291689,-109.86272024298476,-1.53043942726962,-24.04251282250615,113.35633551932052,-140.89721180828028,58.02633022620001,0.49020596205886435
-1.9719647777145468,-8.854794629076721,171.57375589232777,2.473082746106442,4.15452733418431,56.00086411468388,12.317109194385353,13.325151073774393,112.75741623239558,24.52053532026612,14.661396968604038,-4.4211624259766955,38.753042482919724,10.366963553059922,62.550957049531,45.40102634752256,-0.7330101758763918,-64.94420980256406,48.138637401886655,-15.25097319100136,-7.748846629765976,44.79923304898263,-28.881094365086433,-131.64489885192194,0,0,0,21.282136473068064,-37.41319608464083,-179.71423986240086,6.801819817123317,-33.8075462350751,-109.86841675539482,-1.4605505594350277,-24.093674236333513,113.36912242533275,-140.77398591888158,58.00557590686328,0.46241733959010306
-1.963468252889058,-8.875053167286442,171.89047279234828,2.495903911744662,4.107560603505556,56.24503883822236,12.212741395933698,13.356661400586539,113.46984037384755,24.0301889376844,14.54488994993805,-5.317895740499686,38.123064847570035,9.61179241829998,62.53371261438166,45.54710416609309,-0.989408962263985,-65.28351543204411,48.16235462103502,-15.32300151117498,-8.076360349471921,44.79923304898263,-28.881094365086433,-131.64489885192194,0,0,0,21.380417126065232,-37.49048223926263,-179.8145618172219,6.774431697730314,-33.799031467755405,-109.89044518226643,-1.479715297793419,-24.089619674268263,113.48375767016996,-140.87461926525123,58.065408868949135,0.46549984496861324
-1.9857496554166616,-8.844257144423722,171.82598092986638,2.3182107870802824,4.14664256509116,56.11902337509621,12.264787913412043,13.369417085345411,113.25051417874516,24.34663028395265,14.688610725338812,-4.572093507119959,38.581546003326906,10.124719031443524,62.09949192165409,45.46742759365337,-0.888620280685612,-65.11985628932844,48.14677263433995,-15.279257829716503,-8.032688537693597,44.79923304898263,-28.881094365086433,-131.64489885192194,0,0,0,21.337360709712755,-37.43018176436748,-179.883702103768,6.728646534199456,-33.737742068923936,-109.80014268159724,-1.5137521088381263,-24.045245354586942,113.46287079661485,-141.01883814329653,58.10165823027316,0.4813990735031664
-2.003775014524855,-8.82659259761829,171.67578356642787,2.355422905919916,4.172156286088029,56.10843106450119,12.274536260572816,13.364865274682963,112.70808491499315,24.492282406581026,14.710455422636201,-4.338177508670513,38.70134170764487,10.494250593699817,62.3146662250712,45.381228085472245,-0.6954437486338323,-64.90886505127271,48.13022698449984,-15.188577539590128,-7.467252874189905,44.79923304898263,-28.881094365086433,-131.64489885192194,0,0,0,21.315337594221738,-37.40585561245651,-179.64901003187472,6.711721308074132,-33.715090009266994,-109.81569968206905,-1.5411811654719614,-24.01609927760458,113.39771626929794,-140.79537550104305,57.95988690285456,0.5210532507775865
-1.9950834485500337,-8.834429201517874,171.63761509041018,2.4206519311243824,4.140808600304217,56.29192535781058,12.289287499036739,13.403889854286959,113.24587887781927,24.25901060318811,14.642868672369925,-4.7928087733817435,39.222279078541746,9.985089056693788,62.03175319341865,45.75565391818118,-0.9119621863209693,-65.04141302245877,48.07310593027239,-15.238455521921246,-7.946955211526963,44.79923304898263,-28.881094365086433,-131.64489885192194,0,0,0,21.291657028400188,-37.38256518547822,-179.81603352128306,6.744122996953379,-33.740309451778,-109.80328860229336,-1.5328859899918328,-24.023999661601326,113.43714097236311,-140.72987752679714,57.91915386500715,0.5333165095382303
-1.8914602171145631,-8.894420088007955,171.9870209903349,2.417379162765293,4.105669895525558,56.207205512575534,12.215627924526181,13.366493318918803,113.33647433878299,23.99256775196062,14.560503187489267,-5.452965923147159,38.20170649537933,9.815660057943692,62.260531774267406,45.4371294297692,-0.9868081794074053,-65.2959680828427,48.049523567678904,-15.274111325138954,-8.090137565891107,44.62982303449279,-28.843490899769918,-131.66253596855702,0,0,0,21.370841429044823,-37.477461495722245,-179.76675605094835,6.714242229421785,-33.73739591029666,-109.87186391150789,-1.5066184753934024,-24.056198765381975,113.41212800450712,-140.90931150122685,58.057765389496225,0.4701361821467226
-1.942130473642841,-8.880574790308057,171.84830212826824,2.347354779609745,4.106189260608957,56.24145653600354,12.174753691102836,13.356197557290363,113.39057437922466,24.230737386225954,14.593575119309534,-5.304795834223066,38.126963634423475,9.799342892024807,62.23980922123585,45.48394614809527,-0.9968994731013643,-65.37022784731836,48.077915774440484,-15.29008558132901,-8.16861465511568,44.62753096038088,-28.85371670470039,-131.61521974873162,0,0,0,21.38268674151511,-37.49537149120479,-179.729391061464,6.7230700883006165,-33.753962993652515,-109.91982200829894,-1.4721260673669292,-24.093617954855212,113.50472291566567,-140.9096534809633,58.065900151506895,0.4919791958009466
-1.8977558962843872,-8.896428127502528,171.95258073375024,2.399216603114823,4.100684036237917,56.27090874071497,12.166904353138783,13.350994608777857,113.31536808640703,24.133385453369627,14.573562400457433,-5.290131379055863,38.317896844602046,9.799517680553404,62.236906010129786,45.438198501334696,-0.9949627577916189,-65.32064767499183,48.060671855778125,-15.285882832638716,-8.216027775353835,44.5115090594651,-28.801044431976706,-131.64516488109524,0,0,0,21.341370247208324,-37.46405287734672,-179.69786629714346,6.758635542190255,-33.78107152382415,-109.8508570896521,-1.492073737145418,-24.073963572454954,113.4927190736751,-140.80549208211414,58.02942924920607,0.49197609129982056
-1.998855256628346,-8.841935352425924,171.82637927587143,2.3359987686434067,4.128446318789425,56.17629515942797,12.240979463498263,13.391519292823538,113.31243584907014,24.214071629127886,14.616206237489244,-5.390290354624558,38.19873052301823,9.820289421881387,62.18224856341191,45.49709915658333,-0.9596061661072985,-65.20037780534794,48.09340956929782,-15.2568151976884,-8.142793210768103,44.620057429794315,-28.810302563795204,-131.4651342769151,34.48905783455106,-36.56629292191063,-78.59290938271944,21.442266751757963,-37.508814683389545,-179.79002778134696,6.707953442351929,-33.72566854736308,-109.83606052791612,-1.5428299123347813,-24.023711900704427,113.51108260120583,-140.83916250694585,58.002481375419315,0.5164780810386996
-2.0026423330796774,-8.833203861460404,171.75928179319376,2.3241587340718937,4.133891251431604,56.17868281524544,12.26822831672304,13.402810041829458,113.3337977157021,24.04208774277545,14.605477775089177,-5.1523169828907625,38.11873610641962,9.82240815648318,62.26932535340035,45.479075181028335,-0.9482704151248003,-65.233469231496,48.07173227056471,-15.238855768405308,-8.184568877165935,44.51523635134171,-28.75793390117795,-131.5678737397221,34.38303586410022,-36.494534003222604,-78.4888167399141,21.33770581658152,-37.42135781176061,-179.86865160122778,6.712974024444762,-33.71759816679628,-109.74995487561849,-1.558876035042978,-24.002010001835284,113.47324627130041,-140.92908791236385,58.02877058050465,0.476353128219386
-2.0052346211481122,-8.836488253447648,171.69325018757925,2.325594961100485,4.133068391173295,56.197741733588316,12.27493419363978,13.40646818704814,113.3250683711377,24.008902472599885,14.602631058785018,-5.075471538302404,38.04444886892709,9.818359553553218,62.108411900991996,45.48334654402663,-0.9499381696115412,-65.2301691687793,48.05078928435155,-15.237951873585637,-8.194368159096452,44.60861247906446,-28.802084946884847,-131.52657724232716,34.42721642254837,-36.529337822338896,-78.65243432179494,21.473049238166936,-37.52689606699064,-179.8078542044048,6.721808361626508,-33.73323071449405,-109.78856293395806,-1.575466132251563,-23.994535235245802,113.4339566113393,-140.80868059920084,57.95865275107852,0.5761136468066158
-1.9767293374087913,-8.858240140913114,171.68730315885972,2.3956802502097645,4.111764597582523,56.24576094021007,12.251170092773805,13.376566999591454,113.29691597971915,24.003714252326567,14.565622599331082,-5.3508429262220725,38.17395558557159,9.786787176184031,62.15995805222004,45.63429466864213,-0.995413247710772,-65.36417284145061,48.03660338649742,-15.26851027222347,-8.186854195955556,44.56974412337122,-28.817477357988103,-131.63991315853193,34.49495956381804,-36.59309348724726,-78.47893925868185,21.420118823052412,-37.51276520950094,-179.6778735806227,6.734829599742781,-33.76085931874328,-109.83579670722096,-1.5339486508987719,-24.03876768766667,113.4313210914975,-140.86747887316463,58.02681553624669,0.5253482068010767
-1.9144865296911462,-8.88964579897181,171.83956703121586,2.440321146577851,4.099244891260681,56.18496277156742,12.227593207618,13.359844166057428,113.32481442770118,24.21334247004345,14.583322786490072,-5.15388725865979,38.12036155312046,9.77038661335196,62.19256061237173,45.45241524400032,-0.9961398858310684,-65.33347959445514,48.1025734146242,-15.295980810905153,-8.173375678022351,44.52473011902586,-28.80742404405799,-131.68910623517965,34.386261952955664,-36.53660209758633,-78.59175973995139,21.416726578109156,-37.52020652914297,-179.67754375511112,6.738389257434136,-33.76575483923661,-109.89045421290481,-1.502696869405895,-24.06292676293969,113.39177976621241,-140.82319984535042,58.032702339893255,0.4874122479983066
-1.9329575484985284,-8.873593585638208,171.76907252133208,2.428704223198814,4.1147372493929915,56.19317590993876,12.31130765198025,13.38628152890978,113.31977958799808,23.991642309356564,14.571253430961768,-5.248526294286124,38.205610677572636,9.78734111389996,62.09431741320932,45.51014330965745,-0.9778608234804498,-65.22067488248909,48.08515502835799,-15.269301393539244,-8.238210025277194,44.56072200491366,-28.80188268253867,-131.53009107952482,34.42869561604289,-36.54498273087045,-78.45150150927644,21.56682020128015,-37.606610330796755,-179.76488022042284,6.767418033135392,-33.781628534097045,-109.78086682040177,-1.5145191500323847,-24.049281568348068,113.44285100919407,-141.0158185279394,58.11472781170827,0.4301577421559217
-1.9841410759777744,-8.844221261618486,171.70125564347495,2.3684430304296384,4.1260719919681685,56.18342899570117,12.302681777537146,13.399726498235363,113.28326296229615,24.232246972399302,14.617919031525968,-5.287036947114,38.24014560610682,9.803773164994247,62.10253541208505,45.480752873719,-0.955972589660103,-65.25759291579857,48.09871327709129,-15.253127922509659,-8.17141550784487,44.627511272587284,-28.811526382482775,-131.61816267515917,34.412553846284766,-36.515119363059064,-78.45611763594196,21.46983781714391,-37.523677764458256,-179.69145345910277,6.737309437951161,-33.743997373851684,-109.71647396124789,-1.5362607867646787,-24.025195523450698,113.48627445846904,-140.87313338430494,58.01440394213426,0.4868661681693918
-1.9568790022209086,-8.853642518379477,171.6942647519403,2.3310723866739593,4.132203011842541,56.17344742454756,12.327245348523526,13.407336031171134,113.24872613635856,24.1165885043621,14.608553476356981,-5.2020729369289045,38.10304594115654,9.79932013978093,62.17054791192194,45.540904981811195,-0.9583504039187227,-65.23780919909231,48.08884489880826,-15.251340610587615,-8.174165231773948,44.557005951659306,-28.783182067412383,-131.5562433651431,34.491993508800604,-36.56026774069935,-78.50201948041543,21.458086052769985,-37.51419354776157,-179.95848597017545,6.781931092848282,-33.782502625249336,-109.74974152972702,-1.5185366118341364,-24.035951563768254,113.4297302046065,-140.8495568168933,57.98601141225237,0.580701631634967
-1.9782253523487725,-8.854758929318606,171.8160221972519,2.3832891100425897,4.117578761031019,56.06741709902586,12.276322432149456,13.388751384054189,113.29953915592212,24.10585285271781,14.59150833224071,-5.268130167190367,38.180575319135116,9.789760980143352,62.09151168802752,45.49467888000791,-0.9729494502973015,-65.24823683713883,48.07691617616163,-15.26871442289416,-8.1815069805575,44.66577535841974,-28.847376634292885,-131.393282940406,34.4213031226882,-36.54473413352152,-78.61633452229773,21.603050650738375,-37.638593285016036,-179.96418591289165,6.771363217165721,-33.78822280784375,-109.87659404178412,-1.5387753866869431,-24.03255859838172,113.41993988184703,-141.04456055979904,58.098508851978664,0.4907544503426611
-1.9005374341513175,-8.894581095539,171.88021373645643,2.385147589507696,4.105227141210746,56.13859899868663,12.212545053231779,13.361408321267486,113.35040611182313,24.23654078993532,14.589593600426962,-5.284974951324554,38.177340367793846,9.760540982910289,62.077853238546496,45.479173938923694,-0.9967362234104185,-65.36581547894846,48.097839697938454,-15.294575970523017,-8.145641134180629,44.5780525874831,-28.829314257078984,-131.6169824615796,34.35658309558241,-36.51781196194737,-78.51339955657657,21.434123608606853,-37.52954175180736,-179.74564639327988,6.771666384762987,-33.79420639603573,-109.87707065709803,-1.489762315095561,-24.075899688695984,113.49021301348638,-140.9071905152298,58.071666075492395,0.5268915961887506
-1.92760412326421,-8.869678068135151,171.79387411581297,2.3623735089692133,4.120309350886464,56.18020932373207,12.253382689589564,13.385982723492594,113.38685641501071,24.178441153956165,14.600393565801749,-5.267793956762297,38.13773638736477,9.7873836675538,62.04138610221227,45.49533814588649,-0.9706118020704615,-65.3632203435888,48.14951757003878,-15.276678872230892,-8.189787752911561,44.60501311741662,-28.810546940173047,-131.55992813592582,34.61978837372891,-36.64007909405759,-78.45488359638561,21.55595989618596,-37.59273694540487,-179.86162538531295,6.764525921060155,-33.77067998746961,-109.84138008924926,-1.5243065820883217,-24.03490773741737,113.51971622708886,-140.77258250602898,57.97348789819598,0.5672631578299772
-1.945794706254965,-8.858938041202386,171.89418338450494,2.4275848308232924,4.126814978125942,56.1426450218228,12.295630141499245,13.406049790612913,113.30298554037046,24.095649831657667,14.607489908247175,-5.074862844308349,38.35349991089427,9.810467239453589,62.15448796107411,45.49794721873255,-0.9527398857186826,-65.16257283154896,48.0754365634876,-15.244476483615149,-8.147674401801737,44.547576586367825,-28.77317808375019,-131.49302326133505,34.401449377601566,-36.51274884184265,-78.67891065527719,21.516441545983263,-37.557421716605944,-179.78191125126796,6.752559840672809,-33.76388033290995,-109.72970085053177,-1.5417055281591487,-24.018800342825614,113.45473081810778,-141.00754745154995,58.070986157034824,0.4415790772437797
-1.9676476936327347,-8.853356043275728,171.8450603010541,2.4019187038468672,4.124361779322795,56.19573323907377,12.283763378322597,13.400812730764189,113.28808775777203,24.164080912174633,14.61263078943449,-5.3438982073451795,38.179647143636316,9.798486797814663,62.07955569813184,45.54487234263135,-0.9644885764854472,-65.23425348245573,48.14468570004787,-15.270097059266192,-8.211846953020132,44.54590171972799,-28.78859466143053,-131.47227579360592,34.427744680119844,-36.53808674075534,-78.58546726164522,21.527880427924913,-37.57600284346033,-179.782630988397,6.766975694330085,-33.778790915423585,-109.85608598280871,-1.5512645060759667,-24.018411059132934,113.42879719049594,-140.982672994231,58.051483266533104,0.5348114330065681
-1.9379604879719352,-8.878859521967176,171.9055403404026,2.4070359972768856,4.104562877290865,56.120043661440064,12.205973904000508,13.362681722327522,113.37180445235563,24.234947827740044,14.592021835799141,-5.229887552917544,38.18453453865165,9.762575486846712,62.04774193725666,45.5346724564554,-0.9998430204432855,-65.30108118030341,48.079481067024545,-15.287373846477607,-8.137325639608834,44.585189083810945,-28.82982045789661,-131.63908856883313,34.4104985860924,-36.54850521627299,-78.55876580292916,21.44926563288446,-37.539907193835056,-179.7415803223663,6.779821755867282,-33.80120872169621,-109.88453615955343,-1.4801409101471208,-24.08284080092758,113.47671457029045,-140.8080184014088,58.01454954658446,0.5026388400065066
-1.9673653548328502,-8.860155133895926,171.80404200360368,2.3818919126861147,4.113323233768616,56.18440761076144,12.262495634812709,13.376430707336022,113.29963434585932,24.018717617749473,14.565102573868938,-5.302788871288963,38.23625065503134,9.774993551792111,62.034770031835905,45.52066048498713,-0.9867727991201667,-65.40295057520652,48.09718614956016,-15.275731420130754,-8.142216128154592,44.52296241640995,-28.78896834299318,-131.45475846007994,34.5052872120736,-36.58699640015807,-78.39921327335713,21.436269854237885,-37.51346741290491,-179.8059619373483,6.773025485855797,-33.785269536877465,-109.85539149702669,-1.5358625285376561,-24.030111562275277,113.42525263472415,-140.9020917180111,58.061779522652984,0.4283219391337041
-1.9450211546910907,-8.860922583403902,171.8585640956756,2.365344066570181,4.125906373907791,56.29376102945112,12.311463838160769,13.402363917513396,113.32066490496939,24.247007943032678,14.61712855302861,-5.383427393497784,38.2704987568729,9.79956113949895,62.079471659453375,45.574858749724726,-0.9684651516690703,-65.24579833871088,48.09634308431278,-15.257345323990311,-8.165273637862553,44.44619850420081,-28.738792864449806,-131.6329432609951,34.389818443023444,-36.513133224695224,-78.61569256963953,21.48010322480851,-37.53875374524095,-179.72070009327587,6.739954654951525,-33.755472823084325,-109.80089383458184,-1.53939953695091,-24.02409682158748,113.415463130709,-140.80039991761555,57.97716083909134,0.5565727526494075
-1.9384640411858527,-8.861665450804402,171.87066458278875,2.4399363836666907,4.127579351122259,56.16635754423108,12.302569641549304,13.408528251259735,113.33906023970943,24.078864577289494,14.609517678279481,-5.029301726756962,38.13597303701917,9.808433963632766,62.20741430877081,45.501864202754845,-0.952409587694075,-65.20617456149051,48.049722796035425,-15.2389951555671,-8.204033105363079,44.56468844741093,-28.783129660673644,-131.50323532469935,34.37425977689992,-36.498780991342265,-78.60878699871917,21.466781401667596,-37.524481779487516,-179.8832707582907,6.724061611641552,-33.740476298248126,-109.72542748772445,-1.5835570681633655,-23.9871922641761,113.41720102723797,-140.92859664330848,58.01782228218303,0.4663695711902631
-1.9718724307374487,-8.8521229818251,171.69642898660055,2.362383229898846,4.121305388962947,56.18609643441628,12.280325637253142,13.393769434122337,113.34521174487136,24.238321024543417,14.609592490325518,-5.348480346947646,38.22515593077367,9.793558770082424,62.110148905250085,45.51950229244676,-0.9716867780104028,-65.27704981461405,48.08866155327759,-15.264604353044515,-8.104687415340685,44.59262297915305,-28.811409117219583,-131.5769500455334,34.49234841819124,-36.57650091638735,-78.42849403528193,21.40647582759093,-37.49005337285965,-179.81014647738303,6.770311618075503,-33.78234293784633,-109.80749370891928,-1.5412787721328414,-24.023996485763895,113.4567105305578,-140.89060113885685,58.019818883669046,0.5510934609261017
-1.8972955884201852,-8.89532935947934,171.91363443162288,2.4611358575553197,4.098670334452294,56.22618071560709,12.234870724236586,13.364287565539271,113.32753071794424,24.142388711551952,14.573423928517233,-5.2938887492633215,38.181279193079746,9.760731449894406,62.04645030917005,45.5186508509037,-1.0048908135767114,-65.3302303703315,48.058441536286736,-15.284385633725996,-8.176795597712355,44.512747359889474,-28.801486327913402,-131.60845688326216,34.40899046284537,-36.54943340900327,-78.58144711022052,21.448795690034856,-37.54179335426201,-179.74749050082525,6.781509369943102,-33.80591366917867,-109.88944715723727,-1.4983113251752087,-24.067807362362814,113.44077186295182,-140.78406090889365,58.01274045810609,0.4667820922379578
-1.9925956483870806,-8.847491775941439,171.7923793287837,2.432063489791105,4.113600098439056,56.171290187674,12.269943433856334,13.38598869756244,113.32367387110455,24.11104134930688,14.585005992307991,-5.148334940249591,38.193100686698074,9.786660612805424,61.95471334357512,45.47704640686969,-0.9759394770054852,-65.25722101996647,48.134979839989825,-15.279747304647092,-8.162354027345549,44.626146305844145,-28.824287753867893,-131.41719352756976,34.48794751259108,-36.57699057606634,-78.55460608941185,21.556626493378978,-37.599356459923136,-179.79453379809956,6.787916732941319,-33.80275588645404,-109.87646629201505,-1.5338353505977338,-24.03455153303421,113.48178816432763,-141.06829656769906,58.13629984074003,0.44990397949975736
-1.9714535691454813,-8.847501388642474,171.7572414835771,2.3300975030266287,4.1360016155834725,56.175365324713695,12.283874184300757,13.408477053515643,113.3038350055061,24.061155325285576,14.609114493238,-5.025623114405297,38.18135348874296,9.813994515513098,62.01508224354517,45.599941543889926,-0.9601579358825907,-65.22975170870109,48.054486886892505,-15.234757662503224,-8.226083463456439,44.60907573433535,-28.795974218223,-131.48119787747962,34.51871375418965,-36.5772737111656,-78.66842089217597,21.504055384894826,-37.54788933407668,-179.85567999912487,6.730601727369326,-33.74269932970606,-109.69148116966026,-1.5602638174570629,-24.00295867415706,113.4305379887872,-140.86367486341567,57.987075377118614,0.5197501268486109
-1.9364918288762638,-8.871075982211917,171.9417934139947,2.406923255756041,4.116611527930723,56.155263321619984,12.268825848484532,13.387273030003296,113.38416224985872,24.189699425898212,14.602295358711306,-5.163911549646792,38.135600595206554,9.785529555089575,62.007429536351026,45.5450576431859,-0.9821693820897535,-65.27648045145808,48.10410897519182,-15.275472579716048,-8.201417603548263,44.627923685472695,-28.832105623128676,-131.59610067992855,34.42505332805993,-36.54635192009698,-78.51474734055691,21.402752573099022,-37.50318125433639,-179.8018927408969,6.763126753614955,-33.78317451766486,-109.74242639156604,-1.5681927258883306,-24.006127915088832,113.42986664688118,-140.8992194684825,58.026531794509935,0.5325259618680084
-1.9236744026801702,-8.882564797877478,171.93458635638314,2.4268715871335687,4.1055352580471975,56.15163004951486,12.209220136687591,13.364864701006946,113.33902717895789,24.216535179683873,14.594475042961541,-5.315349288650569,38.17887604117482,9.768183085078483,61.973561601986646,45.47942270192527,-0.9985695204198057,-65.39152477328085,48.050503618890616,-15.27841821814469,-8.176754854758567,44.53024288585091,-28.807526114126027,-131.53603485076897,34.39034329714134,-36.53805779670467,-78.51604441892087,21.485879042077578,-37.57014783594181,-179.66238902009778,6.75898019402247,-33.78729975212671,-109.8356857075452,-1.492231615140554,-24.072481352970705,113.44271409767566,-140.8520256037723,58.0343628233759,0.5019113052768622
-1.9211435730214887,-8.882025598543589,171.84997887202908,2.3621529737520675,4.111547315835754,56.161451578889725,12.259206512917004,13.374432769852422,113.3151772787231,24.172500666520122,14.586467778178456,-5.050662881942294,38.31712980710489,9.778525270734228,61.99980220197079,45.55098031307894,-0.9951055537753852,-65.32665035753429,48.08131486377603,-15.277147035193561,-8.133099959800141,44.524849913191005,-28.7947267366443,-131.6421318803776,34.39973671377179,-36.5382234818106,-78.4995302324212,21.364338133611,-37.478420690025,-179.7587545063487,6.780855665330996,-33.80378324848609,-109.82819308335739,-1.5605710362557232,-24.015819374719868,113.4241241490716,-140.90785210542845,58.070710519620064,0.4705052040916153
-1.9590545247314566,-8.852132240613443,171.7851904488745,2.4247307187557112,4.127619454602465,56.16577760395417,12.31277256078269,13.409909932290416,113.37035177841597,24.162427834391373,14.61528866128404,-5.028382019886998,38.09831668966599,9.80443238635559,62.05834786024221,45.49509397022486,-0.9550032335042591,-65.24276369073492,48.06509860432223,-15.239881934003215,-8.17752718653555,44.56513096348269,-28.77977379402745,-131.53098495360751,34.43400219137946,-36.53112555738915,-78.68720754094406,21.49543277657869,-37.542424117982115,-179.71972288867016,6.734706810773268,-33.74782640127248,-109.65775226547592,-1.5421305155543124,-24.018681658141933,113.45700033940315,-140.95282939602373,58.04151584168007,0.5602246273326411
-1.9650260435043307,-8.848437351602179,171.79256893252526,2.376391197686914,4.132274744996922,56.24538085583496,12.284469281978936,13.406428013564724,113.32805242535498,24.070693161219587,14.60586477662607,-5.146849550419642,38.14391399440623,9.806923400452675,62.12901725598385,45.52564727390724,-0.9581831310210092,-65.252637468763,48.11584318258612,-15.25240520280844,-8.23459809678495,44.608364411942105,-28.802552388460185,-131.59425073984656,34.439382103193935,-36.52953027099018,-78.49183088674987,21.51178662353911,-37.554184690450704,-179.81644854167786,6.761878035007065,-33.76899443224961,-109.76996651757845,-1.5603490073822925,-24.003170447440297,113.42719754484064,-140.9603165733712,58.04146955422225,0.46176959840903065
-1.9799738945221108,-8.855563575969697,171.85468994926475,2.384196439543757,4.112324580981031,56.330074707706714,12.275712386132248,13.383198277992463,113.31403486462534,23.951297987136698,14.56608646299031,-5.213431027659025,38.23371354948861,9.783542523573425,61.92387836075677,45.40955727895596,-0.978690040033249,-65.3057186329843,48.111280521029855,-15.282571589683837,-8.164224479807483,44.600212769332344,-28.827324047826117,-131.5991552490705,34.453081301106536,-36.56884913230975,-78.49331402357377,21.32403422002944,-37.450632423476485,-179.79976551411036,6.756332724804253,-33.78184655158683,-109.71527152760932,-1.5531179489954,-24.02060488754674,113.41243042964568,-140.91097362410423,58.04651788238292,0.5135337954884891
-1.8489806903871155,-8.914116667425166,172.05775980174974,2.445226689264281,4.101423108673435,56.19875991097955,12.201514652279386,13.360674372497376,113.39040431616962,24.16790671434854,14.578690002768624,-5.147917955797824,38.18724262576404,9.761373221120424,62.018079747742135,45.51003781727502,-1.0044816003758,-65.35815442916005,48.05664966775183,-15.282115655544509,-8.141764823885481,44.48541884080301,-28.789353351554,-131.65915139826902,34.398544538081936,-36.5369679496431,-78.50344436307508,21.48633217910107,-37.565412379007554,-179.79106172355145,6.791760079859465,-33.81156697397469,-109.87589626820198,-1.5277257769136554,-24.0415711267066,113.46783922496802,-140.86860975912086,58.047729681395204,0.44823210037111355
-1.9081256155592072,-8.882572551497873,171.89862686587963,2.317384877070104,4.117550272755912,56.26446461322771,12.27591347802371,13.382165146012348,113.26208514270138,23.957405555986618,14.56000462723128,-5.4280204251609705,38.25513619386939,9.785442916493407,61.993002945206236,45.54498707372967,-0.987998806375634,-65.28333003358328,48.08885464134438,-15.270472917275185,-8.179893000730742,44.54204943451812,-28.795744863166206,-131.55967772545796,34.54051561375377,-36.60235618837703,-78.42762975997009,21.431611224845938,-37.510794178568375,-179.81602245499383,6.758136953703982,-33.77370797180608,-109.78986090407774,-1.5391677326718423,-24.023234852624036,113.44690702060397,-140.9980426101318,58.10738266795013,0.36227278089665177
-1.9326763576609451,-8.866758779821755,171.86368389157929,2.37215724132151,4.124394220972013,56.282927565270874,12.292996981320364,13.39931313365944,113.29852706134405,24.199880919929306,14.610043306083558,-5.390814133364063,38.1826526577258,9.795809365030578,62.09031718365255,45.53727083955587,-0.9691211236954649,-65.20870776531729,48.129738839356364,-15.26464994074982,-8.148683689289566,44.55304045081746,-28.78523585907562,-131.5786628354751,34.38751793990414,-36.50854244757329,-78.55185520096339,21.47870887734586,-37.53680054495963,-179.8851984634869,6.7441044532846135,-33.76089401139468,-109.75186278773486,-1.569773641981918,-24.000407426282408,113.3869171351736,-140.8410252686403,57.999280126500956,0.5080558323228109
-1.9336475974768277,-8.86434349688136,171.87137979176308,2.3439561711755488,4.130957762676012,56.24837328836623,12.279390476833015,13.403560284019724,113.35133117921433,24.129098978533946,14.613358467487174,-5.0907273062798435,38.14933667512561,9.803278308859692,62.16911068519091,45.568970024125676,-0.9667172988643316,-65.21090169334875,48.090190185708295,-15.251251268958203,-8.149936142921177,44.49720633404124,-28.760178754201696,-131.55448629002944,34.436278497799705,-36.53420832292547,-78.58932521220164,21.52419633300049,-37.567979775876665,-179.7918158395084,6.733098970515016,-33.74769385598382,-109.84088564247304,-1.5785457313759608,-23.990146101267868,113.4633411695708,-140.8116088240712,57.964034200731376,0.5737924523942731
-2.0114375275717293,-8.838248668365303,171.6392343964938,2.5234663916049556,4.111062765036202,56.274734290203774,12.271264134960319,13.390579457366226,113.36274533393208,24.211899239767376,14.601145263151292,-5.318024440179573,38.23149216316763,9.791833392385122,61.99139068257834,45.51053244842835,-0.9764556985776176,-65.31820741862072,48.07268421258122,-15.265428599653742,-8.194904108464918,44.57512954040095,-28.806210869333867,-131.6293337066895,34.42417901645484,-36.54350555062082,-78.5354870040384,21.540682958836385,-37.593025111610906,-179.84762368892405,6.7831478612656895,-33.79711986562905,-109.86822074586014,-1.5302958392403028,-24.034429450348554,113.42029009561261,-140.81956325683154,57.9901902188176,0.44929838819525175
-1.9532346437734702,-8.870061206167225,171.819270992374,2.3785204502157313,4.106373163528931,56.30562962058487,12.225720303164621,13.36634666423085,113.33468784104404,24.19773740609159,14.585793227294502,-5.200785854874786,38.24397002426551,9.769061165331935,61.97226051997464,45.42812115303256,-0.9936560916384147,-65.35185982569625,48.03988684836773,-15.276442031822054,-8.153060741144893,44.550187700077785,-28.813561578604826,-131.6052387685199,34.43408046339182,-36.56293116368381,-78.51549521099159,21.451408358355792,-37.5417416247644,-179.6918081999924,6.76897906883088,-33.79635148906494,-109.87718889645215,-1.4816921987656002,-24.081421996225995,113.44204151168938,-140.93814274654568,58.087182774611726,0.4583354271341757
-1.9341492286248751,-8.874554176469022,171.83734450642234,2.5219098614652893,4.102892279102285,56.30214711959055,12.273066261757556,13.375061944662626,113.31085361490818,24.19964866059594,14.589795250973566,-5.418261462600589,38.24995205509835,9.772515292766974,62.01158891812962,45.526901653083755,-0.9947707985568348,-65.35229881646845,48.060689613218074,-15.27358921533586,-8.183748398842958,44.546820076287645,-28.80485953462817,-131.6131269921191,34.423705250123334,-36.540937223878,-78.51431387617531,21.180592201041378,-37.338963397695814,-179.58673313210258,6.762727870585209,-33.784964210546896,-109.79070414759775,-1.5172762701214424,-24.045689295550467,113.47772547281086,-140.82914094300617,58.032992324150904,0.4161706759276203
-1.9814726410882457,-8.843148715861272,171.7150559235235,2.318965971937473,4.131194658680752,56.24359595682623,12.28837275283928,13.40086885525588,113.29787545498759,24.13197477387306,14.605405649906888,-5.275007976975278,38.29472092275469,9.80481295067623,62.07372078013175,45.57747706690702,-0.965989851016352,-65.30226790540159,48.09985191060569,-15.252408011853223,-8.186600998616198,44.53446571578378,-28.772069061901313,-131.49093648550485,34.54080252555107,-36.586508405729326,-78.38916445960272,21.508837479799524,-37.55246483250336,-179.72665541168067,6.772768214941436,-33.77865687425121,-109.87371413287394,-1.5169081324741143,-24.03728447932968,113.4212192109062,-140.81127949255557,57.97939629210296,0.6098118289480453
-1.9722451762893485,-8.846435922751208,171.8036821250162,2.345580187905739,4.133851081527368,56.173704930151956,12.29685650856998,13.408200960966902,113.35996790872747,24.086905660276315,14.609171456748498,-5.032398531729036,38.15755476773698,9.807965306152177,62.04084381201149,45.48879575007423,-0.9529459085148178,-65.20190641699328,48.07100847674093,-15.242676593261848,-8.174080267341976,44.675513488766484,-28.82937614682156,-131.52384526751058,34.41367983841448,-36.52088606999781,-78.58408477548461,21.49200772963917,-37.540591368087135,-179.8297268270842,6.725719207571764,-33.74161254848904,-109.80655473187782,-1.547904814373041,-24.012188238004086,113.47445239564284,-140.96333550997835,58.03887426571083,0.4956630259295212
-1.9474529013394815,-8.86006329137227,171.87970509479848,2.339739804118061,4.12689961491024,56.25763934239549,12.294631211662875,13.400092706693158,113.26767245171747,24.236903138288234,14.61872639152298,-5.264073460670074,38.26918075674814,9.805095402492372,62.1137120099727,45.40280547409931,-0.9547054698860133,-65.25117515222787,48.11154232440042,-15.260567057584314,-8.161034168148838,44.47353773023474,-28.75574382365187,-131.54593069912607,34.56590728357409,-36.61523206598395,-78.40957665546395,21.667038053048323,-37.68248116368895,-179.67194722773118,6.720106511153851,-33.73985009860367,-109.79299369864954,-1.531098834303279,-24.029008155715466,113.43219837891095,-140.99161628719247,58.061242259399165,0.5310826772812272
-1.957555614365397,-8.86300909820146,171.84752940386127,2.5712689833890394,4.104872189655364,56.498813119617296,12.278869627761686,13.385371059407582,113.31014908089284,23.932249525402234,14.566147561280658,-5.2776528503434,38.210137480283095,9.78431966502411,61.986018895022035,45.49271762449014,-0.981477950522633,-65.34554565794754,48.07411852780159,-15.270543615898465,-8.202293013538132,44.57234582230767,-28.810223947621594,-131.62572679409757,34.460807784847816,-36.56406506667272,-78.49647364760283,21.40479674592973,-37.49698630574165,-179.69511267970393,6.736525930650089,-33.761982865833225,-109.74519730625993,-1.5235572458567077,-24.041038417535287,113.39372975241226,-140.68746194253683,57.93005425731221,0.5315027605852725
-1.9709100487986575,-8.861391295339018,171.79439138863162,2.383900998796385,4.1086861195464675,56.20462619041956,12.246550143597965,13.370573851581398,113.34007506221721,24.228379953774713,14.594394615704065,-5.2689313945454,38.30713687157571,9.77527957254498,61.99726129136005,45.452445630941014,-0.9909428918018017,-65.35519146356421,48.09388173962161,-15.28704200739939,-8.144667534048178,44.514839131992986,-28.79966737808865,-131.60306801886054,34.456660905135564,-36.57780908628248,-78.51581113584535,21.470703602627957,-37.55536603655993,-179.7703410091118,6.750599462439794,-33.78219824170283,-109.82971852528937,-1.5283795131835873,-24.044582251844055,113.43771943794962,-140.9173051011681,58.06824594463555,0.42943799402314725
-1.9381430130083999,-8.87483525012701,171.77918965973666,2.5098155121633354,4.099644498261982,56.26552874885317,12.265111263596552,13.371223003900038,113.31511520142755,24.185516916119084,14.58449439599924,-5.3760774628624635,38.13794686330829,9.761260207594145,61.97832434526435,45.45253299745808,-0.9932886150350013,-65.31149243658425,48.09589838184367,-15.287961339447971,-8.167650838676071,44.46065907068133,-28.773981574170143,-131.63719990252423,34.40904775857577,-36.53870659121234,-78.52051959977506,21.49949680739018,-37.572208916862245,-179.69390612287472,6.764610022599193,-33.79003394914032,-109.85166622528733,-1.4905217783317184,-24.066377958131874,113.4317128327006,-140.81595496500333,58.02743501938814,0.4668262946484188
-1.91723774681914,-8.881279300428464,171.96576502050618,2.4023204322194402,4.113321289657982,56.32986754011027,12.305235955313918,13.38554209329686,113.23486926367862,23.991415797055865,14.56094049520566,-5.210466324336248,38.17499363489378,9.780421642580226,61.99984997179842,45.57709191957855,-0.9894178454661393,-65.37291577392286,48.06744737048788,-15.269428294853398,-8.217583140213751,44.629648407231954,-28.832526734467862,-131.4869804220198,34.452680840929006,-36.56368489649635,-78.45468644332031,21.587845573453954,-37.62795720096325,-179.91821090023862,6.770296326354433,-33.79038585876389,-109.80331451240848,-1.5251415656293972,-24.041183374390226,113.41413031831988,-140.9925580202161,58.105341677416696,0.45221072301408666
-1.9828707746900704,-8.842962249724046,171.7632645822374,2.4008402002587133,4.128048525123404,56.1914724501155,12.296060105096537,13.40683144431256,113.37506928166437,24.199961308521466,14.62497294684541,-5.304125934364115,38.21951201454037,9.808247850195297,62.03716587911014,45.469923747312066,-0.9543289789757798,-65.19083817577452,48.114880225818226,-15.254268021856578,-8.21692252209424,44.59862662375127,-28.79830502156244,-131.52163685182228,34.435386193050135,-36.53208561635164,-78.62125831855175,21.46591149702592,-37.52550710710504,-179.78635485678416,6.753954746132457,-33.765513828706226,-109.8015486031831,-1.5635865669995397,-24.00076030482591,113.44911346211161,-140.90227591644708,58.015654490322085,0.4725974512226524
-1.9681379139401756,-8.848173073695541,171.81512243794785,2.362341650997074,4.133624923197624,56.26918963521761,12.316084718233263,13.411670562484229,113.38334287664745,24.078426296314333,14.607411320442527,-5.07679784748583,38.13763987860561,9.807105724520786,62.107613549252214,45.52312699044687,-0.9564698855239495,-65.22912057244446,48.11671289744842,-15.25256655762536,-8.19402837734646,44.497450801282966,-28.754167610913406,-131.48056395172677,34.35253690995313,-36.485100164277775,-78.61676098264894,21.47014338835826,-37.5279688514594,-179.77864583834844,6.734076220267006,-33.74918263215298,-109.79113661679979,-1.5855824878783622,-23.984021147848335,113.46545030210476,-140.8910339490936,58.006378672641574,0.4792187464689761
-1.9725462359770347,-8.851631822292632,171.8086559190414,2.3238559272901966,4.125878794884116,56.23374733979099,12.31128868123583,13.401907461393037,113.32374082016509,24.204628486420937,14.608456082623306,-5.302203140929629,38.16244521594099,9.792109701399754,62.09208791934189,45.581022193201264,-0.9737817752752784,-65.26564352842367,48.10805461785807,-15.264437778083394,-8.211748290932176,44.58068291509305,-28.8033471485954,-131.56482326907977,34.42327747479676,-36.53607656556585,-78.49107354394793,21.54720659043261,-37.59205649095341,-179.73559917292627,6.778141323736591,-33.791055451127036,-109.86146300021576,-1.5582113355645433,-24.007043972501712,113.45884566758997,-140.82554735696505,57.98324242713366,0.45984084757193655
-1.945838013489599,-8.869986933618506,171.8260960814986,2.3581203651986797,4.1167700320957366,56.1822314637413,12.299473855594208,13.386038838493361,113.29393088014291,24.010100543876263,14.565801271030317,-5.279427201084707,38.28493869335185,9.783834331232702,61.98013764677509,45.5085343124412,-0.98832989721061,-65.26260871058749,48.03736833137569,-15.265621028151024,-8.213598959620477,44.535087324372725,-28.798287245601685,-131.68533169769077,34.48904585694558,-36.5898201028982,-78.48598808504505,21.528467278637542,-37.59291837625771,-179.87146982917415,6.817228114876805,-33.83573139222768,-109.8057646698786,-1.5474266733653366,-24.02573663279301,113.42750346794138,-140.88746179750012,58.03628007442581,0.4818808397762302
-1.9105267119019658,-8.885365126172719,171.8676282316612,2.3452074739183644,4.106803101904753,62.29710543447471,12.23488285546653,13.368079374660141,113.33511530498295,24.21406750894628,14.59036455711695,-5.262909932012665,38.21520568743068,9.767123487246,61.99668376565565,45.527373181812834,-1.0015349533744429,-65.35166661246055,48.08446879561258,-15.28518531363692,-8.147092001719635,44.46180247217721,-28.77504441816646,-131.6425440234449,34.45048691669645,-36.56648006065535,-78.60667389799556,21.487814790297797,-37.56545717242839,-179.67791767864352,6.7694202426972865,-33.795610911232686,-109.88759320144715,-1.4956634308547123,-24.06584581591168,113.40135961426805,-140.9260133524296,58.07817211264156,0.433045278810097
-1.935157255384496,-8.868856823542913,171.86625204428296,2.498231022492746,4.109988781954607,56.366281981330914,12.304143794836385,13.38774518620776,113.29119797538795,23.87074664683025,14.554850423490599,-5.280295235198678,38.23444488381435,9.785940135864065,61.93962964897099,45.5027809642268,-0.9780055309073195,-65.27515661691602,48.10203385184795,-15.272425332921884,-8.217082646065936,44.46837715526286,-28.756293440157386,-131.51562204093764,34.46831095335622,-36.5591972719735,-78.41954524045555,21.149833072872354,-37.31628848269648,-179.74056944033472,6.759741984646588,-33.77594289219243,-109.84506850237786,-1.5474383301938062,-24.01949234445997,113.42596029887903,-140.95463218030238,58.081899011605515,0.5229041703888112
-1.9448739692660695,-8.859316410926574,171.85886351101863,2.35256682972733,4.127462822238064,56.26010650578557,12.27997547203455,13.398853484335028,113.30515992144191,24.158550254703343,14.604913483507218,-5.264196139378963,38.13540171682618,9.795570674900594,62.170960855803735,45.53097133562429,-0.9653897578703914,-65.20286665116825,48.10633876487003,-15.257249323365855,-8.181209087564872,44.55045527082588,-28.780471088898835,-131.48060717137778,34.36681199305987,-36.49922277779093,-78.54443110725936,21.53865852320868,-37.5791897060478,-179.7842893583898,6.727733209550053,-33.74694770751871,-109.80404914598166,-1.526048958362452,-24.03190630157673,113.38294393720744,-140.80937974404185,57.98336923639375,0.5675597112475044
-1.9784226680178705,-8.842637968199128,171.71405530970313,2.3663608903223334,4.132776953704963,56.158424034432294,12.289907403302692,13.40617692737339,113.33856006308534,24.11775916524123,14.609628593123077,-5.130545411288466,38.12617513984631,9.802865115818317,62.123530528065196,45.51304258412058,-0.9578203827145719,-65.2391775587976,48.07923355299002,-15.245927384195209,-8.228913520281843,44.571191059387914,-28.786762469397367,-131.5077284553842,34.40005612650944,-36.51020810797132,-78.59494627551568,21.519294799515315,-37.56464822353038,-179.74689437685205,6.727436441609143,-33.74494648637865,-109.8632981334127,-1.5843648271472333,-23.98553324230101,113.41068531288514,-141.0259776419087,58.07990962778701,0.5931505500847025
-1.945031587595885,-8.868826767310981,171.84355964875064,2.4035799890081506,4.118195401781923,56.215426208465445,12.270663062526886,13.389265176759439,113.32498036546238,24.15690413700031,14.591932406794609,-5.2674168069345635,38.11527189096458,9.784260926761098,62.015152638900645,45.5638672836333,-0.9798211393645753,-65.32368365249455,48.09710282541617,-15.270993087015505,-8.221225150409294,44.6040225581515,-28.820506657828247,-131.49075609652274,34.49647136141529,-36.58849052782239,-78.51045707908136,21.486483741116523,-37.55598962328659,-179.88567380999976,6.764429518274717,-33.79023356320198,-109.80517261207748,-1.5356764392226694,-24.03041949403385,113.44660565607879,-140.91852763460906,58.04046837044306,0.4615895834138501
-1.9697252281779782,-8.857718344101993,171.72584832297733,2.3308326019501635,4.112816458345945,56.24525717210778,12.26444605487012,13.375974726248385,113.32657524128201,24.03423159301243,14.567312083185975,-5.440845239526274,38.25545219231037,9.776873344487562,62.02168327058422,45.496184016063935,-0.9892923751709333,-65.34603637077217,48.028308318382344,-15.265567550183025,-8.187447856669085,44.483131275527924,-28.781001109544235,-131.59793661812884,34.52418877842875,-36.605838892001216,-78.49206699187512,21.436446760584666,-37.52942397527436,-179.63847407416733,6.75619807685522,-33.77933171819424,-109.85288472186919,-1.5501861383398747,-24.020241930614382,113.45286515654523,-140.9524051651965,58.07879125648627,0.5628269568765
-1.9501692648485545,-8.865757854337016,171.81762308065657,2.4747798708564446,4.107148933507267,56.30320268071347,12.288198267601011,13.382442138492337,113.27453355343314,23.98727090980175,14.559477805216194,-5.247321490469809,38.17127265477731,9.774666433964828,61.92053555198098,45.42118701033259,-0.9806600464151023,-65.32103566001702,48.070957069099066,-15.271706367486555,-8.178567290822816,44.53457365867696,-28.79561391891994,-131.6507790051649,34.48754074867276,-36.578548084402634,-78.47790421982383,21.253778840773528,-37.393668045224324,-179.5064728878197,6.767903070860804,-33.79049669074688,-109.76950609147433,-1.5330682491155017,-24.030855320958327,113.42101662878719,-140.9004009617793,58.061563662178834,0.43092023448959893
-1.9508813174729411,-8.856198072400936,171.84939791264367,2.3668703210101114,4.129159494831624,56.232527241239374,12.315589303891805,13.404993087764662,113.32292013626915,24.120642639626418,14.602875754215063,-5.3035646639354646,38.20873514652597,9.80197701381974,62.14523449485606,45.53838594010227,-0.9643615336507789,-65.25362629851051,48.09301290279298,-15.252984429491669,-8.153612782329384,44.484235936950014,-28.75247390802805,-131.52492536947454,34.56835083195968,-36.60879129257671,-78.5865363718731,21.477767577922407,-37.533339419809806,-179.89160031111587,6.740018278925817,-33.75577952298437,-109.78479401496475,-1.55834911602836,-24.006936849220413,113.42987947019354,-140.82143966222975,57.98735578646413,0.4426282885960868
-1.944839503744845,-8.86296430861304,171.8681783221848,2.3132055430899072,4.128073681327825,56.179622886419416,12.274743819102142,13.395981311109118,113.33318080010001,24.157373752432996,14.60360389609399,-5.2916930034641565,38.18235807785422,9.795114164408686,62.11071270379733,45.561001541508276,-0.9707758777311541,-65.262944520234,48.02797766704852,-15.24350163682892,-8.10329823513376,44.57051274926262,-28.799615729483868,-131.47070703922233,34.37311903488008,-36.50716028573892,-78.61096684128941,21.490355267778057,-37.55240976181321,-179.9574100231579,6.722019485517677,-33.74849062549828,-109.79798274326713,-1.5625998523063132,-24.00677540931489,113.42769481537854,-141.02071513746128,58.08092168005729,0.5307668571446104
-1.9632071307133785,-8.858827870424289,171.88732753735115,2.4624137343317756,4.111254842725251,56.33516101124926,12.286693286267202,13.384875368129865,113.29880789304126,24.026117303877932,14.570927431204321,-5.175760728434058,38.22018240291615,9.783368041356438,61.966049834858076,45.49513466453179,-0.981349133876388,-65.30038855718115,48.082673994336204,-15.2729180159002,-8.205025303369004,44.544766088810974,-28.79855026592122,-131.56063691629365,34.47379321233194,-36.57021292870687,-78.4670812289598,21.438508827594013,-37.52644649511317,-179.6072751127247,6.745249412124942,-33.768372112441234,-109.89859437576385,-1.4984656084711503,-24.057610343720874,113.47883064560112,-140.79458466563995,57.98125171227926,0.5359277734510702
-1.9465631129540029,-8.868771494451615,171.82251423520142,2.425740957653538,4.106117073451994,56.258218000217056,12.24752066470311,13.373347953427,113.31929214469889,24.16034865637979,14.582923654407498,-5.408255904011605,38.22322713851396,9.773645267536853,61.97057723518173,45.53087459422291,-0.99317766391838,-65.37485891984925,48.0247674086915,-15.26508314821864,-8.15172229050647,44.508776328490455,-28.789686060270242,-131.6137139761025,34.47913582627827,-36.57715695546591,-78.44185817811994,21.38353865046797,-37.48973509615277,-179.5811630035603,6.760938581244069,-33.78718431085847,-109.85432365614615,-1.5332738503463261,-24.031709476633747,113.46609881609876,-140.8127488508074,58.02070387823198,0.44354083151011003
-1.9780333028273844,-8.853711341676334,171.7145600062427,2.388465280917451,4.116600115274496,56.28249885720283,12.288679042528805,13.386317684086485,113.28233581739958,23.98293005605312,14.57003614899276,-5.151356082146592,38.16724320990858,9.781652727920255,61.996938695983346,45.584422971777315,-0.9869342362533393,-65.30440533378888,48.11864737303921,-15.278883344617675,-8.221613585344606,44.62906150494929,-28.8328906867725,-131.50166346270098,34.365514207325006,-36.509080970490324,-78.49803455260997,21.416422246327024,-37.502347069851986,-179.85264956114207,6.769257555839765,-33.79169812311115,-109.83048689502037,-1.5292866429035996,-24.034722580578716,113.44269974711104,-140.9188857522691,58.05998606372992,0.4482059911774688
-1.9675429554174002,-8.851524361236851,171.72874526587404,2.3961393819527785,4.122570944130341,56.224503183365,12.27597910995489,13.394941266836462,113.31959180999891,24.245364400248256,14.610837797538235,-5.405964648393892,38.228018853015755,9.793646010379305,62.04608988489835,45.559281921592856,-0.9708095606569955,-65.25763724503129,48.08652700129083,-15.255343122551626,-8.173270151610927,44.58499889850799,-28.800123297252398,-131.56137921993823,34.40115624517908,-36.519635611364286,-78.47042834970568,21.49089628803008,-37.54756117935946,-179.73654315960093,6.75967010163729,-33.77608116289049,-109.85862322826505,-1.547116923036569,-24.016120790943212,113.44044615081754,-140.83440174401576,58.00133603455591,0.54151908847626
-1.9769051137884404,-8.844336067098357,171.78923501135128,2.3370572812463024,4.1329119275037245,56.23884483023356,12.295752706709315,13.406149366837138,113.34874525426788,24.20910816176542,14.62333466232414,-5.320651505856268,38.21711588931748,9.8043798841532,62.13721963314345,45.522797092388416,-0.9587201857833731,-65.20197284585262,48.08692050441768,-15.249092438901098,-8.205739293500091,44.571326519613905,-28.78927833534017,-131.56819395376684,34.57617986584506,-36.609820983515846,-78.54490709141851,21.491723857084153,-37.54338332646826,-179.77051356539874,6.756332212981128,-33.76905587558707,-109.78636418751107,-1.5506563020315554,-24.009925647466453,113.49275135775801,-141.15891723404695,58.154901422698565,0.5548379078062963
-1.9533646260980788,-8.860568674155093,171.93268040081546,2.3945656934988477,4.1193018252642135,56.25804988124399,12.29492271802036,13.394647872886198,113.30236773757792,24.185868433456477,14.59673508030436,-5.3301664052389865,38.26421610802598,9.794445033128056,61.96412665605113,45.45565977409886,-0.9673915092767738,-65.35141055876004,48.07665506748383,-15.261015091626458,-8.182367124906762,44.57561858677836,-28.804392448781982,-131.48451558643484,34.42254927865508,-36.53504612125413,-78.57681269148677,21.357683077309858,-37.461167072868676,-179.81306723391714,6.764837640005027,-33.78405331136121,-109.78620339780022,-1.5822097901413485,-23.990048486847186,113.3837441521398,-140.9720153025463,58.06613869589898,0.4942633170771448
-1.9683476089710865,-8.859493445295179,171.85556096778444,2.4134140691617105,4.113372738848801,56.302353699856646,12.282949345767655,13.38445242562329,113.30789010202973,23.996642437650024,14.567873478587842,-5.212983787181295,38.193971840042636,9.781941053029767,61.96211315113516,45.513427687776684,-0.9854498271661072,-65.37069736969025,48.09244333971456,-15.277650812350387,-8.201474240060902,44.601444917187635,-28.828098950583296,-131.59976914191276,34.41978183972472,-36.55220990486537,-78.52233405369721,21.43913959724206,-37.53322751510249,-179.74265739061605,6.742413106946259,-33.77549775297472,-109.78894340209982,-1.5383035957643258,-24.03268180737918,113.40648595287163,-140.82180645587144,58.00424516054235,0.5510690634237295
-1.9271259362689648,-8.879692189848889,171.88099570870855,2.3832330211910815,4.1079095513056965,56.1365157485825,12.276312700792246,13.375028924250469,113.28113072607947,24.239764336056453,14.596419451833203,-5.287350245372585,38.221967766977855,9.7700468588707,62.03096690607407,45.438140972311714,-0.987922907658481,-65.30076897329438,48.06160232253326,-15.276359252083687,-8.189451421059259,44.50864400920139,-28.793982187641916,-131.56137253336033,34.48826104469191,-36.5873635311791,-78.49374795669952,21.442605438797187,-37.53515497639681,-179.7749195107275,6.778087607655884,-33.80408992245446,-109.856345046023,-1.5647850131115462,-24.00962009330239,113.46791216302826,-140.93731024714103,58.08281430828495,0.4770746286859973
-1.9792196993469133,-8.849553059151422,171.79514110116725,2.3885574130815,4.11920082831891,56.232448414716764,12.24412108761912,13.38372310411184,113.33786050117807,24.095834693030092,14.583411990655769,-5.179860307198094,38.1229650359781,9.783814213506652,62.00500995252571,45.61512419700945,-0.9832530409687426,-65.31162329778653,48.06774530307894,-15.260647982675078,-8.142725061009106,44.64972651081497,-28.834648043250603,-131.4759736787875,34.455685449277155,-36.55930233948323,-78.49671310919622,21.480646146842552,-37.54682981497382,-179.7498021465349,6.747734125108451,-33.76743240408733,-109.79651172276108,-1.5209065059502862,-24.03882798361093,113.48787568428605,-140.90054159396703,58.048932361062526,0.5361164687357288
-1.9525828834194527,-8.855857252334921,171.76124137170865,2.404287921028306,4.124463549228005,56.316449994282465,12.300689666544557,13.399973327948123,113.32183002419272,24.18164754730376,14.60734871281197,-5.289524799430287,38.27427840357966,9.80064842643891,62.12301488762258,45.51664233454714,-0.9631689725054429,-65.23362478139263,48.10036884010103,-15.25498176008194,-8.171593588333877,44.572523238896835,-28.791874036773173,-131.53304510909743,34.44407482968276,-36.53531984856199,-78.55120530183059,21.525066696534786,-37.56951773748327,-179.87352176042683,6.715293371734894,-33.73489975663321,-109.76423071783987,-1.5158968669016346,-24.03782943671937,113.43889724164173,-140.9136301645733,58.03798544481426,0.4336708080586276
-1.983027140944749,-8.844040440180553,171.72302882618985,2.378712155036247,4.12563692207887,56.175620429445,12.296005148671995,13.399695941477892,113.32000395067377,24.1856798328973,14.60745402935494,-5.364465432373369,38.282550373715395,9.800361596670438,62.00505232227104,45.490606470423614,-0.9628328217424427,-65.30715056045418,48.08635870196058,-15.256409227177986,-8.136655164222017,44.54980714472039,-28.787556126915398,-131.57377100816666,34.585455426506385,-36.62338024850692,-78.42852716254616,21.521038854777515,-37.57357741913942,-179.7707436294022,6.781708221711725,-33.79257466821633,-109.86479223079614,-1.5353840337413303,-24.02602431157983,113.45090632742594,-140.8873523084969,58.017200098572935,0.4253830419255442
-1.9417255552202093,-8.870649709590506,171.81984677207544,2.3809344397324637,4.111612827652379,56.172526657839484,12.25551028705923,13.377771018272526,113.30798946325098,23.906028940830666,14.550802178976145,-5.308508541740057,38.2018567004267,9.779331224211584,61.97944668858515,45.40756360075021,-0.9812558403827802,-65.3223736435713,48.0668121087452,-15.274046952681303,-8.191322753107865,44.529251388575545,-28.797496714198566,-131.6274922258569,34.34305914301244,-36.501526865418036,-78.5171332562981,21.479853792718778,-37.55907063135126,-179.6769395143911,6.7318151922632765,-33.76163713008423,-109.89550957145897,-1.5387363491547816,-24.028076262747973,113.41122402609923,-140.90849745629419,58.05852655685463,0.5022161746441539
-1.9737982198235358,-8.854081268157245,171.83578514116778,2.4249245896510416,4.11220994008049,56.33105971581989,12.275938596849407,13.38241428777059,113.28159667386927,23.97420030852748,14.558045986062673,-5.212425682819701,38.206750166309774,9.782108613528687,61.99517897485012,45.56004958662925,-0.9889665108723156,-65.34561479459458,48.062870147782604,-15.26813123137855,-8.2605692501576,44.62560392168035,-28.83195101147549,-131.53236444186945,34.439930384715154,-36.55347589893878,-78.46906402396318,21.503176521605212,-37.56979749475538,-179.85261316068872,6.760409210124479,-33.78785697715709,-109.80254996745361,-1.5239138455124035,-24.03911129170071,113.43686649458414,-141.0338072141955,58.128064478667135,0.3258776705941527
-1.9761082021969116,-8.849060140192382,171.702202690983,2.3216305853880073,4.124149094304256,56.18325701142791,12.276507490342759,13.39127069033933,113.37288451235226,24.14669189640317,14.594834171253659,-5.136974397055937,38.18228925985373,9.78854938721683,61.97191393720758,45.57023013622219,-0.9754712262438607,-65.27756988576077,48.10697587649378,-15.265433165031752,-8.155496495710878,44.59107988823794,-28.807392989691678,-131.5688573171373,34.45508197867751,-36.55186921969453,-78.46929017398561,21.574491682797344,-37.611432181773054,-179.93662121630786,6.76608893107138,-33.7836235752455,-109.7874398789393,-1.564844431609906,-24.003926783570872,113.45402521225107,-140.94783488611642,58.065712320870695,0.46643686799128425
-1.962252298149025,-8.85085446786264,171.8215509306418,2.326766444400292,4.130819473624238,56.16986226322175,12.286790114314577,13.401493149110951,113.29122413605431,24.23219107881571,14.616350752498679,-5.387756170437642,38.11082836192523,9.796999600531285,62.125439097737264,45.569538206483955,-0.9666891643930109,-65.1675526324958,48.06629112777172,-15.247465226186549,-8.17163358150539,44.589802413821005,-28.796793000180863,-131.57080030932883,34.336517031433345,-36.481266295055974,-78.50197085376368,21.50463709831085,-37.55795225131135,-179.75697010828137,6.746083775411336,-33.76680661458181,-109.86662258180236,-1.5216693679220015,-24.03489125450625,113.43671344733295,-140.93603373880615,58.04410921595481,0.44861596246480423
-1.9545539906548726,-8.857381753844727,171.76010241185912,2.36761350559312,4.124407166257608,56.21094113887992,12.277085860406821,13.397361139468856,113.32731060198572,24.182099033975362,14.604339179115495,-5.374024994733653,38.212212542430336,9.795889720509823,62.064975215363745,45.51180421088941,-0.9681716875545003,-65.22794215787874,48.122624018105085,-15.26875591716339,-8.188633089108073,44.52335837299201,-28.780563436301037,-131.49462214118975,34.453641970674354,-36.55780345668783,-78.51765562200231,21.51363818262287,-37.573014154866385,-179.77081353182828,6.710504337202877,-33.7385114434651,-109.72487932629362,-1.5503265058089468,-24.016759121429516,113.45505994618168,-140.96936603303237,58.05531800436667,0.4411830103957525
-1.973786983318277,-8.854292722357862,171.8179048860349,2.3636639354358877,4.117258285029939,56.2498575993355,12.280831528703246,13.384434243123708,113.33134640011197,24.01195719374556,14.568102760535144,-5.291215773451631,38.23651117672861,9.785098960480564,61.96753941556667,45.541975502455315,-0.9853300964541125,-65.38162183992227,48.085774990870604,-15.272936045625606,-8.185962517812898,44.50221028090708,-28.7819972060056,-131.62336576520866,34.4855342771569,-36.57633302380835,-78.43448081210542,21.22971514478079,-37.37899670157076,-179.51440465654767,6.7740626271526665,-33.79836646884847,-109.93231653377353,-1.535818311540588,-24.02915998855891,113.44536709556239,-140.83201712676387,58.0088713773064,0.5183271006823936
-1.9470769511371415,-8.869092076124993,171.7794185295897,2.3627516582422317,4.11442620131073,56.19165304726698,12.243051939626753,13.37412913019749,113.31131235027522,24.108290048871496,14.57860711272361,-5.035212302263816,38.18005644286501,9.776071940808222,61.97826435290333,45.54209937682829,-0.9923179797069466,-65.39374850096465,48.00913586562034,-15.261129764145998,-8.231883251769244,44.50135594886282,-28.787900083151712,-131.55333459286751,34.42528002764887,-36.55182028221009,-78.52137138388431,21.503404570059715,-37.57532773963815,-179.72951447492392,6.762479314093454,-33.79234842516379,-109.81468688063596,-1.5282994147188091,-24.039937650444127,113.46274308571003,-140.85478335845602,58.02898329509742,0.48946524009151227
-1.9681097038483415,-8.853521215231734,171.78473010294115,2.4024808829007043,4.115770026246281,56.313874631913535,12.297452079705224,13.388557568225103,113.27587953956635,24.01850673783543,14.574426918811099,-5.204856238407692,38.25815373746144,9.786653917877732,61.956180439161685,45.553211021859255,-0.9825925623571043,-65.30728356508563,48.128796479003896,-15.278836930737238,-8.230282577295595,44.540032805513704,-28.794042803520846,-131.5578306103931,34.53795215169775,-36.60455214239831,-78.43407881886614,21.275199609736468,-37.402825450330575,-179.7172691005633,6.7273489438913145,-33.75566651458006,-109.71088275541128,-1.5404673002729297,-24.02597775384658,113.39161099048917,-140.92322461854343,58.06301976402634,0.5121756311473865
-1.9533717585235806,-8.857845428661395,171.76666567063458,2.401679808449302,4.124479917477005,56.254484072195694,12.279560914354704,13.396877148709377,113.3529750790311,24.241429865973373,14.610578266838033,-5.357424613847821,38.15664173497575,9.791897802196162,62.142711759554864,45.57074438197188,-0.9703180404009082,-65.26164243807092,48.10789195382317,-15.26051264064903,-8.171105929517909,44.51457901404446,-28.76955198704558,-131.52276982558743,34.287178710998774,-36.45449306163924,-78.5788271112483,21.53115230582528,-37.57724967047648,-179.81664584980743,6.747473979364443,-33.77002474793169,-109.8842308672168,-1.5662369446018118,-24.001350852104277,113.41542370671202,-140.68502674760362,57.92343030117144,0.47199960387778
-1.977925351179337,-8.844645984903927,171.8144648684738,2.4253624870710127,4.128041234318536,56.29040278284448,12.28492686936724,13.403916251415868,113.32703647208768,24.145361612523608,14.608959058040522,-5.174085169925638,38.20050503537031,9.804478689755962,62.10350497188873,45.428550082711354,-0.9492420066291114,-65.22815249612881,48.06124948982119,-15.242485068559901,-8.12460593090684,44.524500089518156,-28.768664591461828,-131.47237042221124,34.40720841871334,-36.513975354092224,-78.48297563750255,21.554252468435536,-37.58919960075854,-179.80933774060424,6.763266014185653,-33.77561529678091,-109.82153208663318,-1.5602863695696527,-24.00210195334057,113.38120314075118,-140.93353233274507,58.03480221131357,0.535142962166899
-1.984543457617157,-8.846752738976381,171.69450106193074,2.4918638446693677,4.113334469387675,56.2876037319509,12.270677014679684,13.39034873282707,113.3007202688915,24.179326412954204,14.594291109244562,-5.285993488772039,38.23334218984611,9.79027994746489,62.05508665626348,45.50104376235278,-0.974584079711053,-65.29721764112088,48.07780949562881,-15.265201242278643,-8.191059186543068,44.52091951130035,-28.783496701547847,-131.57594032910245,34.56396274137565,-36.61867407423732,-78.42457070288626,21.41589319469749,-37.50916947940853,-179.78132585678824,6.777330231106944,-33.7977956194187,-109.7460875116353,-1.5715567048436512,-23.99821592232218,113.39771820853304,-140.92239967168842,58.04846576576766,0.4159587081873143
-1.9230002670935775,-8.878231915847941,171.8181830855736,2.454437640679714,4.11131252904345,56.29400684018812,12.259122383597784,13.381535115696568,113.24415044189473,23.98193030103881,14.56396893088909,-5.397772368406396,38.22300131680282,9.78172455365175,61.98825204310387,45.52392594888251,-0.9843892408613497,-65.3329841456226,48.056938662348614,-15.269020441128355,-8.162487511395941,44.551894242950965,-28.805791524661487,-131.6570294551699,34.48821704815347,-36.587125566090734,-78.47232301040522,21.38404247379566,-37.49514734503677,-179.79764702655797,6.750809320858764,-33.78338228894918,-109.80069764686777,-1.5837532532244865,-23.994322013164528,113.43101070719335,-140.83368494440532,58.01210523339438,0.582015603302475
-1.9327719617746268,-8.872318783654524,171.80985843051369,2.375846941804049,4.1143976581720745,56.26891585418393,12.272073634080748,13.380503564917428,113.30562194236082,24.052945706164827,14.570296884251672,-5.196199747362738,38.15163035408062,9.778578948570846,62.030910623268696,45.49449184578866,-0.9822264247082977,-65.38206117128645,48.06332707437852,-15.268155679577962,-8.19717391952213,44.55266329816382,-28.8017671892354,-131.64421462864524,34.4903742323128,-36.58127713762402,-78.48110204422576,21.308939082342725,-37.43862181348953,-179.72784733394576,6.774472072535154,-33.79868220426898,-109.79666376626552,-1.5128360291618677,-24.049398654296855,113.41638633884908,-140.98650959326028,58.10297064021522,0.45699945003265774
-1.954723255237468,-8.860304475753765,171.77125233649295,2.3927335476080174,4.12065225355771,56.25589273287928,12.275402512986155,13.391701218070532,113.3248688145044,24.134472860544683,14.59382033657256,-5.219519429280766,38.12791083921989,9.789349341650235,62.10104452899234,45.52000938536173,-0.9714604728947025,-65.30159019372626,48.11504954283636,-15.267893416346421,-8.161320966126405,44.54034403983408,-28.786693690990866,-131.47972028707431,34.51329531531664,-36.586873142081586,-78.46565315347603,21.54958665645774,-37.59632662508221,-179.82967960229857,6.765880992045901,-33.786575782244945,-109.81114844237541,-1.5426414617638073,-24.02326631513104,113.43323071575227,-140.96860592035878,58.07944491346361,0.4898618719109691
-1.964981931016041,-8.850541997099512,171.75961652161587,2.3864104148709444,4.12813017028938,56.276565893627485,12.291534916409148,13.401181510109518,113.34204687685138,24.191138051980772,14.608708062836367,-5.3850455616959145,38.24076282097329,9.803022475318969,62.041689793818506,45.531120400968106,-0.9632471075308482,-65.2857044979246,48.09054352935027,-15.252274954033009,-8.207607154532967,44.537500350692895,-28.77855538541221,-131.5486286845223,34.50858873211615,-36.57614704065488,-78.41280485632556,21.527060817731034,-37.57412166527758,-179.78559294374597,6.758325120042862,-33.77350975718491,-109.8070575447717,-1.5505862881379713,-24.010434450681313,113.39901702560691,-140.99447634714,58.07555094712304,0.5540920555925137
-1.9706329809773848,-8.847853714284902,171.72306108639387,2.341496018649103,4.128956405280119,56.21070300523702,12.30072839591665,13.400426825119588,113.29834581557289,24.1424920576896,14.600834691046458,-5.2483423299554,38.205006877691005,9.797265512938878,62.01075844009225,45.47164440841617,-0.9602379060243358,-65.2671002235464,48.06534044060861,-15.25056312207398,-8.154602784384533,44.58924578163273,-28.804391321685394,-131.55211130894648,34.441160271907904,-36.54206130915463,-78.41632725065827,21.512102981459556,-37.56643516037564,-179.81852197286906,6.7789863130990184,-33.79503864417443,-109.83093685281513,-1.5445356959397998,-24.01774282612386,113.42835445154194,-140.9634977394074,58.055795545962624,0.4776878597757233
-1.9848169313187896,-8.84890870453292,171.59645471876598,2.412262693400436,4.1178579581213866,56.28584218128688,12.268294310585055,13.387616265259783,113.38567250506517,23.952047863634895,14.569340618632943,-5.293834059307676,38.10219783143364,9.78135243385153,62.008785749678744,45.588563412976825,-0.9835771516589844,-65.33512968940849,48.10273644034247,-15.275358283798823,-8.185324799069285,44.5775487479965,-28.812486180496414,-131.6347593151343,34.508520213652915,-36.594144969852,-78.49384827405181,21.49987143296903,-37.570673205534575,-179.77710371457613,6.73056761729714,-33.76205911551035,-109.79805712130376,-1.5326917055219553,-24.03341366772081,113.44579415626964,-140.78538585644736,57.977653670138565,0.45919943812237907
-1.9461717688060958,-8.867529846302649,171.768360905069,2.4118378270448915,4.1098028579206485,56.20317090724507,12.283109518408217,13.380492357694184,113.29080241485678,23.946067082189714,14.552074114240998,-5.186984164634061,38.35228615866319,9.784039885615506,61.922456086902024,45.490748341205034,-0.9885845800292783,-65.33689151908672,48.019861579167085,-15.261683819286592,-8.209243077155014,44.55814471787225,-28.808049526216493,-131.6793484548557,34.43204580571131,-36.55037088810546,-78.48456162916477,21.359051296366104,-37.47680250104782,-179.78640731293706,6.76640566671734,-33.794835717706945,-109.865066959421,-1.5547737852668604,-24.016100841132893,113.4149447729279,-140.8932090310953,58.05514789166169,0.43709196139697026
-1.9773215494083232,-8.847236418283185,171.78905951343114,2.3699699070918143,4.126498527561435,56.196021833276724,12.280309866119694,13.39436524363834,113.33823425587589,24.26810098372421,14.611802348490489,-5.364936607821822,38.30109602788467,9.797370794649149,62.00297683883075,45.52049851781334,-0.966560977407954,-65.23864777580395,48.10055091446709,-15.25914177508798,-8.14139925892597,44.61775562405792,-28.81427448356331,-131.5014758266531,34.54213118776691,-36.59796540289914,-78.4139471330882,21.535583848167228,-37.58039648849788,-179.85648129611224,6.80015281018796,-33.80884625019514,-109.85001687568635,-1.521999766078487,-24.033376796591018,113.45008455524699,-140.6297581617809,57.90119389744687,0.47621259576863606
-1.9244545253196463,-8.866749701295404,171.9384471630681,2.3240981222648784,4.132083947923981,56.216799363633115,12.296234157831186,13.402900757467307,113.30374670328105,24.19402248354045,14.611600802309479,-5.3216874138221915,38.23472460635723,9.803111073758101,62.218955525190005,45.563388786339914,-0.965255432717254,-65.23439054710855,48.09867269252827,-15.25455244863576,-8.195637551130526,44.56539892805516,-28.789184108995244,-131.5644397301346,34.37849846690219,-36.50488869891371,-78.60918889581978,21.496643911930867,-37.552966781960556,-179.7788818379464,6.733751254715642,-33.75671515244229,-109.77520244015886,-1.551640648365975,-24.010799305620807,113.40855228040118,-140.9004021487054,58.02347279183823,0.48872946265437595
-1.959173096741381,-8.856984005679713,171.828008534464,2.3318331568241604,4.126124827727031,56.19105743499699,12.290226766332779,13.395229399947674,113.32637052668133,24.19266852805289,14.600682473577155,-5.457579662443514,38.157581379918454,9.791318296455525,62.10894271965167,45.59747529579117,-0.9788171646091133,-65.2652668483418,48.09492232508536,-15.266520435465821,-8.151106753268142,44.54023572744026,-28.791641808123728,-131.52845229931728,34.53622078771984,-36.60405255981162,-78.48936330688682,21.39929992756685,-37.49670438773006,-179.89370868747017,6.768720900957057,-33.794159446711966,-109.79224779324964,-1.512585691954257,-24.045087384616266,113.42533850059219,-140.90903967943154,58.033283972880795,0.5854584827724245
-1.9336587283869946,-8.871738454749885,171.85950990203298,2.3922811064863936,4.114852738958293,56.25029219128932,12.291508022595508,13.385105619515624,113.31730431377389,23.917918137632938,14.557248414936357,-5.328546949524405,38.34452541014561,9.78803929135315,61.975586542579656,45.480326960519236,-0.9801766085316466,-65.28456916438435,48.085105625231535,-15.274348635880703,-8.148067838441335,44.56651552878223,-28.809355901107388,-131.60148332913877,34.407553268513766,-36.53836508626344,-78.46680240058251,21.412744600681407,-37.509738013031665,-179.59829080630385,6.765729100940888,-33.791386014267985,-109.89117640968377,-1.526982727152678,-24.036598086117756,113.45629641318486,-140.99498777293462,58.095372413268514,0.5159960230394635
-1.9628352946247531,-8.859373689771939,171.73816310534133,2.4443191051886544,4.1135810153639305,56.332725353471936,12.289784933523826,13.38505139638695,113.25351702260986,24.00652023478753,14.56375341732609,-5.235484708206058,38.193098974667805,9.781412479610449,61.92758792094054,45.51262705167838,-0.9812571273823414,-65.33353222872748,48.03515496200761,-15.26088664885431,-8.250601597416134,44.63829775331804,-28.837186965248442,-131.54758205236732,34.51836758871829,-36.59777411416428,-78.47981001183847,21.343041619683312,-37.46311525394733,-179.75862044117918,6.720025120749369,-33.75591505085245,-109.7972578310782,-1.5290937619421499,-24.03682885996386,113.39685693072465,-140.98875436697762,58.10225835069572,0.3599012990191608
-1.9545267481857849,-8.854685805475317,171.7982241679211,2.410165612402892,4.124303989738531,56.307708396948414,12.300282505104718,13.400558886194638,113.27785130562422,24.177717255091565,14.604100874046932,-5.302275621148484,38.24728573541172,9.800061548138235,61.98660755352562,45.4967524053709,-0.9618483675524239,-65.23159081199469,48.089815847800836,-15.25463236326777,-8.22107963809965,44.557849099279835,-28.786427862469722,-131.5383051699961,34.385647157963845,-36.50608508838741,-78.50106362181938,21.54585251847419,-37.58783768257483,-179.81042066353302,6.767473927104888,-33.78574417889572,-109.85566277644311,-1.557618496120817,-24.00590214196887,113.40626773040616,-140.79545675551648,57.97709777321362,0.4906652258095977
-1.9860828956628112,-8.839673739560087,171.76287778206174,2.4021596292924343,4.1292920271963816,56.230058795624124,12.303778968408338,13.40558673223427,113.31011188057319,24.149341420671597,14.610909624394864,-5.315778587886694,38.27388314542013,9.808901418452104,62.163417477051006,45.53907338997983,-0.960282901856055,-65.23306231704424,48.13814791654126,-15.261794056045481,-8.172587207098507,44.59234789944158,-28.799585274881068,-131.5661552918069,34.42724784098829,-36.527826394958936,-78.52057214772239,21.523206739136313,-37.5699419157866,-179.78725853770698,6.754698814042129,-33.772134298258145,-109.82662476067597,-1.528551442283522,-24.02711679160148,113.3998297405737,-141.10516752608757,58.122987023138435,0.4781499944450346
-1.9760732850748113,-8.850020905745282,171.70122779378593,2.4943530162866168,4.113164950400487,56.30584139700017,12.260875351460804,13.388494940068515,113.32664822822441,24.184587264187428,14.592626641372508,-5.335171736888711,38.20803796084304,9.788993502770772,61.94656248674,45.459562930299796,-0.9697501573080443,-65.29356147717195,48.135440888991596,-15.278786124089361,-8.209141578601022,44.58600674230996,-28.810500521009622,-131.58240544160014,34.54797019734545,-36.6123116540522,-78.44764212038037,21.33940832097022,-37.459076697963596,-179.77856172466323,6.741587110444186,-33.76856762493151,-109.90479394287912,-1.5581739341636336,-24.009403951524796,113.41140225561242,-140.76239345136764,57.966681259484005,0.4649047388179657
-1.9278076320430344,-8.876625809341913,171.87105233061857,2.3884763898173773,4.1135461283488794,56.19635332558507,12.284738200739916,13.382140749540653,113.25818864180042,23.89675382084146,14.549537674018545,-5.242800053035312,38.21117164629659,9.780471893886027,61.957920503268376,45.47224228710577,-0.9840052256535845,-65.35310670258399,48.04208121325438,-15.267393862071373,-8.252613761756624,44.574952353524125,-28.815286268366272,-131.68687147384466,34.450666778375975,-36.56484118469211,-78.5555759307193,21.486845831259892,-37.567939828470635,-179.64951544984345,6.75524633760287,-33.785638089962035,-109.83298546098219,-1.5109951446502308,-24.04933606621694,113.42702395616256,-140.97638155118824,58.092842053322016,0.4904946709599995
-1.9367649712614181,-8.868545831250561,171.9138160890131,2.3655147498780167,4.1165807985974245,56.22939800033952,12.284182662441523,13.38445656142617,113.33671607397454,23.979348491921336,14.567492103461621,-5.25286847300952,38.217423347102965,9.785991897285802,61.94435194132793,45.57512141810571,-0.9826605881266239,-65.31297732013323,48.12934022742546,-15.280782264341447,-8.220003617667116,44.567335429844746,-28.803760846079584,-131.58476853358718,34.56375907781934,-36.619579574019426,-78.438083369913,21.392629229149946,-37.495535656085806,-179.8052646984686,6.7445854512954,-33.76980774494439,-109.87996347213993,-1.563462058506694,-24.006102834807166,113.36448811167989,-140.87592819729912,58.041385414693806,0.5460946065903223
-1.9713536585065157,-8.849913569837472,171.70870592957732,2.4280564439922045,4.121632271932342,56.359986640167854,12.297883414919752,13.397601980493882,113.34984292222244,24.188278655311052,14.601902401934918,-5.345972975178292,38.19184990804324,9.795643117745525,62.08545127980071,45.576946340826,-0.9714157794809379,-65.23050617713346,48.10537043214792,-15.261193299364898,-8.166835772436986,44.474490590338476,-28.755936269111714,-131.5895858407979,34.39083974677264,-36.51637526529182,-78.4576912732788,21.500205074824784,-37.55583028490931,-179.89514058977653,6.742999264118552,-33.76973846827635,-109.81014050354077,-1.531503786929484,-24.030409696767634,113.41449500407887,-140.85203456612734,58.01148608181163,0.6092408266888119
-1.9619539736701768,-8.851362046156748,171.7822255668162,2.3797373168030163,4.129728563993565,56.272744955923066,12.272661042009368,13.39963264035563,113.30928232463688,24.202297189914013,14.614969811613808,-5.267678415383154,38.071805911816114,9.798911271807434,62.06357337411948,45.52807093917707,-0.9622955049035067,-65.24509184435647,48.07134425760107,-15.249647331468992,-8.15369501251012,44.53400088740905,-28.775520317425432,-131.56056745861545,34.349891415028765,-36.48791232007739,-78.53293662612842,21.50683472279575,-37.56203046946595,-179.7314478907799,6.756352578921337,-33.77801782359114,-109.87268861990714,-1.5121871886410574,-24.04121354571145,113.39885203305175,-140.99652890791862,58.07047971868908,0.5256848194140139
-1.9838115398204792,-8.8450634940937,171.64453084904972,2.3347985099941155,4.123364488100769,56.25100754817896,12.2645831674524,13.390348763311508,113.34807715706239,24.176530978613407,14.594579261602785,-5.2466477589680585,38.26746492392709,9.79390102526678,62.034051933963745,45.511027157480996,-0.9707038785081705,-65.35173448514014,48.099518565800395,-15.265676688338836,-8.208299456561285,44.464992692909604,-28.75747726216592,-131.5298592753755,34.540668219058404,-36.60118580955697,-78.45391445874931,21.39850294908222,-37.48543681162571,-179.71006507624193,6.75957259455658,-33.78486802470571,-109.87821015561653,-1.5360349638387163,-24.024259217275805,113.45666665533012,-140.80953702824155,57.98546571145914,0.5107727881365659
-1.9304862149114754,-8.87598178008712,171.83176804721413,2.3923617889396382,4.111001561424601,56.13114326485964,12.268773162809218,13.37808614958023,113.30483334792845,24.125406397177457,14.58325110805767,-5.481593222790751,38.22816608239437,9.778295396802735,61.960406430218306,45.448771864022916,-0.9860795318704119,-65.33529050077755,48.06342858509994,-15.271990107118622,-8.195718728053043,44.531694375027215,-28.798728314238964,-131.59069795617782,34.45826517340936,-36.56564786490627,-78.47851284112143,21.46664573336968,-37.55131556986562,-179.66937136926217,6.762766444726992,-33.795821383126636,-109.8094510791273,-1.511185405512812,-24.05097307958809,113.44673797868869,-140.97204987663588,58.09697957494951,0.44343987506436244
-1.9128215031924967,-8.880581399903651,171.85985631299525,2.498140842314996,4.1080887637425105,56.305542328548775,12.254191125331602,13.37698413300027,113.2664741111044,24.249358758029743,14.603977983328797,-5.2549933283524926,38.20527390216098,9.779781255737724,61.95768920604334,45.562109059645394,-0.9887504333644435,-65.3072230570268,48.065767401696164,-15.270609688246186,-8.148017853896567,44.505008513743235,-28.781918234829384,-131.57264546341867,34.51448986881617,-36.59813413591161,-78.47673683759066,21.299284228480452,-37.4348174388645,-179.6707787837449,6.768773921574436,-33.798354694771696,-109.78459954057945,-1.5199663638623235,-24.040594320048253,113.4749365577465,-140.97124978229624,58.09389709443235,0.4758882405948388
-1.9792439272386346,-8.845143418057113,171.77242773407616,2.342649540835467,4.128374047184229,56.15385766614816,12.299120115954004,13.39632526658825,113.29217459578858,24.224972553248925,14.60610927851749,-5.2943615874393934,38.36023342634442,9.802058307428261,62.067828443659664,45.45099260827246,-0.9594056206519896,-65.25579778196722,48.076612888160255,-15.253337542994135,-8.087881633528363,44.501603593430005,-28.76588796392747,-131.58053167177732,34.532814193489116,-36.59257386116446,-78.37701915893773,21.55004764987369,-37.593065045156756,-179.75443906579358,6.730691159297415,-33.7554027905137,-109.8343969323305,-1.5215424644107856,-24.03657336233657,113.44495135759848,-140.75612381391267,57.96073330308209,0.4853637143656757
-1.964653414757322,-8.850419864954361,171.77388360092002,2.3509916007344316,4.130934806646504,56.271574525903645,12.290304430807424,13.400528736793067,113.29222005407321,24.19591888517639,14.611087640324723,-5.3602697639713375,38.134760780180855,9.798643169276332,62.10645576774107,45.4438088094504,-0.9548237446533658,-65.28768437184559,48.11602427324219,-15.258400192285073,-8.171182398375331,44.566397148076305,-28.788980896685352,-131.52991135743483,34.40199638237493,-36.51191087991083,-78.49524759673675,21.569321564539123,-37.604508546135605,-179.8412214110994,6.7750267074941775,-33.791561618500936,-109.88052591297075,-1.5698356410357093,-23.995520859182303,113.40044639567152,-140.93597711143858,58.04174025754882,0.3780561253484935
-1.9512131081208466,-8.860778107232541,171.8059007161272,2.423105089647258,4.11890753926822,56.25670991917225,12.290094933063699,13.393589378678218,113.34865004605196,24.0645083879918,14.584065205354616,-5.232330776986062,38.233159463571695,9.791641208850852,62.06401708227496,45.47933793092726,-0.9691132900017942,-65.24026775552232,48.09269731545861,-15.268390849028822,-8.162843106938995,44.61167989104011,-28.81912546742121,-131.5887959274007,34.51406853113792,-36.58998099862218,-78.44837994146474,21.25489835836072,-37.39048522624295,-179.54005819251788,6.772543574233097,-33.799496086403074,-109.78845335958694,-1.5717759635044075,-23.997564364807456,113.40361960302457,-140.88983651548526,58.02426728131486,0.5578473887843267
-1.9819276422353767,-8.85103958398103,171.70264638747307,2.4146101462329383,4.115281851267963,56.33986861504028,12.255085458663693,13.38445954836214,113.2931507257168,23.92513922190168,14.56394206548427,-5.238301502010992,38.2446221501671,9.786216997382578,61.97798452741991,45.57133784326892,-0.9838908896283236,-65.3333600243554,48.060788593182195,-15.266740035344913,-8.277632162937385,44.56403699722449,-28.80876496901584,-131.60150339565317,34.48894427373688,-36.585191323188596,-78.48482340381993,21.495786014184887,-37.568295745408165,-179.72051994164494,6.768229034751727,-33.79708497376636,-109.91533106505418,-1.5443790609335224,-24.022289902751655,113.39346858431061,-140.93030844866377,58.06001235056853,0.48864665560306886
-1.9719057952525603,-8.854065563388698,171.74972045741808,2.4095839232613088,4.117272352805517,56.240600512905885,12.297481197939405,13.38868843627285,113.27268800215113,23.95694443922367,14.566290387528095,-5.2644542554325175,38.102205824452895,9.781891498754955,62.00318657713703,45.49831407082007,-0.9765350872631968,-65.28640894279187,48.07771391749834,-15.267011676436706,-8.182563383628812,44.644079618899994,-28.833441342855764,-131.52506280269918,34.48297633762229,-36.57843109056721,-78.51123397627667,21.582728029638062,-37.625191875535045,-179.96366844316464,6.739788549988113,-33.770676220558265,-109.78066974774903,-1.5212514601145912,-24.040159543586537,113.47804418364892,-141.00945201935355,58.10957417872668,0.429401242134113
-1.9751081508779151,-8.846786358854253,171.81209871452458,2.4550635574275006,4.122879397074959,56.22122601776451,12.299508996735973,13.397472513603274,113.30290555668992,24.212611833251273,14.606386144320954,-5.360394893094253,38.25667921961599,9.79824861768027,62.04753665585988,45.52881937621062,-0.9668247196446123,-65.26994598667946,48.07901248716075,-15.254309213496331,-8.178906248980972,44.675005073808464,-28.8365560231316,-131.5974142744206,34.42136766924621,-36.53005208799794,-78.52824770113267,21.513566388542678,-37.56528386722018,-179.7432065319492,6.720149263840526,-33.74449342439445,-109.77718244525921,-1.5301834547067585,-24.028426968592527,113.44592467035439,-140.76219883387512,57.96376174631081,0.4930692475748467
-1.9765937835714098,-8.848005320794496,171.71527077387478,2.3562390958903094,4.127155520732538,56.24400856919017,12.293347884418104,13.39832869408841,113.27672239698823,24.21687520988373,14.607347275245424,-5.376291717435785,38.264626429142325,9.802262716229627,62.07440966742603,45.46598564264808,-0.9630388825952076,-65.22024477336522,48.10479204805607,-15.2648762108211,-8.137173545163321,44.516364360682374,-28.77609179694413,-131.48439293785364,34.49313704571752,-36.57443792372023,-78.48009757340445,21.543819253813098,-37.59342879279576,-179.8343905655759,6.771423267564664,-33.795713112215765,-109.753419197255,-1.5439413926982155,-24.018942218704694,113.41869038600186,-141.02514670642438,58.086817673487,0.44630952295849885
-1.9500790493567095,-8.86185864206518,171.82949950586888,2.4507725157840454,4.116962203005553,56.323571376020254,12.262666378332987,13.387631563481944,113.40342892468556,24.108737872126618,14.585334510896395,-5.141625670940157,38.1991820588257,9.790273830138789,62.07376092648085,45.482910862440804,-0.972269359012448,-65.30357163016717,48.11097849549155,-15.275530867443756,-8.1953255224687,44.49677626530884,-28.77508475870198,-131.6412847931389,34.44623375492334,-36.55501502622726,-78.42524919491301,21.37872873255857,-37.48893340724963,-179.7745715639723,6.756545632523043,-33.78249002453905,-109.89618393989338,-1.5752160454108477,-23.99681091021097,113.3984876381817,-141.00256132081455,58.09401415158617,0.4257448239613983
-1.946860131767707,-8.866224907202895,171.9154292520497,2.385337693283155,4.113811024735583,56.26084386154692,12.280100154299596,13.383553485655558,113.26704582014615,24.004936640539682,14.563349898291943,-5.312440347555673,38.22020288608314,9.78309965946216,61.925242826944626,45.46885379610394,-0.9803344141762755,-65.32000448161675,48.085556122669146,-15.275470104287564,-8.21737726569962,44.52884033263862,-28.793785136748184,-131.715351234173,34.40469957529895,-36.53489017311274,-78.55628105382027,21.35603778557062,-37.47760064156399,-179.7263784087432,6.723578387766196,-33.75922240180061,-109.81160939187343,-1.5529461206457853,-24.01756923901809,113.45604307529318,-141.01428414282324,58.11549473280122,0.4718242429680879
-1.9755332831529273,-8.850655888154954,171.81015030353373,2.361290522926879,4.119805729811028,56.29261104849313,12.284701284407639,13.386337064276844,113.2993922513703,23.90280880823716,14.559269457565158,-5.352097644069544,38.22415414956815,9.787167421409144,62.00943242429995,45.56342617873254,-0.9790124425065079,-65.36380741639259,48.1160734175443,-15.275588403262113,-8.236555807860126,44.580896399354174,-28.80685105535173,-131.54799786026993,34.45975386266805,-36.55994620787953,-78.50139578498788,21.534458478984853,-37.58967208387028,-179.88875949242617,6.7408295711002495,-33.77216837711446,-109.71299991832105,-1.5383999119625358,-24.026053959528078,113.37747354229336,-140.819932296336,58.00838830837762,0.47987593862203304
-1.9803264460206549,-8.84297087107943,171.6619942221981,2.329617177348524,4.131665685457809,56.26108042185019,12.306297241878923,13.40203545776351,113.30491953671046,24.173582742442797,14.607231781031523,-5.205933079096581,38.364604928858455,9.811166771612426,61.99285469612761,45.48269902973189,-0.9586853678469671,-65.2450706994383,48.08248523952962,-15.251387998527903,-8.146994516021435,44.56504119134446,-28.78823081086481,-131.50653054240283,34.52829483374167,-36.588096169305736,-78.39603687340669,21.506741408433612,-37.5604613082492,-179.7361888045472,6.7515992714958415,-33.77073787800576,-109.80293764658033,-1.5585151241496291,-24.005621965486007,113.41110635874519,-140.93848135960792,58.05000315730235,0.4905377758006139
-1.9803006439522761,-8.84440539500293,171.77267187546653,2.362793661105812,4.130759618039772,56.195287679644466,12.316248316341714,13.404709634684131,113.29489431728254,24.212293079747568,14.611287075842487,-5.28032544604799,38.24456789121548,9.805608032060817,62.126069963442625,45.53435989011139,-0.9620795396134998,-65.26373443357001,48.1148895569666,-15.260886958031108,-8.163845395469284,44.59704028390222,-28.804855391118046,-131.4462824559004,34.392481111602265,-36.51415271586107,-78.49451745858492,21.489762906273178,-37.54960487128701,-179.70769784984805,6.7727483317323305,-33.79120055853163,-109.78056822790747,-1.5397282139304593,-24.018620059645762,113.40062292400928,-141.04551374198348,58.09641289931312,0.47450281243662484
-1.9927466002437768,-8.844584404167115,171.73243896234106,2.3892852604417527,4.119684798598593,56.17258717861988,12.253327124521562,13.380622329217179,113.34860863272272,23.948155220302375,14.565372807549657,-5.284148028697018,38.15633693309333,9.783248146116335,61.954415991991866,45.54830092050473,-0.9831014435715737,-65.36914608159513,48.03236931857528,-15.259423195300766,-8.213905185551491,44.54143584116798,-28.79745638500325,-131.67661583301262,34.538086306273755,-36.60932447922093,-78.46410872150791,21.251437184347786,-37.39404774811773,-179.76661568908423,6.772238994049623,-33.79867483323304,-109.84438959707197,-1.5463468389217496,-24.021294253889614,113.38773718970901,-140.87606338850418,58.03135929741895,0.593160929804159
-1.9604716883883597,-8.862146417939982,171.8076790809638,2.4327110717227214,4.109369000840681,56.26954534484876,12.27594268702807,13.379963997853054,113.25713626319018,23.95854009674045,14.555284698739943,-5.21541427524611,38.214402821092065,9.781590162449781,61.959769588706045,45.61689727247865,-0.9941638466703777,-65.41237639143465,48.049478102865265,-15.269033623456373,-8.147723665591291,44.6008284457303,-28.82609891762926,-131.53219755296448,34.46254782284265,-36.566765259029125,-78.46128560018361,21.494796709247076,-37.57113757944432,-179.73394608484463,6.781133328168885,-33.808351629790685,-109.78478045850004,-1.5497121844610433,-24.020091756130114,113.42070551014238,-140.92265627844915,58.067800643838154,0.44595783276670453
-1.9787062779318276,-8.849372911846999,171.68344816617883,2.4301234600281063,4.117356661215503,56.26627465920804,12.262016579959898,13.387247120220792,113.35171593614342,24.098137640479095,14.585091835550326,-5.139393913577456,38.22307296132274,9.7883498045329,62.016229618747246,45.517906276888155,-0.9754538110465916,-65.33440650774091,48.09493133150899,-15.265586252057627,-8.154787379722656,44.63105069131316,-28.82621007601984,-131.42825989206216,34.4996235123766,-36.582289521035385,-78.4587187995561,21.409205928675846,-37.49598322691013,-179.74503390699573,6.771017582776672,-33.79563249921522,-109.72167094152492,-1.528080588557664,-24.032271819812763,113.42395238043666,-140.83420086190645,58.00930427888779,0.5505281396089607
