Amin173/slam_and_shape_estimation_for_soft_robots/bags/maze4/2021-11-24_14h26/data.csv
X0,Y0,Theta0,X1,Y1,Theta1,X2,Y2,Theta2,X3,Y3,Theta3,X4,Y4,Theta4,X5,Y5,Theta5,X6,Y6,Theta6,X7,Y7,Theta7,X8,Y8,Theta8,X9,Y9,Theta9,X10,Y10,Theta10,X11,Y11,Theta11,X12,Y12,Theta12
0,0,0,0,0,0,0,0,0,0,0,0,0,0,0,0,0,0,0,0,0,0,0,0,0,0,0,0,0,0,0,0,0,0,0,0,0,0,0
22.876873197624924,2.1367480845770395,98.24320459315129,35.236150346956144,5.895861006359519,-0.1917190582489504,46.80684625821197,2.4161239909758505,42.29288166356488,52.224215950413885,-8.610277238997522,-69.28020106821232,52.798652854855725,-22.589794579731844,-4.098234820784242,0,0,0,0,0,0,0,0,0,13.180876123920129,-27.637869732633902,-116.27359859110288,5.82691474861614,-23.63112578719481,123.90625558261836,1.5581387018685007,-10.935366673215007,178.64219275855987,9.539807791789059,-3.0971305498332686,45.30752257997155,-135.7557383776852,60.21331016914288,0.40110071085577
22.952872817103497,2.1004181302495555,98.28155481319813,35.11927999483053,5.870122309372123,-0.03865005637264918,46.880372179566116,2.3905643556966405,42.27386028781015,52.28397162957736,-8.636922690978281,-69.33232067272178,52.88624996383215,-22.63600196384365,-4.102739188362913,0,0,0,35.76454797761543,-35.00429914022382,-79.48445223635933,24.559956499023038,-34.791792063950815,144.73738153638462,12.228385348834557,-27.34042031458712,-110.45618565001146,4.365773558624987,-23.94413449502938,121.96665725915858,1.3984950952041615,-10.85541688095556,176.39162977719846,9.207648836891899,-2.926193018405373,45.829101047667315,-135.9080457518129,60.34125966079777,0.49443464973676104
22.98954717152518,2.107102259670234,98.24641159813216,34.985563726790424,5.8972116357371736,-0.05248971000669603,46.8611653689179,2.411050641681272,42.340026759105164,52.21804836570214,-8.603063446672579,-69.2461126897916,52.853090787402145,-22.60679983640562,-4.177685447820712,0,0,0,38.39211287965927,-36.68238119165523,-80.50515002706263,25.34544096102362,-35.138310551967706,144.33534885816593,12.216838797737807,-27.31449398770124,-110.56426310586598,4.348449045786985,-23.898689777351095,121.97716208827075,1.5253441201327647,-10.919023332555337,176.6458937715317,10.441321938815364,-3.2429165484174955,41.95036820211601,-135.7170441034076,60.22031973543696,0.4583686542378505
22.982510345950047,2.1258981146054845,98.27300911427129,35.10838566512705,5.9218042140218685,0.16572456239641137,46.67848258727502,2.4536883279248,42.277746753048135,52.20909045114106,-8.572799391617238,-69.25631496360961,52.9151265628552,-22.60479227740395,-4.073577282757707,0,0,0,35.62786179045718,-34.954325224143055,-78.72406751502852,25.91562772077085,-36.11839337670692,143.6564240692214,12.216311680602956,-27.342299354864174,-110.55979578739546,4.313086237112515,-23.883913339791874,122.0557523085125,1.4492406847926418,-10.870554555051552,176.75083699036335,9.509614634473671,-2.98271971631055,45.258205429998135,-135.63353515710816,60.13052875547511,0.512693027165682
22.970148701832926,2.1218493200428297,98.23636855718284,35.18499838897019,5.8999113424281955,0.030190384717397097,46.728791115052196,2.4341802330866527,42.30096513505362,52.271111888194135,-8.600758802037678,-69.2632141087734,52.84711352192,-22.59704932841496,-4.1283202674136446,0,0,0,35.74463163077568,-35.02540304753897,-78.93645694182813,24.82674873556563,-35.003394116069536,144.03317507237043,12.226958958043284,-27.339848943971077,-110.45540201915959,4.331518351730779,-23.90654429496317,121.95179206455482,1.524886147331813,-10.916152810867942,176.8748039190218,10.179397146482337,-3.1667405346886905,43.214070705380436,-135.87542836033683,60.259991142383164,0.45679973237650534
22.928721339064246,2.1108093527600174,98.25591555938269,35.111746241494735,5.8774025099607154,-0.006260268667217655,46.824293489300395,2.401087347789077,42.29465651999738,52.22536792498213,-8.616747712037746,-69.3058095814901,52.83405972196913,-22.613145087708038,-4.126575655752152,0,0,0,35.7384051597866,-35.03935268010909,-78.92212757045449,24.70127536751665,-34.98480803775017,144.2628762463113,12.202445698836996,-27.329236593467087,-110.39285531954873,4.363761271386593,-23.939494464095617,121.90775510416917,1.3952696724746545,-10.852487734754899,176.4246287334213,9.296224938792612,-2.95024871743696,39.62632568632872,-135.6922745129643,60.207090261018365,0.5503887056487126
23.003309273653258,2.1038594287368033,98.23306232002943,35.234735637145654,5.8825456079955,-0.20280306449583213,46.77002335269176,2.4121237761320717,42.28038132404194,52.22535227078723,-8.612900557849333,-69.31924123046134,52.71224342356182,-22.56760888749085,-4.097310882935302,0,0,0,35.33341137367322,-35.15542875374968,-78.61789533754362,24.70127536751665,-34.98480803775017,144.2628762463113,12.209172596945933,-27.331723594993527,-110.4281560941136,4.305754886450195,-23.8927235325445,121.98665331416241,1.4508431030923319,-10.878630356048799,176.4258718096083,10.187670372722017,-3.1785613693700796,40.30926940705944,-135.74035207990346,60.2339297889695,0.44780750605687725
22.90110947517384,2.122599581833926,98.35964254532664,35.08891737644041,5.902144609972176,0.02052727411901049,46.84031950816961,2.419036751339809,42.2742827927325,52.221579655190745,-8.60436191360603,-69.27267990043188,52.77057098986335,-22.581369167079593,-4.098852382030483,0,0,0,34.78519367024386,-34.91959414952868,-78.51039777550498,24.70127536751665,-34.98480803775017,144.2628762463113,12.209973822174199,-27.330927160317238,-110.51827915058739,4.319809747095356,-23.908446418137245,121.97962775924837,1.4407014994990988,-10.874505547915316,176.7290174875814,10.339106884696172,-3.2140071698722217,40.34915157813938,-135.67792999342853,60.18154990686601,0.43942546960870976
22.903917125105167,2.1287880986470533,98.28960445051688,35.234368619067006,5.9023333492134284,0.03464391881395316,46.72938576912612,2.441921851313616,42.21583501142557,52.26084780495852,-8.583176513953319,-69.2437282750404,52.821662100554924,-22.568970392843216,-3.9033003783190856,0,0,0,35.784712032808166,-35.06379116248766,-79.43130285401527,24.580623149892844,-34.852148391217526,144.2628247608982,12.19229864915794,-27.312941346967243,-110.52556191489721,4.305264326794003,-23.887958180042368,121.93858989390053,1.4165640683521161,-10.85867160023514,176.55591186487067,10.407073465035644,-3.225125624676531,40.50089252448511,-136.00833422206466,60.32446376433026,0.4654886163876918
22.871864054241975,2.1354175745148476,98.30320616984596,35.20807141129918,5.897723968746982,0.04405930614132206,46.785069734204605,2.4298939582047074,42.28119930743756,52.23244430873755,-8.58226806369218,-69.2214951551449,52.821662100554924,-22.568970392843216,-3.9033003783190856,0,0,0,35.81956130155232,-35.094944617807954,-79.47159841259723,24.50100090577476,-34.799879829222945,144.38563186788227,12.220222513539227,-27.343137150797567,-110.50518798833832,4.302045560189434,-23.892437421441436,121.96754265435318,1.4282324675035056,-10.869861816048413,176.73958228056844,10.42597322328205,-3.233384291388761,42.00842768675648,-135.9321316646035,60.29829968269082,0.39869701615341563
22.94925601554261,2.10656993716597,98.19275157233179,34.94752858655483,5.897116189699722,-0.39976002711163283,46.87121875799752,2.39850728740376,42.330740997229576,52.26767879188436,-8.61777963731619,-69.25023942215644,52.83608765695393,-22.61221051974714,-3.9874154251558562,0,0,0,35.78806729879232,-35.089416354924126,-79.44049136077041,24.50100090577476,-34.799879829222945,144.38563186788227,12.197052048740055,-27.334673077355326,-110.50338357393976,4.326683337000567,-23.920513099129053,121.9501890667643,1.391914712206166,-10.85601555424119,176.5226570860144,9.414914679034332,-2.984316463698768,39.634990104509065,-135.78334197521252,60.25964783691555,0.49322439680005337
22.877977107972157,2.122256557183351,98.30542838571894,35.07948000247654,5.897600727745105,-0.26536850849421706,46.80134008068347,2.419930984815439,42.29244718090552,52.17016729455113,-8.551903971283483,-69.16813501228812,52.76206948357494,-22.536759402949155,-3.7658080926084527,0,0,0,35.76378958113764,-35.06423971234935,-79.50948467614417,24.558277210096023,-34.84698125637549,144.3699704123484,12.179318003492668,-27.313576190020925,-110.5068823140492,4.3149798520144245,-23.903573586243667,121.98550312575213,1.482132556291738,-10.900599511855098,176.73575716815424,9.296899762398965,-2.9456908943451143,45.51642877226885,-135.78115637148417,60.24809881379614,0.5337854019082792
22.9470743248201,2.129335566467085,98.37726677844437,35.141495126436816,5.897194284348516,0.035787991601677054,46.79679321209684,2.4404401169970003,42.347813760854514,52.329144450112246,-8.546746582543015,-69.15463386520315,52.885834699760444,-22.555891144897952,-3.6391878896754966,0,0,0,35.76378958113764,-35.06423971234935,-79.50948467614417,24.504833197529514,-34.79450137268767,144.3709749465546,12.20410092443823,-27.323731355897287,-110.58372715938319,4.3210722526244325,-23.90462175874493,121.95403767813701,1.514600709607329,-10.911233737341977,176.9079805699086,10.409389602262827,-3.2292958039707482,40.66320017084781,-135.88202656049137,60.26704936838852,0.4692789935882503
22.906100607237924,2.1257691016628284,98.23995079979929,35.11787544760234,5.898118508563675,-0.1355275806068125,46.8476828801689,2.4332546048631762,42.42044599106931,52.40100359446513,-8.55879891165797,-69.09271791447333,52.85194825831385,-22.54053530376453,-3.464299223160766,0,0,0,35.76378958113764,-35.06423971234935,-79.50948467614417,24.462677500071052,-34.74786492833839,144.41968918125943,12.191749003418941,-27.31803170121809,-110.507953711038,4.359959856433996,-23.937139105930143,121.9981096372621,1.4440627777959918,-10.886390205626455,179.96989665333857,9.339304101962007,-2.9524529714552443,45.54146292584313,-135.97406255116772,60.322449181360554,0.3487836141785001
22.95528245913605,2.112083978977302,98.27160794609001,35.081971041786865,5.871415459317764,0.023012598016168753,46.90426770934739,2.4100058902274633,42.30222874380939,52.294571068349164,-8.55154584508428,-69.06847873963342,52.85194825831385,-22.54053530376453,-3.464299223160766,0,0,0,35.76378958113764,-35.06423971234935,-79.50948467614417,24.54365478037571,-34.82324106777191,144.3442063686659,12.192312657662818,-27.32499043051842,-110.50182245051106,4.3432219307714774,-23.92804474647795,121.89985654975642,1.3723678122045797,-10.841598466736386,176.36861785475128,9.440766775071026,-2.990586221245037,39.73949738757815,-135.74185417567978,60.240580818259886,0.560272621509945
22.962780961978076,2.118346598794674,98.22034266278843,35.23126727190337,5.879534345089846,-0.1765862811309856,46.93684480770104,2.4237525536564846,42.38727775843461,52.491124513518336,-8.562713238961358,-69.14309323443803,52.85194825831385,-22.54053530376453,-3.464299223160766,0,0,0,35.76378958113764,-35.06423971234935,-79.50948467614417,24.51800350505502,-34.810481793696376,144.4337971990856,12.205192360337598,-27.328744632765932,-110.49460852571649,4.301122789337526,-23.886683468330226,121.9415895364768,1.4384767379184566,-10.872363505168781,176.4058818220463,9.964876018927853,-3.117706102909601,43.672571888846655,-135.7813393806709,60.247591707668704,0.5455429943329755
22.925171986335215,2.129800822763756,98.30282126780564,35.0366266070665,5.900940375588592,0.043608803585325,46.64882591374289,2.4573240366259146,42.34413005383952,52.43131956523033,-8.539180967805923,-69.08480221866247,52.85194825831385,-22.54053530376453,-3.464299223160766,0,0,0,35.76378958113764,-35.06423971234935,-79.50948467614417,24.545329260809304,-34.80459087479935,144.47787560023787,12.253475046257194,-27.36633321894716,-110.50151256033323,4.318392065760548,-23.902016569050232,121.96007429973274,1.4267677035758837,-10.876091691430485,179.93529511979574,10.442146361000034,-3.239955132344262,41.93914858330595,-135.8217026101179,60.24970757957358,0.5390633179215791
22.875550703152605,2.1380396381062017,98.24252023623039,35.043783804046576,5.902435050220317,0.016334240729642336,46.65368876102777,2.4559385209465114,42.28965915043667,52.37447409369893,-8.535692777250365,-69.12376989150364,52.85194825831385,-22.54053530376453,-3.464299223160766,0,0,0,35.76378958113764,-35.06423971234935,-79.50948467614417,24.520948908596893,-34.782504594729566,144.4568194314204,12.19232169649824,-27.316622750525028,-110.52856926579561,4.3032587564628315,-23.889582267393983,121.93679528671909,1.4744335721355597,-10.889329474666702,176.73136388736077,10.431366646153016,-3.234779167245966,40.72191264942215,-135.83131874674376,60.244940811701746,0.4348609282250261
22.924366582178564,2.131446518681524,98.28448428550504,35.095004626849494,5.895700136018899,-0.06699799037330467,46.727326529826406,2.435827138979775,42.39786262524171,52.34457774249481,-8.558833363448109,-69.09727930650604,52.85194825831385,-22.54053530376453,-3.464299223160766,0,0,0,35.76378958113764,-35.06423971234935,-79.50948467614417,24.482916999186365,-34.76337930549619,144.42601247070425,12.193434467687403,-27.326181152734804,-110.48011389648013,4.321608910815868,-23.910786051056597,121.95313029335834,1.4808283633831039,-10.90086564466769,176.67282352748944,10.22296249968317,-3.1902432697292706,40.25768237348815,-135.93773099562404,60.3162265811897,0.515876534196391
22.902206591088614,2.1233239031086066,98.30603454305418,34.941602858391455,5.893073273974361,-0.0006139437779006525,46.78768942493429,2.4093101001784802,42.28369849261925,52.313484745205805,-8.634079277546448,-69.16697535122344,52.85194825831385,-22.54053530376453,-3.464299223160766,0,0,0,35.73676436380544,-34.99904966114114,-79.50022055614083,24.51987117312685,-34.801687163929294,144.43927597266247,12.177522925121188,-27.318386490410994,-110.48735559662852,4.3103941828589,-23.90642047358707,121.97370201093696,1.3999558456062076,-10.861050601331577,176.4742134374939,9.282135696428952,-2.9478446598685206,45.47036984260203,-135.72593011281532,60.22040681445716,0.543057450825835
22.96896353451252,2.123261368498908,98.23327945473467,34.88287932219492,5.908054672949273,-0.18151682443491224,46.75888573319403,2.430854196452959,42.31157100693626,52.439868597749275,-8.576851874036581,-69.16781857212655,52.85194825831385,-22.54053530376453,-3.464299223160766,0,0,0,35.73676436380544,-34.99904966114114,-79.50022055614083,24.51258940505052,-34.78541048534317,144.47318513842612,12.186480999273677,-27.317858988475592,-110.53260483059375,4.325105539127769,-23.913453965268488,121.9070657084111,1.516683332796255,-10.91951637738142,176.77769510961147,9.283555114476009,-2.9438043927050366,45.60540071625106,-135.77796171623288,60.24190135877382,0.476628139883301
22.985603076073843,2.1401578419086578,98.21247903968685,35.19634213877641,5.899177627062047,0.008718842178853421,46.727097629173336,2.451319817063286,42.25167592090707,52.154286214475654,-8.512491684681624,-69.14354840330515,52.85194825831385,-22.54053530376453,-3.464299223160766,0,0,0,35.828806011403195,-35.121217000839465,-80.75860843853613,24.781172155505082,-34.7537617511246,143.98854354883923,12.46557794872053,-27.29945120072174,-109.28805163418109,4.458906538138372,-23.93410611100206,121.9617984939532,1.4266963503040557,-10.864898790867159,176.68578485686214,10.516929495727425,-3.2516848604287194,41.02713400402181,-135.8523445062231,60.253598472102176,0.45958277657482094
22.869836746249582,2.1506910355148623,98.27582345172796,35.11698269711979,5.895989376003172,0.017774027009988404,46.63876491390824,2.4519139110563195,42.32479789720559,52.3222474467646,-8.546786655089765,-69.16232632236859,52.85910724595633,-22.552686499223558,-3.6014460750239925,0,0,0,35.9660751420409,-35.21616722539036,-80.67870647289905,24.781172155505082,-34.7537617511246,143.98854354883923,12.201922301444824,-27.341300271552747,-110.33714402307201,4.339538727920832,-23.947784256474684,121.9047352600179,1.4669916182141165,-10.890703121496156,176.67572145410884,10.178481177827656,-3.169249507185679,43.224960005245165,-135.91417656007332,60.289526108307705,0.4402511365078849
22.912339525206406,2.1342091826949856,98.25336007753577,35.1599130007606,5.888974262002295,-0.10363068974918203,46.7574780200333,2.4317409431293697,42.4356558140451,52.30549561399423,-8.55604569259232,-69.14787932950935,52.780737334456454,-22.531191806565385,-3.4751608062377954,0,0,0,35.78156516759112,-35.099232666840415,-80.65378728623837,24.781172155505082,-34.7537617511246,143.98854354883923,12.196645296399318,-27.340384310247373,-110.34757505173165,4.293054800930818,-23.912941490145172,121.88237698545548,1.4679646278801357,-10.890665641631884,176.49319851630636,9.282550758287321,-2.9409205876630082,45.6461033623209,-135.74921341492137,60.217973745797764,0.47058648211898013
22.935885731224033,2.1248664428421886,98.22762696624412,35.196135267263635,5.874417442422088,-0.19908518272521875,46.80024576601409,2.417428508888726,42.44168931487347,52.341355356014766,-8.573770650335973,-69.13725445648991,52.81745851258692,-22.55633414181293,-3.4780556625156356,49.3863517024371,-32.96590323529973,-147.5841461648903,36.185727334918234,-35.358222500742684,-80.77990904146343,24.609073739166384,-34.8845198532433,144.4002276548366,12.18543945352161,-27.335204261553045,-110.29588137554046,4.314341405720292,-23.932616245938107,121.92952018652298,1.3955299534029706,-10.855942646764142,176.4051552958793,9.296226009777605,-2.9488276330261307,45.52495524480635,-135.75640529237447,60.24455148983649,0.45197860444409516
22.909088263508792,2.1343005566008184,98.20955336117238,34.96734040338884,5.898013447709326,-0.05878800682530488,46.814806055966706,2.4272396131671305,42.357909432717996,52.28779062504881,-8.547438749471507,-69.16920162693864,52.90849081007891,-22.578184291660815,-3.6119231598285686,49.495085753852756,-33.00111491983651,-147.68142722503129,36.185727334918234,-35.358222500742684,-80.77990904146343,24.79195720735884,-34.97391208869157,143.97469388060517,12.141521380616915,-27.294529638890033,-110.28592366228396,4.33910917037678,-23.947546389498314,121.87740444782938,1.4911326770139866,-10.903971791864283,176.76475329173218,9.332486267014339,-2.9527455279658668,45.480919736427815,-135.6723879956516,60.19002190134054,0.5419492733349317
22.8954689191862,2.146946732326377,98.35011566636574,35.16608941656121,5.8982173761765075,0.02793605398241752,46.62270708220431,2.45906889939827,42.30835915057209,52.32515454832059,-8.543763560444997,-69.13057890927739,52.796889772264386,-22.523884365514,-3.606293622092593,49.28677792553831,-32.884317980342104,-147.66398316051448,36.185727334918234,-35.358222500742684,-80.77990904146343,24.704914688257986,-34.937212481553544,144.25696720250747,12.187096052920317,-27.32617375756294,-110.34268137839133,4.313708681594626,-23.924597477119697,121.97679136942047,1.4190664712823065,-10.861308180839842,176.63137947888546,10.454344517510286,-3.2380073698040768,41.209447734604375,-135.74600437743095,60.20498332140742,0.4295736323765312
22.898187237708896,2.148233446735391,98.32103648628133,35.26272756637591,5.8990054599348625,0.1712014755586139,46.66146979603061,2.4560459302431017,42.32403816580523,52.304395508869995,-8.539977172922505,-69.14459176787338,52.84154560781496,-22.541426098921686,-3.640790162178504,49.276709042268756,-32.877857814638276,-147.66023571183598,36.185727334918234,-35.358222500742684,-80.77990904146343,24.738966143550876,-34.951910922019024,144.37960419505546,12.207440563535641,-27.34471879967274,-110.16956185422328,4.3463811405188935,-23.95421557422241,121.93617564371812,1.4829472960116021,-10.898042522086627,176.83844667287192,10.497302206465541,-3.246087437830486,41.04214997906794,-135.8755913445177,60.26506506787363,0.46977972370711113
23.008103854581698,2.1212407562700335,98.30319839955997,34.726631077934535,5.90740144550143,0.014485067168520011,46.72993037754217,2.4292280393914387,42.30777914065821,52.26277010977716,-8.550896104382062,-69.10722568176305,52.794528574242115,-22.545216968008923,-3.521993011366212,49.41914414609398,-32.97126772688744,-147.56909863412983,35.910536116783014,-35.1964758597677,-80.54264413369592,25.03950331751279,-35.050009175185714,144.52785454798754,12.206172161971963,-27.351190220743227,-110.42780919114139,4.356098759330592,-23.952486534282663,121.92266978578866,1.4700421032501794,-10.896790622684293,176.68952753734462,9.328100359621942,-2.955479158235546,45.40036378451664,-135.6559469213015,60.17919030014188,0.6052915967822589
22.96576214266839,2.1223532614373006,98.29774924375283,34.83162508507804,5.891958190932176,0.1661738954653443,46.862490304968055,2.4113181413655447,42.49213752241385,52.31900905417459,-8.571905133856884,-69.10586586393343,52.85534121819362,-22.574879810046586,-3.4270357602225126,49.439837314123686,-32.999075860691036,-147.68267741573288,35.851738784368884,-35.15944461799716,-80.62710967201875,25.03950331751279,-35.050009175185714,144.52785454798754,12.195796868130913,-27.35032738693014,-110.44940983066932,4.297672308579784,-23.909919422735243,121.90961001538534,1.4518502315544595,-10.886890516701218,176.4581600873523,9.252276021930598,-2.9387213267810957,45.71839789339263,-135.92680651758852,60.32265048084529,0.5357134714082877
22.939094939120373,2.135068652078176,98.19238903713462,34.95184121382304,5.899897980631832,0.040854647755228374,46.733767750397156,2.4347387099377844,42.35659440348486,52.15151625985674,-8.523262155544373,-69.13896190450912,52.86203671329354,-22.562083734263556,-3.6544786677313694,49.48902376832806,-33.00186432310832,-147.54174093364244,36.05172382440704,-35.27215587627569,-80.61566281860193,24.437261649396504,-34.764690126109315,144.5579313988404,12.181737175962411,-27.332027814786485,-110.49113240488374,4.35610336660929,-23.956518396277964,121.92870221841608,1.5047189857230947,-10.912554216725358,176.80104470842278,9.333854696319356,-2.9510882518964365,45.51829773385636,-135.77411967478693,60.24297918998947,0.49956669514313334
22.913831206222078,2.1440033361152135,98.25070616969539,34.98647620739897,5.906479712199605,0.02912539465795927,46.65177815918691,2.452266242592353,42.3036742409932,52.2953461250355,-8.541523627171031,-69.12041142031784,52.85966757696021,-22.55100659096321,-3.6185714683829,49.45193556122165,-32.97278290811778,-147.57343441122342,35.89498164914753,-35.16201084263174,-80.45764491006271,24.51112972280935,-34.80787563279765,144.5615425948609,12.193888379230962,-27.33714673944145,-110.48178095167813,4.3247115389417345,-23.92656651887279,121.96884258361905,1.4596774338831011,-10.88378220986495,176.62101036297386,10.348109307947027,-3.2117778848117116,40.22129934715723,-135.76505512495953,60.21856575543535,0.3972848481400737
22.92009031366038,2.1409702282604224,98.23715103189741,34.970570732677025,5.900402745106007,-0.01804419812467943,46.60891739752805,2.4465775881467424,42.22670939658426,52.19382792387682,-8.531216106556062,-69.1232732502301,52.8151834959806,-22.544183311374084,-3.631803811191778,49.47179608433422,-32.99576519554037,-147.56975181579557,35.83587575208849,-35.131515741525526,-80.66798995693767,24.548760302743673,-34.84532179060956,144.50617182031567,12.170409729784822,-27.3251016544297,-110.47291865313636,4.3223301550350826,-23.928367984950555,121.96266785438127,1.5084628942945102,-10.912575501905796,176.70956024181783,10.268520780709629,-3.197537431764358,40.127132325326095,-135.66903931176884,60.17162943595057,0.5053693558248574
23.019914103723046,2.1198450491114107,98.25511494813534,34.83474373387086,5.905125397055353,-0.1860400923752949,46.767368466948106,2.4212430898702344,42.31450921389546,52.224158878543896,-8.547167262819663,-69.1849190025568,52.83261621894648,-22.56058196807604,-3.491842358131691,49.398758922941305,-32.96838008250619,-147.56372596532378,35.88761365220831,-35.1736474053086,-80.63471902587955,24.508913178895654,-34.820785024554425,144.47213150495867,12.187011106473477,-27.34300700252613,-110.4350008090256,4.361086065880038,-23.965988364485284,121.8625120185915,1.476564749011132,-10.900622681526357,176.54848611999282,9.321315652566206,-2.955303695235518,45.41939018915407,-135.682300352344,60.20033428261759,0.5341638256916558
22.929972563720355,2.128143988808561,98.25854182015841,35.02066560181019,5.8956669346394985,0.046834700847513684,46.923445703741216,2.4143065087415687,42.37088237378722,52.317482900983926,-8.561508467578282,-69.09147687646661,52.881739575801824,-22.57227341711053,-3.5412348797253705,49.494873175547504,-33.00664273742912,-147.6068883603716,36.0105023174715,-35.243200383268054,-80.5825291212309,24.55902069028066,-34.851303352064996,144.52243758669985,12.201975339466813,-27.35000703651425,-110.42589304270903,4.345097993986144,-23.94611538227843,121.90561216693465,1.4129999059912421,-10.861916734424394,176.34398736101264,9.309228698440563,-2.9494653762364145,45.557578017487025,-135.79856894841072,60.26011775114545,0.45580036873267454
22.9325769241862,2.14537083381458,98.29791768637226,35.281563216362606,5.896880316486566,0.18363349357234668,46.72069264628083,2.4507582380138135,42.38371212403185,52.317199133567364,-8.546087823891863,-69.14060571974451,52.867106615611554,-22.554831017741463,-3.6059107363356047,49.42856154486959,-32.96485670212618,-147.5334294538204,36.03250941055726,-35.25104308442549,-80.63953039569509,24.4808103992995,-34.78786366364793,144.54297107432194,12.193736748963865,-27.338152922578978,-110.4615802367258,4.354775472134861,-23.950567896637132,121.9586776903964,1.4195563305828003,-10.871695610812921,179.96208091017272,10.521003548816907,-3.254143454771169,41.25608149185335,-135.8565664159367,60.251032356134864,0.43971512323323325
22.90815079201588,2.1456227719221594,98.29040971297933,35.163188517790196,5.896697123585945,0.04950809020540266,46.62269599568763,2.455773986421513,42.30963513529751,52.21944824591535,-8.52910102076422,-69.06605791868675,52.84670073469288,-22.548487394418757,-3.661065360880643,49.38837295851504,-32.94344858557202,-147.63661556125442,35.79254190726807,-35.10262727568008,-80.46885579088224,24.494229835824363,-34.79771450604758,144.54238172320666,12.168593507345442,-27.320257361536108,-110.38871374439499,4.342503144639075,-23.945626215554412,121.95580378342797,1.4520953463894273,-10.880377179628901,176.73300260306533,10.077231161529603,-3.1393781371638347,39.749649290498574,-135.84757260467063,60.25347365902246,0.3892395801218227
22.934479437096208,2.1404051296572684,98.22953023556094,35.02851060022113,5.900487160145012,-0.07350525130787747,46.63927525577822,2.4446395263310405,42.353820204822256,52.335849670705905,-8.560270703776176,-69.12800234588794,52.899751793263924,-22.579335519056922,-3.6288647749197604,49.30758257659496,-32.91486432713823,-147.54571580310716,35.93345060506609,-35.19299683785777,-80.70056974308085,24.511434634324544,-34.81772870632633,144.49159803877635,12.158216473934893,-27.31672128234907,-110.43894839398435,4.296018222689881,-23.91043818196593,121.96073950286917,1.5039863907252524,-10.9131143637921,176.6822752750497,10.443557833883034,-3.243104607861774,41.870661229829516,-135.76631315011554,60.22241432805424,0.49447091522628717
22.982072778483797,2.124115058993749,98.24300185826854,35.20467697247489,5.874677572881952,-0.20790724009029032,46.78691647444429,2.4173814036270906,42.36719426521302,52.24297340926483,-8.555997877985064,-69.18905191495423,52.84615159312033,-22.568586418064204,-3.4687613723781623,49.27465423148754,-32.91193388250075,-147.59697102893696,35.922904667290005,-35.20360317898773,-80.58637442342976,24.509535939731485,-34.82495935171382,144.54198979798252,12.187951413836274,-27.34332239866214,-110.42022401545775,4.271105926222397,-23.889206409823146,121.83973786080327,1.395125619252937,-10.855810763882566,176.38865165600436,9.231352106608853,-2.9329128480695097,45.82790766205613,-135.83929211650945,60.2794078535096,0.4484936876624397
22.954021481033813,2.137405158819428,98.28236169580455,34.98530579618113,5.898644826716381,-0.014964316006860875,46.737389444195294,2.435453341246739,42.32533307882608,52.2416175675561,-8.542065100159967,-69.14123387584259,52.76448383240548,-22.52640542368477,-3.6391814251492707,49.323577753984075,-32.92018515749486,-147.6294070572867,36.03668558182391,-35.26287847625955,-80.65082578162291,24.53193373512631,-34.828819210980704,144.61280363457834,12.206457355116306,-27.351740601745128,-110.48581817497958,4.354419890973979,-23.958775471585092,122.01006454503644,1.5049519850014548,-10.910463329123374,176.68628312730146,9.329368787542343,-2.9505220254962765,45.546233411277036,-135.66931054078398,60.18749510617025,0.5224030813235232
22.91723602698277,2.1464840432511254,98.27785005968471,35.162393378625104,5.896468498393617,0.0574420677115861,46.62248263543993,2.455761069871979,42.24272223023332,52.28330331291138,-8.540464595479406,-69.15310737957867,52.77766131254166,-22.522840090810888,-3.693239711625801,49.490386372218744,-32.99433373268003,-147.57546731257204,35.951965217237564,-35.201679183113015,-80.56655539001463,24.499031480942897,-34.79943593197634,144.62312759260547,12.191279235357122,-27.338986592436484,-110.39728057403573,4.344317725349967,-23.947384044814605,121.93281499692226,1.442823559581548,-10.876109107632942,176.64484752163435,9.451066928265568,-2.975076976250758,45.26088984733163,-135.91650861410645,60.29271814855857,0.4368372902176535
22.941738693293644,2.1445837500186515,98.28324356785288,34.98915771531954,5.9040832474163985,-0.007076328295414492,46.746780379059324,2.44243193611309,42.342170663518104,52.25232707815997,-8.53533482604358,-69.1021405051568,52.84441758311291,-22.546384546057958,-3.5752241781001852,49.38208137834861,-32.94097843474349,-147.57430348128105,35.91668284795957,-35.17951949365418,-80.60471596006536,24.57712105475862,-34.85416894674844,144.55059651999787,12.215704367264202,-27.35408764640475,-110.41653394948517,4.3622454990836275,-23.958620773457156,122.01418255560986,1.5093591246007279,-10.909619126285516,176.83622981689714,10.082502078119312,-3.1446207561061357,39.95043805800053,-135.76102887251548,60.216884067039196,0.44983378855521866
22.91714897769537,2.146163750921944,98.2985298940212,35.22342072271672,5.896279591159401,0.17499516640116747,46.64375213402125,2.4516714748073554,42.23049485662563,52.2733822056254,-8.540485361120332,-69.11255008925865,52.84903031485174,-22.552804134381862,-3.6179026585500402,49.304714751041764,-32.906642375529046,-147.62063928417774,36.020758204306,-35.24779747330886,-80.61178576093074,24.53518106575155,-34.82820058619289,144.59277701260518,12.170902551641113,-27.32455086678327,-110.5207152447787,4.377932954321153,-23.975428412435434,121.95669443754947,1.4357035780773728,-10.873571787615312,176.7457829118401,10.44340844533523,-3.2354774503048063,40.07876995305387,-135.88820859712678,60.27415212056431,0.4885148166235162
22.92096299863919,2.134127643512925,98.24932624662019,34.86961432928526,5.908166078083486,-0.1984066139914824,46.788245758597746,2.4249339765667246,42.36100448754519,52.31381806511755,-8.56277901189398,-69.13539941269076,52.85696604236839,-22.568976309384045,-3.5017401022709986,49.36675601859108,-32.95012423611903,-147.60694345745128,35.868545894135146,-35.16237951293764,-80.53625330832409,24.517935507169632,-34.82504311553084,144.50164615565168,12.203910413195274,-27.35537963221565,-110.43631478620922,4.33087173949631,-23.94106302486116,121.83811309724771,1.445761588231015,-10.881348830970133,176.49397659117372,9.321917203156367,-2.9540641858115215,45.5619640957006,-135.7101910193836,60.20503891652538,0.5398817987514927
22.925977016346067,2.1316077711417183,98.2163404387709,34.75509423304508,5.905844947365917,0.020789209284240332,46.81595980284859,2.4206927425824167,42.33715952225612,52.32680642564798,-8.56714106465978,-69.18781977424774,52.88709896727382,-22.57881290792802,-3.456444830245295,49.323652528999524,-32.92718781001139,-147.63673859573174,35.9827405251659,-35.22827063426266,-80.67671113597171,24.527595249020663,-34.83035185103476,144.50355443071837,12.185818178511695,-27.34100315894755,-110.45572439919484,4.315617272684264,-23.928443630551648,121.83076958588232,1.4843142127660016,-10.903361376839705,176.61099934124738,9.311600635296024,-2.9526381473731256,45.529677160743574,-135.7759281217833,60.24597823039168,0.44217104210052194
22.87874177782441,2.1475481768424682,98.28113087767056,34.99253465418085,5.897071731109261,-0.04995703956587217,46.81342823426542,2.4279863041316547,42.34899837548183,52.24971651556138,-8.54426726466043,-69.17353765819563,52.83201112133036,-22.552446157955078,-3.5964126017064264,49.41916286557828,-32.96712784498329,-147.63847152303612,35.977381259549496,-35.220013263019645,-80.66501360193772,24.54373625177748,-34.836666500544936,144.62821270106215,12.191958208144165,-27.343496046466598,-110.42769735471994,4.35657231202017,-23.960471140665724,121.98564110813606,1.5044721574009827,-10.912445524290877,176.67946716059276,9.98275287119366,-3.1235913573671894,39.81929697344527,-135.7430919815155,60.226051712255604,0.468865939728188
22.950253792191674,2.144291105535544,98.28589111819869,34.99703327014442,5.901958731353666,-0.01817452430852643,46.65244179464268,2.4478832339672554,42.34872633331072,52.24610418330827,-8.537385727555595,-69.1819809228442,52.7913321628322,-22.52984662430728,-3.5981910018058034,49.43836643628895,-32.97159148081108,-147.63544010146566,35.94546514869446,-35.200143980995776,-80.5761270362245,24.537832188062687,-34.828266411985226,144.56330035817507,12.198298090756182,-27.341895175936642,-110.47820893714683,4.356375403141087,-23.95682024168636,121.99726805315201,1.500175289827368,-10.907013920389073,176.71866119973808,10.37428687581432,-3.2197981956752404,42.29264213785782,-135.74979626722973,60.220470954846654,0.43711601154066143
22.93823494479261,2.145072148888758,98.23549858887407,35.03334046259341,5.904866003412096,-0.011971429602580425,46.59071125772798,2.456680848331878,42.282205267914314,52.244317599026196,-8.536732635955044,-69.1020250872698,52.80371895034768,-22.536510593470656,-3.6218442033317553,49.442460452711096,-32.97504490800007,-147.54049038354302,35.882698781387354,-35.16216459985578,-80.58104222258216,24.536503972011523,-34.8294441175857,144.5876968864984,12.167419643264608,-27.32161676971394,-110.35009043261158,4.360479981716395,-23.9619568233664,121.98936211137111,1.5212153133276445,-10.918288447883914,176.92373581704408,10.084248901489488,-3.1442171284719613,39.85611208237454,-136.04182010241036,60.35089667565599,0.41231249260026565
22.92317076117292,2.134974862703002,98.27743840212274,34.74793722025078,5.907646304127525,-0.012498429693987288,46.7738198665352,2.4247231841084798,42.309343063822716,52.266646747459184,-8.555144755603163,-69.16240165210394,52.821988512359304,-22.55361898647736,-3.4963479061544773,49.44802425470896,-32.990729640702305,-147.5289231663163,35.90684065919208,-35.18413652096624,-80.6098832041206,24.52222138890614,-34.82815904188811,144.5034289096718,12.187211113272241,-27.342450144730684,-110.44820226537553,4.340724365701334,-23.95001013266002,121.88705072941201,1.433433354145933,-10.877052983602379,176.6562538485261,9.342975772399335,-2.959917586618186,45.35741084196039,-135.75283401701486,60.23006388331761,0.48347050325035373
22.9310819272982,2.1314321709669883,98.20136068398992,34.85350399114363,5.905902077536668,-0.16586534551499424,46.84305317544547,2.417780479477736,42.3945720896237,52.30625796229615,-8.564930445038495,-69.17568723593165,52.88729950034563,-22.576240716145808,-3.5019632421475846,49.40942577106839,-32.96929477461291,-147.60772820726223,35.904927035950884,-35.181851691402166,-80.64937800994124,24.530833877723964,-34.83152305227836,144.55543997407372,12.182116338597865,-27.33753000506129,-110.47090280696378,4.3289042344502136,-23.93872577468828,121.85343273225978,1.4123524349986027,-10.8638979791189,176.40306835057908,9.351925472141112,-2.961667072079317,45.39961460828465,-135.71692918224383,60.22026996894561,0.521382159177229
22.957441803309386,2.1418160275946256,98.2650738913649,34.97356968116009,5.900186179810237,0.07099726690815432,46.6778167866543,2.443437801716814,42.32456731462289,52.30334035610063,-8.55334747769637,-69.15369314801247,52.80673806576569,-22.54051511822059,-3.6386462112729343,49.442448301376196,-32.976622084416846,-147.63073630485377,36.0057895633044,-35.2395996128647,-80.66281924728025,24.526261558008876,-34.82233070109399,144.65060054692572,12.174699621637906,-27.32791188261953,-110.45382775506975,4.352464634335625,-23.95773694998192,121.99830160604301,1.460355854821863,-10.896906913792005,179.89190326026858,9.340906501533858,-2.9537515255588342,45.45419509555599,-135.7598108001904,60.235610238393335,0.5098912689777948
22.925519153210402,2.147452727965301,98.25397553366652,35.17456951619899,5.896328387349119,0.01960728650522824,46.69850923647213,2.4495606622849513,42.25656069485156,52.236051728851216,-8.532679549962111,-69.14395732300606,52.85790073073256,-22.55202420276908,-3.6615513792043877,49.44632765479762,-32.96874090594351,-147.54710186489524,35.85359508303679,-35.138634674534806,-80.54866068723422,24.52607023790423,-34.81826493392654,144.6666487228341,12.19651111350084,-27.33881580304911,-110.41994121107332,4.315208364567155,-23.922526748100914,121.96656534468981,1.4527482700027008,-10.881791461305877,176.5984383309926,10.235409400746939,-3.1813565679638707,40.05917972558738,-135.6904747868909,60.182889722967154,0.5212048338514833
22.924020632721096,2.144477271518582,98.28781948224997,35.00702749530122,5.9013826739259,0.02980944809262696,46.65025119317685,2.4492910044534373,42.34919360017573,52.20478129360222,-8.529984046148083,-69.09704201442881,52.84045467332398,-22.550400031052174,-3.6409878515915097,49.33004455188641,-32.91974949132224,-147.5899928334246,35.96817107524888,-35.21414739980517,-80.69991752518618,24.52789882199955,-34.8226245149167,144.56474652395607,12.182038169709301,-27.330873061239828,-110.46118331664587,4.355037384210277,-23.95771075588484,121.98337972819897,1.5392922884368545,-10.930423594410627,176.90555390712805,10.452639769037994,-3.2434200563497892,41.80254661415695,-135.85155393307565,60.26140418078018,0.5071085084630778
22.93268984521599,2.1299679968493432,98.21136357889864,34.98636821390678,5.896146940008352,0.049383983873958946,46.83551886926309,2.4189978779997263,42.36694338682695,52.30594208993384,-8.565362078905082,-69.16179357277262,52.798512228933,-22.54878574683672,-3.515552422470628,49.46446855517144,-32.999051573353405,-147.66991737132193,35.947621723305765,-35.20738245554225,-80.70971667699473,24.551495876908298,-34.84847311688152,144.50259471608138,12.178656951849554,-27.335303592335777,-110.43422131645846,4.310159695945323,-23.924123951783507,121.8472895882157,1.4843827015691673,-10.903715655713754,176.52578564679123,9.310328859289996,-2.9513289171000974,45.50526374696512,-135.8247047002444,60.271756333534434,0.4545618949651874
22.92059109177942,2.139045961825233,98.17320062500173,34.97354702820835,5.893961782997834,-0.12753417958958296,46.75963168667152,2.4295108950507016,42.3494329635072,52.29315131485337,-8.555166925347258,-69.111417107585,52.85041171428302,-22.559731973780575,-3.493327601007628,49.40411946966291,-32.961240829034665,-147.57423920199713,36.0535748484369,-35.276308860415384,-80.6318025871468,24.558604780167556,-34.84838480735136,144.57743918557546,12.19951025431704,-27.34674325540808,-110.4903068215144,4.3697021492293615,-23.974507697095028,121.91230460669553,1.4873730505570393,-10.904170367485019,176.6071366271016,9.314235171525993,-2.9496891331512263,45.53269759967198,-135.61593062040552,60.1626525300689,0.5066425792414675
22.917471662702816,2.1486803668596126,98.26418441366519,35.15860403417765,5.896630008120821,0.052945397170330005,46.573117040000405,2.459062658107472,42.37339775095055,52.22738381773022,-8.531323978500719,-69.125682579176,52.821352876034005,-22.538673794263776,-3.6635554250213342,49.43789133938447,-32.96619091374455,-147.64260055201822,35.92093272601563,-35.18244185953281,-80.57057999809068,24.503284905569203,-34.80053888147351,144.55866235677237,12.203590169601938,-27.345692071609776,-110.37650006747951,4.366593964093447,-23.96716365437618,121.9592271135306,1.4413949440354372,-10.873395950609947,176.7774647499986,10.408029247130465,-3.2265068428057475,40.365660673781804,-135.94760417361599,60.30954944847381,0.37410043011413613
22.95317492243514,2.1417214661467767,98.16191431801427,35.013725772641784,5.901034550746181,0.016573548270135692,46.609254062243004,2.4499076471385903,42.25161514969309,52.396044011784845,-8.569613515628252,-69.12445987609254,52.83039834971587,-22.546486768543737,-3.596849823256302,49.35548165076721,-32.932900522484076,-147.63077672674447,36.050946151816966,-35.26770337176303,-80.67614599902333,24.535223416945847,-34.83015996036331,144.6080762167565,12.186362408571348,-27.33642274448588,-110.42114901181507,4.350842246307991,-23.95697188319693,121.96898243955451,1.4389434949814586,-10.88624557764896,179.93000585839863,10.097956715479945,-3.1526795917779875,43.565486454932696,-135.7118323462637,60.19416206368873,0.539665736166833
22.93483945378545,2.132852032973899,98.19439480061345,34.855777530155855,5.904752744999113,-0.1853484154110226,46.89981555318162,2.4120517222473534,42.32030299851966,52.348896832437426,-8.575410662274166,-69.14804316706022,52.81252607716902,-22.552670819609506,-3.533300558372187,49.2634420228702,-32.9020562162818,-147.6466994027545,35.95183046532586,-35.21602091370932,-80.61440679612977,24.5229722499799,-34.82753075991683,144.53306150095347,12.21805086078281,-27.367328357495083,-110.44412193769043,4.333298952044224,-23.94602318542946,121.93249166419973,1.3737612560357775,-10.844769818761048,176.36164051086737,9.32248904107518,-2.9549415687716234,45.53674744051378,-135.6568124709656,60.18614186281123,0.5697868745242338
22.943698345623773,2.1334571051158546,98.16039796411216,35.01148547622187,5.89562942519067,0.024811084249572603,46.77018141150486,2.423874755497674,42.33489158975914,52.338003491347074,-8.569987522393653,-69.11298951400859,52.784874717237365,-22.54205194666433,-3.500992168929151,49.301505182692004,-32.915807892256986,-147.62480239094006,35.913603577859796,-35.18529286094876,-80.73095431383177,24.544111477801934,-34.83950366354667,144.5455402789766,12.1907582939507,-27.34286481319721,-110.42585106622566,4.339947248365846,-23.94844642987257,121.90347592184668,1.5420655034694448,-10.934738303990287,176.7395610871812,9.32228706653833,-2.9548192129946003,45.52500435807694,-135.88736132120962,60.31071152784463,0.4739265470683843
22.88896854439377,2.1495932554515935,98.26404418292722,34.97366324597642,5.898057143357303,-0.07205938216043797,46.780136610847315,2.4315911395147918,42.38508477955358,52.216683099066735,-8.53907044331432,-69.10306685982819,52.8060966619311,-22.542366775521735,-3.5777716822303933,49.35305879323797,-32.9355054174423,-147.5786018092578,35.882429111078785,-35.16152782318804,-80.53673781538748,24.55432289340458,-34.84354798962882,144.53650316895917,12.200797554868593,-27.346663680915675,-110.46851127038393,4.390490756661279,-23.98932960200615,121.90365986380229,1.5128560243423692,-10.916073881383653,176.7203114898684,10.042076136422942,-3.1384097988663626,39.81772175839163,-135.6104224787044,60.153403780318406,0.5353785881243743
22.88238278111264,2.151608322582452,98.24827455307681,35.1644520354367,5.896446590565168,0.01904105372431858,46.71970084698258,2.4660081567666863,42.416180679758945,52.479804229504005,-8.472999820406443,-69.02309854891142,52.89456942373874,-22.57092548563696,-3.624953746592184,49.73321259486929,-33.015737713131415,-146.77977064030335,36.024528429683805,-35.248228445118784,-80.61083554119273,24.48580502658151,-34.793392725209145,144.6109764946692,12.233957683339455,-27.348078617236006,-110.82304818711582,4.463428307811917,-23.927915074472523,121.89720326917444,1.515929969884752,-10.912495954988657,176.81524912922228,10.104802600269934,-3.151246018237636,40.03403693081035,-135.92874748640634,60.30616129987045,0.5704185874165514
22.86521517184321,1.9008345296827285,84.781731611471,35.495935624967295,5.964737290090694,13.891757497475364,48.39821032060056,2.8052025089650465,44.10627709442963,56.493286464851714,-8.109847689828388,-69.51289921057241,52.89456942373874,-22.57092548563696,-3.624953746592184,49.73321259486929,-33.015737713131415,-146.77977064030335,36.589815241579764,-35.48360442494146,-74.72744564042756,25.244602242313306,-35.36452382818048,141.59816821604986,13.104682913958818,-27.2122650214689,-117.83562024988646,4.463428307811917,-23.927915074472523,121.89720326917444,1.515929969884752,-10.912495954988657,176.81524912922228,10.050081547863869,-2.6488256519975195,42.90681492175931,-135.8587026673552,60.27039448105955,0.5780183957889901
25.21968802725751,2.8770657640227713,72.24147002023552,37.66502501123062,7.121846205513913,27.159594257001878,50.14990905921342,9.690119195214727,68.04097779684002,55.78960127008626,1.8193515401291345,-75.9001446676406,49.26398830803573,-8.527759188950771,-21.827860678066006,42.93559373481673,-23.0109256214547,-109.05376380782647,34.341149517581464,-33.03679406143943,-64.84526990139325,25.049872892920135,-33.22786877442351,133.01901359240452,15.556605944946774,-21.232796465786542,-147.9497096757447,9.563689885652728,-8.679449500543356,115.02719380674405,3.7232093580985364,0.9422113287789156,-172.63987343444145,12.55701962249519,5.286527902145966,19.001384586279915,-135.91124436627337,60.31297536162804,0.5809515106123432
23.544584229152463,4.239478373585842,79.67028159069221,35.79174098823248,7.975052818516309,37.698054864104215,50.7874339054865,8.605644208652949,58.86015163870927,52.35508659566653,2.226893366760189,-75.30785984959917,54.63202305744476,-11.594830123368276,-48.35946664876151,42.93559373481673,-23.0109256214547,-109.05376380782647,36.57192958748714,-34.27897179780026,-72.22998594926867,24.420858463946416,-32.99427764995347,138.3247035570827,14.236978276223063,-25.053457820321462,-115.40547496857702,9.563689885652728,-8.679449500543356,115.02719380674405,2.8961404502944035,0.9485034409386683,-172.9434111178284,11.45024115339826,5.242344417055415,16.63764101758702,-135.81560594095842,60.2778407775541,0.4851217450911775
22.62404352491012,4.527010616824603,93.68077217680091,35.36952765729274,8.308241387125673,6.827508714253881,47.274445169106265,6.589460224355012,49.4978222989424,51.88936509156094,-3.6847752606707456,-75.5223191108935,51.45754384537671,-18.386812008191065,-3.267131151411565,48.18891248116652,-29.987187164455577,-132.60426733589284,35.931358058117404,-34.101176213027294,-82.1071180615364,24.34342118105647,-33.26022740314387,145.21946710345696,11.821975141045435,-26.248598367810715,-104.17027984426846,4.838855397701245,-22.075492263045835,111.66776390837022,1.7689733916508175,-7.983257967669061,-177.2778896356081,9.291581570560801,0.2742820118190359,40.79334008054976,-135.80742554612786,60.26596790148128,0.4990361972917289
22.599195843978805,4.539754109606244,93.6239995491552,35.24864754659371,8.315804479411861,6.920194881124589,47.35997252304059,6.641626029461747,49.836011273394256,52.395087645823175,-3.537297617449731,-75.1853786694593,52.50681487426608,-18.483832807806113,-2.9925034422912646,48.166878493366944,-29.665765075049706,-130.91086837534885,35.958275935113996,-34.08461766264327,-82.03131818913559,24.43932965179851,-33.25076206906486,144.85413685968348,12.342461910286382,-26.21206206218617,-105.07940047592284,5.072071233312506,-21.89903821219663,112.68991948533963,1.8242021042828753,-8.003468438754634,-177.3365576494131,9.192491143751226,0.2966803272221856,40.8465537460488,-135.82516243345694,60.253537947981755,0.5474287529174808
22.746294626176045,4.522527257685075,93.16289745324902,35.31614770610036,8.328438476715958,8.184656747984468,47.753893310226,7.0835965537958,54.61009252815087,53.0199562522287,-2.443839088563532,-72.08524582463899,53.75008366076185,-16.515722244142104,-2.6033552248792065,48.166878493366944,-29.665765075049706,-130.91086837534885,36.10214327655711,-34.55816080573904,-72.81354632058918,24.666991538451995,-37.966154309543725,-175.40595548030248,13.061458215158794,-26.345317889927344,-112.99291528042495,5.8256886528216825,-24.753920764267882,107.28175222158917,2.8039367442374186,-8.34424911953986,-172.9267392737238,10.151245691312546,0.10390375473510183,41.48907115571637,-135.80468558026993,60.232215843684656,0.4757020189638345
22.7253303648846,4.681478024265905,95.04936748971848,35.58780494619767,8.327917782191344,3.7971618008169377,47.71235968788945,5.94844861946528,48.03822690027557,51.94293194181645,-4.4441514750345625,-77.87458285845638,51.9550535700351,-19.85986557207532,-2.780604754143845,46.62089133509878,-31.017898615348955,-128.79497514323216,35.42836807107556,-35.564428573946856,-80.47713613711251,23.025909102725706,-35.90945237925522,153.2154554956719,11.920975738394525,-29.298935231774813,-125.21255420092236,6.604916631462679,-22.490207123560165,100.5006406194176,1.6017317039101826,-7.4948864854362895,-177.62396544237416,8.982002499641702,0.2944093599631934,39.90831284957089,-135.86229363057808,60.30250205058724,0.5076563235308663
22.677942658171254,4.709893110231894,94.98013638168626,35.52159312192607,8.323340860886228,3.9820190255102417,47.51214743474977,6.097240138828337,48.53091161318572,51.84804827445672,-4.10832111188266,-77.11367700367884,51.47156619432909,-19.137363255450644,-2.8116900012953248,47.5885336212126,-30.7153810904911,-129.32778003614516,35.33930511409546,-35.44427711793595,-79.92872581938171,22.678845827839076,-36.375475306609935,160.33825814550747,9.815914492676356,-30.721470145945744,-121.94845937636768,3.4129172793708094,-23.074165690714434,104.25197786267515,1.5793283583229254,-7.863706798666417,-177.56598955218212,9.065299280572326,0.2810473731362979,40.1092874516229,-135.84258936960856,60.28199171089953,0.45949866329185657
22.73314170063012,4.7003560418454,95.00152194965418,35.45779438999174,8.333338160399752,4.013895416522053,47.68194260032474,6.078520179465945,48.52066521188833,51.81221392153248,-4.229609618187213,-77.24885058741357,51.28993743249949,-19.110676190509963,-2.7866298996303533,47.66406955465825,-30.714341253025317,-129.7432053319165,35.3421753583815,-35.43646482828015,-79.89823539203194,22.63334342015719,-36.304383528842216,159.77601098623222,9.825177164650029,-30.364956228010293,-122.5160069415239,3.5849870787980933,-22.52997141055596,104.13459597240399,1.5725658251330898,-7.768713368634327,-177.82688896208998,9.011548387308679,0.30037033804661917,40.219848413911826,-135.88223999309318,60.285066446986704,0.4264163939385087
23.06923619424046,4.7260426263885655,94.62865786651525,35.469863362787855,8.342050555941046,3.9720433879850967,48.94989118820882,6.125613043529066,47.914666046200445,51.98510182018622,-4.322312345973476,-76.89749822995705,51.56513716505071,-19.195785331235818,-2.8851740010710265,47.797409491413,-30.765012937165764,-129.76012628552928,36.71730547155362,-36.27922957411464,-79.45956391116994,22.63334342015719,-36.304383528842216,159.77601098623222,9.850478678611104,-30.370594345237706,-122.82039811655402,3.9263707916039436,-22.45480310518302,104.21719735747982,3.345017905874151,-8.25204974641554,179.76984761323794,9.093368631290915,0.2951902000991975,40.10605343112984,-135.8304072960104,60.24665218007557,0.42075986251346065
21.01789649644123,10.42575812318674,96.15541588459699,36.00088225738964,11.159812866983994,-10.92174725031116,47.66595184717166,6.18475363410416,46.96433153959179,51.87991658199159,-4.360998811950653,-77.04051168683952,51.267593045552154,-19.16014589602754,-3.1304910587265558,47.61424614825062,-30.70456195589096,-129.96118666472736,35.27070443528782,-35.40317539388648,-79.84639998511695,22.63334342015719,-36.304383528842216,159.77601098623222,9.820287714338775,-30.33771878445131,-122.9318653918139,3.724015910086571,-22.142966977694144,103.14300816315306,2.282727745046074,-7.436762316606728,178.27423063587227,9.46267789847905,3.032078043964413,52.59368059754418,-135.7445707300237,60.22383846285301,0.5189426177943404
21.841015884411995,10.746197446639682,100.19629451774593,35.024683987616605,12.301856730265957,-13.833529108470067,47.439634716486204,6.434301058966524,44.767929526316415,51.82485729242455,-4.391035736757287,-76.28503116931954,51.43413431950217,-19.158842614583225,-2.762728799390124,47.60906694364943,-30.693262167714472,-129.73940306945406,35.32460078063274,-35.44116686656906,-79.88070807238682,22.63334342015719,-36.304383528842216,159.77601098623222,9.798667148652385,-30.30877804039683,-123.21447924799831,3.7202994808965784,-21.923932933375585,103.19552488112248,2.3896795440229894,-7.337611886577093,176.8192509581675,9.909858355471066,2.9316058775449214,50.99377420054863,-135.87816867485557,60.30993752061863,0.3987844938131961
20.98404568936202,11.504022155828903,92.50733452454622,35.03908219816342,12.122291183549539,-12.72330168752032,47.27515558263939,6.358387229156955,45.54002130708007,51.8808337597816,-4.328772170464051,-76.29460060949698,51.11421976204344,-19.028658398949208,-2.835061964112205,47.950696917533726,-30.83349204743078,-129.77896754622876,35.39611844018089,-35.47539545418118,-79.91937835270058,22.63334342015719,-36.304383528842216,159.77601098623222,9.78026462842277,-30.04414368221351,-123.84725325332008,4.028963026112891,-21.605514338351075,99.28642617540032,3.4355618584640055,-6.319421519275178,177.87731312531324,8.988750022961234,6.494085635520351,61.882920473086145,-135.81647692299273,60.26484250353699,0.4331712713441685
20.928935174638376,11.549452300854112,92.5187129872322,34.90073931758227,12.181428107877174,-12.81506856139012,47.165030131266114,6.371044905451518,45.58937007385938,51.64004962641679,-4.279354687013841,-76.24084662659932,51.178703693416374,-19.03621689702519,-2.651569358101909,47.819626862827896,-30.769072888198345,-129.6896883178525,35.26556087432963,-35.39272706631859,-79.86586425948758,22.63334342015719,-36.304383528842216,159.77601098623222,9.78026462842277,-30.04414368221351,-123.84725325332008,4.001520640138949,-21.584572663379483,99.25242785435645,3.3797255093711627,-6.2882634835801365,177.74741982571166,8.92458766535394,6.504888884533812,61.84527166914028,-135.8257900610373,60.24785406733518,0.46739801159346067
20.664234640000046,11.98648658501679,90.50017613089112,34.993805394848174,12.133392442943556,-12.662570914146992,47.34596147934291,6.34791121523795,45.582547881493326,51.730229320427235,-4.315098355996351,-76.18313473103896,51.039390591491745,-19.014618130514584,-2.7700958024248887,47.609449411462684,-30.685269974299672,-129.82016000024237,35.394111385304676,-35.488172429556194,-79.9324886428669,22.63334342015719,-36.304383528842216,159.77601098623222,9.744714705497891,-29.965266186015448,-124.27335240358181,4.111410174329073,-21.473152241743804,98.47247899270592,3.793790517073184,-5.847408675285321,176.6223908117955,9.23282364309462,7.284393458328008,63.43370873688006,-135.99125097722737,60.33892657049112,0.5212385611474785
20.815848023960548,11.910698203187048,90.6364032176682,34.93419225778542,12.260923133299965,-12.849079105895273,47.19065940089573,6.33690460306229,45.67907026379423,51.63993733089594,-4.302740197636245,-76.15190632958854,51.23761340835838,-19.078998983972614,-2.704675649729428,47.63252596741503,-30.696972716008524,-129.80473617249578,35.38930350006586,-35.48886132210714,-79.93794968151363,22.63334342015719,-36.304383528842216,159.77601098623222,9.781146051719503,-29.956070915905762,-124.11897007864646,4.105661711823686,-21.450092129283696,98.24248526307022,3.7387525246073494,-6.090560528363945,176.98196014256882,9.068750764836253,7.164852999309658,63.883667650303494,-135.87028530014405,60.3114982932406,0.4352499382733417
20.88838149619925,11.932303433376635,90.89299403774831,34.92470030773345,12.276670327364503,-12.875847364569664,47.2683788483318,6.355421602302968,45.578915268483726,51.61691975718795,-4.277234780222416,-76.17417118381923,50.79386820442664,-18.919351290836293,-2.868739740402495,47.68269445764157,-30.712235740820994,-129.76819892854942,35.27084582266412,-35.411134225549866,-79.93705739319758,22.551511992150616,-36.17123779169186,158.6315600869975,9.701081624012481,-29.87576725082802,-124.22803071776437,4.136427612426097,-21.467700105170437,98.1981818009896,3.837106395924664,-6.118672976014805,177.10316185416434,9.09624533958808,7.169159877091053,63.959653487341285,-135.7515132633709,60.228326738299515,0.5464755271203371
20.923004211694717,11.936507646882404,90.86557511383552,34.89222634765934,12.272202796449637,-12.847361067446997,47.25912131547273,6.3566430389326545,45.674383708422184,51.65099704690015,-4.281816388246995,-76.13024117386784,51.14741986782432,-19.03197967549792,-2.661467700211264,47.75000546530202,-30.74445839258054,-129.75603708013696,35.25375939629121,-35.396163780149934,-79.94122580229157,22.584587666745044,-36.20015171973173,158.58755171936397,9.646284416162743,-29.83122574129262,-124.19769787326956,4.017009869103177,-21.37672656779754,98.24391896963576,3.7519858344344286,-6.086850784350197,177.00516121559826,9.053446051448518,7.167542573328734,63.947514278471644,-135.70021226917223,60.19806200951995,0.4435209510753882
20.87437252445109,11.935249386271432,90.79837308993568,34.85941369952243,12.270645793295067,-12.788408552441606,47.274291177878915,6.357193143920137,45.68900146943039,51.72403231930874,-4.294398139786637,-76.15120145142372,51.02371878236102,-18.993883341383206,-2.6110025648485617,47.63060074447575,-30.689087742222696,-129.78512294736143,35.22734090010666,-35.382284210481956,-79.94576664481731,22.60070690931517,-36.216350183915,158.56177211686736,9.64463015928839,-29.834310429248994,-124.28793150672475,4.00590153925841,-21.37528126173318,98.22728188223671,3.6635088101223445,-6.054290416034755,176.76228199783668,9.076689910986254,7.166181151685038,63.905258237008745,-135.83828567490087,60.27097736387134,0.47562584117695944
20.855797877085543,11.930649990057809,90.81070075554521,34.94055858100534,12.268989655354062,-12.803000087309497,47.171191980675296,6.348662040028399,45.74388448280902,51.699489962948455,-4.296518858128525,-76.19256159116149,50.86817877064184,-18.947589292321197,-2.6332784796346713,47.701903345310036,-30.7312190967069,-129.77457615994024,35.25747146800264,-35.41206533485676,-79.97208164109203,22.523909396711396,-36.16354929181345,158.56346769601936,9.657953815929083,-29.85056872862433,-124.29258216843445,4.104930338854217,-21.455879033013154,98.23567689536956,3.7181732530275866,-6.077679114627005,176.8989428280312,9.059779131869846,7.161498480616142,63.94750288474183,-135.69790504527094,60.20075349399445,0.5053460735744209
20.88164952364111,11.937532217409657,90.77659980809214,34.90666027327895,12.276558460889797,-12.731900157274671,47.28341540848103,6.358309010470216,45.71643088551312,51.72157682500035,-4.29122944847812,-76.16839234631821,50.97145580012418,-18.977998762562457,-2.476111875312272,47.59419573324163,-30.66884099259429,-129.85779491536707,35.3199524147412,-35.44974994605193,-79.86979440849174,22.554995560135005,-36.18436466957881,158.61093400329983,9.642440198902747,-29.83368539885361,-124.30218611431516,4.076179451909546,-21.426150662905606,98.2039361346333,3.7452398419182202,-6.086565919179407,176.9719310101497,9.020294386346649,7.1686388918752755,63.848883637425836,-135.76115182376287,60.217591717322186,0.4918368511160466
20.83102293632848,11.937415906603384,90.8064236529937,34.81437897695847,12.269856797785152,-12.800816518617815,47.24101878522848,6.35801634299636,45.702029781956234,51.6467586457563,-4.2806623530546,-76.07766900014767,51.098808889149886,-19.019879770441303,-2.678775932324587,47.80704040776984,-30.768551304195647,-129.71955267964412,35.33045129124884,-35.452918225024085,-79.94858450788513,22.552294071217716,-36.17982385116948,158.55791512512278,9.660454118502479,-29.8431950232755,-124.29865987696127,3.9939960574999915,-21.3630234707779,98.17298434675192,3.720136931292835,-6.070873236516732,176.88093923755113,9.10008451447709,7.164860224636566,63.918939422896244,-135.88353877573047,60.286651226292626,0.4883402517166104
20.86510094709744,11.939740800733311,90.85369346106305,34.82507547719198,12.26526090147199,-12.798910406050041,47.29660817169607,6.355212076854125,45.668082463229844,51.6643200909159,-4.28474002795595,-76.15205538225842,51.068659576097964,-19.010731934808717,-2.5852139112186454,47.64705165383554,-30.69279641588335,-129.77704680101198,35.32540257292303,-35.45237656246608,-79.94139113056971,22.593107655812105,-36.20774378661107,158.58247244313173,9.703759374459977,-29.881380134944976,-124.29318310103424,4.071458922713219,-21.42023054994194,98.11082404673135,3.6979916239992505,-6.060995468217586,176.81418867472595,9.063633969908892,7.1663159399982375,63.922814405774105,-135.6654735622684,60.17552915331396,0.5796224996388369
20.82122853096775,11.92869542150886,90.84561651869859,34.82011402192639,12.258484558140713,-12.79832783424856,47.24798316036193,6.344823180706425,45.650469793971055,51.61284778328068,-4.28439046047823,-76.13992218110668,51.15852568155777,-19.04843701606844,-2.5457921116404765,47.76758675932741,-30.758640275492482,-129.83921036914631,35.297222686587766,-35.434498995998915,-79.93716262841761,22.55294265965091,-36.18060053693592,158.54558877586535,9.685200445578403,-29.868670636630235,-124.23378469874244,4.116710569964397,-21.455065071406338,98.1397677774418,3.8483680692282363,-6.12039781565252,176.92717527843067,9.053265795163774,7.162546580652279,63.8973345818686,-135.68691240403297,60.20610591338062,0.5299300435612702
20.851726993985643,11.933428309843437,90.74120248387005,34.86404059708328,12.264884657735987,-12.807370910894344,47.246627355950615,6.351683510444461,45.72681654659974,51.6490582921192,-4.287345596297781,-76.19860430097964,51.06086200068611,-19.010666833969257,-2.5867654628728616,47.803128602449895,-30.773734800496605,-129.8436308476229,35.307838014203305,-35.438995766042446,-79.95556472002156,22.57493567300419,-36.19880479508093,158.58161290662952,9.66969939852126,-29.85381559895805,-124.31597124184366,4.102537484815684,-21.44328319516703,98.21863666364032,3.794219653475018,-6.097071883342583,176.8678966689979,9.086923551771264,7.16166685264554,63.93849276839085,-135.70453682101316,60.204961478271485,0.5293770149324722
20.898584652658656,11.942707228671393,90.8733955769605,34.862217926100406,12.268729720436161,-12.79929206712377,47.23465172672373,6.357263608416281,45.72517208153444,51.671223226276545,-4.286437289862796,-76.15854260120952,51.32934390011793,-19.09527497316426,-2.80143834902548,47.75263200869335,-30.74464971909226,-129.8944502199317,35.25916306740388,-35.41052171677017,-79.95343180043399,22.557981147271477,-36.18833765686149,158.639207761817,9.687603570019412,-29.87077018189528,-124.290878024161,4.015973450447532,-21.385882561564753,98.22423726174289,3.6775887237745764,-6.052500665608134,176.76218385171504,9.058258047404422,7.165722724361196,63.90397984339606,-135.86875220366167,60.281882799209086,0.44349257104860773
20.815112033395607,11.956390696019982,90.84743570830334,34.88293959408872,12.313060758619471,-12.76573533676428,47.59073617718578,6.381636752346624,46.08511413815111,52.245087219878464,-4.371532399988464,-74.21666357479285,51.32934390011793,-19.09527497316426,-2.80143834902548,47.75263200869335,-30.74464971909226,-129.8944502199317,35.25286250883533,-35.409364039954156,-79.91506632740732,22.551751310636803,-36.19117663660066,158.59683458296996,9.694505016217178,-29.884199170848774,-124.30506076587673,4.046556034223848,-21.41190124525304,98.12495317328818,3.697552848791709,-6.07005625698215,176.80870651846288,9.20932776920511,7.152438341128375,63.9681487987821,-135.63507165021625,60.16522322333754,0.5749223803677036
20.737854486842977,11.972117439308509,90.6641804621787,34.927038162369065,12.365310153488144,-12.496762324495878,47.711721740869244,6.5669596327053945,47.961153391067356,52.58659844088118,-3.851232292500942,-72.94349880923049,51.32934390011793,-19.09527497316426,-2.80143834902548,47.75263200869335,-30.74464971909226,-129.8944502199317,35.20159499010496,-35.353703814843335,-78.73884799792975,22.60206865611474,-36.250553278729114,158.399546750957,9.681388216892557,-29.86919122020567,-124.16905657870112,4.079586059056048,-21.439023480450867,98.18090107892674,3.7346388025733788,-6.085794701617919,177.00118302229643,9.058868682908027,7.159444870679923,63.93215726393453,-135.71607438303477,60.20534624223484,0.5840539934323781
20.75063263716109,11.977682925923432,90.68919338461482,34.88843148993556,12.353750617913036,-12.522640511787243,47.648051817551696,6.523642609154219,47.72918222174312,52.666739596795445,-4.010737534845616,-72.46895259377102,51.32934390011793,-19.09527497316426,-2.80143834902548,47.51376106087056,-30.151681073722102,-128.588387912663,35.21016451792645,-35.3546445326601,-78.8273411906832,22.58117882045115,-36.227650717800536,158.37647053205794,9.69482476597259,-29.873993910766465,-124.29143906627934,4.071914830226625,-21.42983181774428,98.30810773378056,3.762807841195034,-6.090903026090013,177.11257225863926,9.117825997275979,7.161661508362574,64.03776585844581,-135.8038731147566,60.23238753379972,0.5301703107374867
20.744163180978603,11.95914576197155,90.93380185241881,34.87815973660255,12.286838851090126,-12.523433087806852,47.67841483307922,6.469041261875713,48.260154687673186,52.666739596795445,-4.010737534845616,-72.46895259377102,51.32934390011793,-19.09527497316426,-2.80143834902548,47.505641355385755,-30.152600587112488,-128.52506503775388,35.354184788007665,-35.45053236028027,-78.83707240527883,22.651896854057618,-36.29062090590536,158.301240045062,9.705470441534224,-29.888676203717843,-124.28815532543503,3.9980336969566252,-21.37086793565148,98.18207892372854,3.677521840861246,-6.060417773954898,176.74751078861448,9.126808383742215,7.154459143130992,64.02779804556522,-135.63946715665037,60.17051713362504,0.5504469978254686
20.87883552948866,11.957287024837775,90.83137006632083,34.98330401660231,12.300189375264287,-12.550973661771595,47.686023033644595,6.524717011959677,48.265200599642036,52.666739596795445,-4.010737534845616,-72.46895259377102,51.32934390011793,-19.09527497316426,-2.80143834902548,47.48582311126754,-30.12532413976475,-128.65774649712486,35.3465293233071,-35.45395474205438,-78.8225199803583,22.621004816253397,-36.274028015334046,158.32501658197972,9.690443911416168,-29.883794518424025,-124.18743121101001,4.048509019857896,-21.419070350607313,98.20663041287398,3.7388076037549,-6.087730886131887,176.90597684398543,9.134031545750119,7.150582717156985,64.02453178650003,-135.68266829849577,60.200205641444406,0.4568159996484824
20.80236128167202,11.955583566700296,90.90856805532377,34.933117655248374,12.27460352722346,-12.538974848012343,47.64037655904561,6.454780073344049,48.01609927456605,52.66922473750888,-3.9562448610043734,-72.71990739788684,51.89037484478957,-18.223162981621428,-6.722845533799218,47.564796460907225,-30.17502700842553,-128.67134181050122,35.24706191989717,-35.38070634841096,-78.76017160730292,22.626110244956017,-36.268484366813475,158.37812394827614,9.675995464683915,-29.86082278266356,-124.24324747164006,4.046303498522285,-21.41345993518058,98.13749687343686,3.7563621341855082,-6.088718183089178,177.04941076535653,9.035471256111762,7.161073658529265,63.9360393345003,-135.6821067708885,60.19269247696682,0.5333833947469955
20.749812632847096,11.957017126814936,90.6065560673444,34.86666063637046,12.280308433071573,-12.508724728715453,47.4974699072181,6.466212788885478,48.02260059822922,52.70467744456139,-3.955974234581694,-72.71388533375885,51.85204324602358,-18.2023325744868,-6.704989210840747,47.47524682837912,-30.12561994843209,-128.70039573624064,35.26384784108371,-35.38425853448146,-78.76613160111324,22.641483118804075,-36.275046789380966,158.29691785617467,9.6834838003143,-29.86308096114484,-124.17120438013734,4.026667968699961,-21.392467308307914,98.11012593151389,3.7135870371430144,-6.070501222235627,176.98821707539744,9.057434260140958,7.164680288354095,63.90156345633457,-135.83465762623158,60.26110632428612,0.5124883972614523
20.711615188415564,11.957274262918313,90.69148712852765,34.86796057498311,12.281274813715648,-12.54982836130045,47.638449081421946,6.463757829233526,47.977337059048665,52.74787197451891,-3.9624139098182276,-72.69088323085822,51.850504292937835,-18.200866250012435,-6.789670128932926,47.43902901148828,-30.11010582680389,-128.6357938884519,35.197215857753655,-35.34059253044575,-78.86714829935363,22.580642418584404,-36.22419113225905,158.34660786135228,9.644847859932511,-29.82626910115777,-124.24261845843526,3.982840940362877,-21.359169856921863,98.15380125333404,3.6904640595540883,-6.058814460295478,176.9271872973379,9.113957240930155,7.162252378632209,63.93422347453079,-135.6694902172309,60.17504106045906,0.5210908448547471
20.736652147562992,11.955875614123453,90.82002427966505,34.9019825145185,12.276809770196977,-12.52975096395604,47.545520395676924,6.458334731316778,48.038773087826776,52.692171150742446,-3.964915148044346,-72.63228541659171,51.877145024574126,-18.2143413889181,-6.7871501280105955,47.51265643904063,-30.15062239927547,-128.61132778959765,35.18791942690316,-35.342173268714255,-78.84180335245003,22.59433407241864,-36.23806468697808,158.3902702787338,9.663841703911032,-29.846955410802842,-124.30118516553013,4.063030733055896,-21.421336568468533,98.21981845444658,3.7369452687368394,-6.080038348547964,176.9627320566053,9.023940397695576,7.162751968174719,63.89379105707646,-135.72091029449683,60.20964153134675,0.5362966042916799
20.759250542839865,11.95278669533523,90.85293324814783,34.94818889420906,12.275227392703798,-12.525560013597717,47.54320908326226,6.455935938276326,47.971735730323715,52.748271027634836,-3.9797623852843884,-72.66544761578123,51.89221824381996,-18.223861023818884,-6.6798057622145,47.530547790917716,-30.163831385413495,-128.71670423387667,35.2333276001517,-35.37322639793749,-78.84745510933335,22.597382796331345,-36.24517193374738,158.3471362556946,9.665522181292339,-29.852779299583958,-124.30482554651452,4.110144144552336,-21.461864818062388,98.2634860522918,3.85743559229595,-6.12749567541224,177.1471880801367,9.053444880761312,7.159515940681903,63.95323014412429,-135.74513066546984,60.22938497926166,0.5443859440101868
20.830588233352394,11.959088369595872,90.8990714950493,34.920246882113396,12.278348257084934,-12.493499296324833,47.53289332826227,6.458431736463079,47.98246585386738,52.75696888358224,-3.9776123064368427,-72.77341590759242,51.84305086278534,-18.203200410705207,-6.750792496443265,47.52411132301719,-30.155708631829597,-128.64348304206644,35.25393953240931,-35.382495161586895,-78.74830463577132,22.62767519679425,-36.26341853828421,158.3410494344028,9.677593968219632,-29.85806079396368,-124.27577308463015,4.03688429330839,-21.39935664524466,98.20348859057684,3.7371793807157516,-6.079008968185423,177.0093797245547,9.035762451506734,7.163730291520299,63.90101680750255,-135.65874689740463,60.1806074855643,0.5164828305743158
20.621294071207394,11.945457203035723,90.90305672517849,34.8880644620473,12.280162059167766,-12.495286221846376,47.597917653586144,6.461699338328664,47.95523084013604,52.67916707864203,-3.9621759242927954,-72.63400501015947,51.8865601058179,-18.212403796815522,-6.785114168024739,47.55697111489882,-30.166440622240806,-128.6459827545777,35.26162665948738,-35.38149645481073,-78.71333609564947,22.5955673143445,-36.23530041569214,158.3781767652002,9.677593968219632,-29.85806079396368,-124.27577308463015,4.03688429330839,-21.39935664524466,98.20348859057684,3.7345901100949703,-6.076957585460271,177.1071556666679,9.05501453934044,7.16436258149825,63.92641181467083,-135.72997316319876,60.211923636649225,0.5928141727498797
20.78194724388763,11.947817381057195,90.9216878255686,34.90676298074177,12.262265225610712,-12.63897054066359,47.63385146443657,6.462210090619363,47.953035885271625,52.726181362629426,-3.9759928590209483,-72.70836052837946,51.93074594708384,-18.23015498617508,-6.746559830965175,47.589500998743965,-30.18477725492616,-128.6141584653614,35.18124667892726,-35.33754691781673,-78.80364570983319,22.62307494375817,-36.26123007254836,158.40704484985127,9.677593968219632,-29.85806079396368,-124.27577308463015,4.03688429330839,-21.39935664524466,98.20348859057684,3.7345901100949703,-6.076957585460271,177.1071556666679,9.0992501874019,7.177794315476288,63.88723343050224,-135.66822644369105,60.18038391612346,0.5385240154238107
20.681435719147288,11.891347498893179,90.9834265495031,34.918018531752814,12.256509798292404,-12.575324999494748,47.57105503614651,6.454531303986855,48.000294324885346,52.712392917447964,-3.9818291857346537,-72.66905951641445,51.903390502790224,-18.22811845922395,-6.689775906286454,47.522899853866384,-30.16189204833959,-128.729082170464,35.211554591672105,-35.36350613261454,-78.88435599924753,22.620857402041892,-36.26625958546041,158.3056983794455,9.677593968219632,-29.85806079396368,-124.27577308463015,4.03688429330839,-21.39935664524466,98.20348859057684,3.7345901100949703,-6.076957585460271,177.1071556666679,9.015082253198464,7.085892287796927,63.76338796593143,-135.71963648344047,60.21397031716335,0.549609701202444
20.81521610044313,11.906015574288164,90.80456778054067,34.93206809866725,12.262230181787325,-12.564665717020658,47.59427681218211,6.459656406990371,47.984137333515996,52.73432218128564,-3.979397220233354,-72.7372892439343,51.88965224184627,-18.21419827542388,-6.745451388813576,47.5395190878158,-30.1608946085399,-128.60391449198022,35.22928091068433,-35.365596399632885,-78.84604757956393,22.57413940153282,-36.22396980144391,158.31184375879184,9.677593968219632,-29.85806079396368,-124.27577308463015,4.03688429330839,-21.39935664524466,98.20348859057684,3.6371595263976246,-6.010458407153829,177.7998466894175,9.149582669588277,7.090214326860124,63.79918770802771,-135.80433062322274,60.253061071987695,0.5303863492354438
20.783327729773447,11.904564765203713,90.79606606553337,34.882954858841536,12.261138865800884,-12.670407786119846,47.6554345499054,6.456931017163838,48.03684215696278,52.69398494653715,-3.9731132930184287,-72.73784448812319,51.89097367878944,-18.215380380953548,-6.769780983864785,47.54407222986388,-30.163126738219994,-128.6703909061443,35.32982884650776,-35.42677732600156,-78.79439442533175,22.610825735395004,-36.25272589537781,158.36537517105484,9.648094006396711,-29.845908462940862,-124.245850426305,4.043116991362091,-21.411389002375643,97.92263675060745,3.635036028931829,-6.008417427473491,177.71337669789915,9.180838531809599,7.091014112553833,63.76418658324343,-135.7369873666078,60.21612081878637,0.5238843845920822
20.791764806452974,11.904027305161208,90.81319238563819,34.87117014266898,12.258980179277275,-12.565039023696272,47.57943747853677,6.457344129777976,48.005070244601626,52.60409461507398,-3.964020130897966,-72.6570309554435,51.97733675664151,-18.245000725347197,-6.715043939293834,47.569393404798824,-30.179032969724076,-128.66415925619958,35.32133111448412,-35.42609904203579,-78.79890414678515,22.610825735395004,-36.25272589537781,158.36537517105484,9.667781887944983,-29.861385915884917,-124.22685415167754,4.0488488386654495,-21.41846342099777,97.94932147141384,3.729277911947314,-6.04932575998941,179.93375490645477,9.143389129367506,7.090769413817667,63.767147669995516,-135.80249582685406,60.25153530376701,0.5345792461675833
20.970346590054668,11.896935732204282,90.78063226899584,34.828989292645055,12.247801881973052,-12.688106588166209,47.47138266653452,6.3753393169739265,47.52311306228956,54.302427384585265,-4.228923495348949,-65.0758073236429,53.93417263984383,-17.007263502607703,-16.532643913359614,49.07109025647214,-29.68709214185769,-128.95048538797468,35.32133111448412,-35.42609904203579,-78.79890414678515,22.612815168036327,-36.28486652438014,158.39712497041563,9.70317719519489,-29.89683880155902,-124.18389129009942,4.057500132045043,-21.431771159865374,97.91924582630413,3.644962389560426,-6.024469005629895,177.73038393544522,9.09046150393187,7.0818494987750435,63.80859263276626,-135.73654347466064,60.2443350850275,0.48646380268373896
20.960335036124995,11.819209416351434,90.77376849631709,35.08313273015968,12.032168574375339,-12.98724083141725,49.35876350872879,6.5644536114110545,54.42530247939043,56.942652370162314,-2.636830038672569,-70.45986792712527,54.479193464837984,-16.40366409388626,-15.28740300039869,47.86990927513941,-28.735986035679417,-127.64128915932405,35.32133111448412,-35.42609904203579,-78.79890414678515,22.69652954154526,-36.32851181395539,158.36967206000224,9.709188324094981,-29.893642474753932,-124.048038035146,4.085065066696039,-21.448358321575714,97.93992923410873,3.596058550988225,-5.989423124721119,177.6780702831514,9.100032173340317,7.0930590040449015,63.537129767031125,-135.73344478560878,60.2244469580507,0.5909894578393063
21.061817096161427,11.842479292181133,90.800263637858,35.031377103316366,12.03217116938939,-13.076281725304922,48.33627609403248,6.364138752221018,52.55659283403945,54.399051934782044,-3.3463391042762627,-69.20481712914636,53.53596364993562,-16.505326305012645,-15.709180234956417,47.550961911409566,-28.90729301786684,-127.94203952059756,34.024339138631284,-34.32313072861984,-104.83918335188072,22.59773544001473,-36.250637214524566,158.25689937071232,9.683596792681577,-29.869583329453775,-124.06202809605934,4.1141326851543525,-21.4659551678512,98.08406037643981,3.5557047898310614,-5.966743798729565,177.51345154509357,9.123225442057823,7.103844542142674,63.59702646315122,-135.87801492120659,60.255694603261404,0.4593166296979305
20.93603723837805,11.82934537474746,90.83737664395163,34.96388100832967,12.01494403663249,-13.032014897287203,48.12117208678564,6.351494702740107,52.387228820890364,54.40140577438344,-3.364355072766914,-69.23358965059917,53.49907819503094,-16.507775024707357,-15.774321950040008,47.583259088501315,-28.93248496495707,-128.0016220364762,35.44262423105034,-35.26997858713507,-76.03298513022287,22.784639884603507,-36.39030383234912,158.92740952785425,9.68653124257363,-29.873606728983525,-124.05237631194267,4.015356679898126,-21.39390753046834,98.00361850164279,3.597651881714583,-5.989534497392359,177.62495902180814,9.078756020182503,7.093385954859413,63.568707950565376,-135.77512039129704,60.227328518103185,0.6379299119170714
20.95979549877982,11.809198498535086,90.79290440556379,34.86801966252444,11.986760746459604,-13.06027298678658,47.908321836330266,6.330571422916249,52.591534364706106,54.45654714511556,-3.406468442670306,-69.22158276950209,53.48996814420487,-16.53124093116316,-15.710718770450132,47.59866256038166,-28.966862480130473,-127.99152807695388,35.283713256312545,-35.19890735213956,-76.0161610715715,22.610660427207826,-36.28143067117142,158.32812771254297,9.698338237344934,-29.892219003426575,-124.15206725706298,4.125857644213845,-21.48494967158204,97.81039419396365,3.6350199255249507,-6.012281090616868,177.6610734009863,9.1394066497962,7.074173309562591,63.598299087611835,-135.8581143980164,60.31083102707334,0.5495781675040095
20.950019453831203,11.82222830681399,90.75338390408069,34.969103426699654,12.008626875779495,-13.017829733601378,48.065221011390484,6.347682620305918,52.57347609055043,54.48655757886038,-3.3889471104041924,-69.22313469768184,53.531704953367104,-16.517903577888063,-15.731849352854423,47.53762442747607,-28.914401421066394,-127.96176247656167,35.179061474720434,-35.107722153496454,-76.06449952696762,22.6354338578292,-36.28075462181321,158.22048694926823,9.676691786411176,-29.86353938847096,-123.93096896274035,4.062030762471871,-21.42883877710207,98.02540605682967,3.613822724517533,-5.994229815898594,177.70722461933522,9.084187631270687,7.091317156326097,63.52100105788403,-135.81347579791375,60.2741278760442,0.4210396199646494
21.08519196371683,11.842897515755194,90.77478853847508,35.01906792908445,12.030242611659947,-13.031689065554403,48.25882668937309,6.364021174831329,52.608142742916,54.43773664791235,-3.359272104075167,-69.15629067862754,53.46944277729583,-16.480346413394482,-15.584574215663753,47.51574769766804,-28.887462589046507,-127.89529160964577,35.320841291061164,-35.18425879955205,-75.99000420917658,22.605907532770253,-36.24922811482587,158.30289096596272,9.692603743951004,-29.87284400907666,-124.04019033147476,4.024716493891695,-21.392031233514178,97.97673784201028,3.672090222487647,-6.01343759661809,-179.9814565136113,9.129570806918146,7.102558328830638,63.595691948950375,-135.88099619349202,60.27878913407835,0.5188355183331559
21.067118417542176,11.846075035716048,90.77427861628145,34.93128602231925,12.027202181675769,-12.996633251546298,48.295343200029556,6.3646323316721425,52.63092731170544,54.451384546967965,-3.3625330709249326,-69.1133639080234,53.54917626852788,-16.50380842702839,-15.685545135651934,47.53718714870585,-28.90455107288686,-127.93144466453386,35.24133984817286,-35.14086908905052,-76.02642772177956,22.67264726672329,-36.30571308437636,158.29808274232371,9.685662361888077,-29.866019518712584,-124.0527386396949,4.013988243757417,-21.38744998536028,97.98196450390367,3.671588227630245,-6.013451008814952,-179.98676533974248,9.080219216271665,7.10749371208571,63.50888314433687,-135.93216548714037,60.282565912483946,0.46460814822779534
20.937035989222743,11.81194016415046,90.76081677882735,34.901659653093326,11.995615472227755,-13.029510957793761,47.86727667456835,6.337673218665543,52.46634305365115,54.39361057756549,-3.3938317453700932,-69.1731962556636,53.51048454107717,-16.528700754031995,-15.771989973261173,47.68296210381401,-29.00241809312392,-127.98215807021892,35.32846970642033,-35.22585305847879,-76.09622408735395,22.63147461521244,-36.2915786063118,158.2509285118159,9.681938410490787,-29.876578117796825,-124.09766016734822,4.045950382103754,-21.420640809024217,98.01379185790535,3.715782411859699,-6.044310123355341,179.92634008968665,9.044983431134966,7.083966960731058,63.52167143589038,-135.86684298752067,60.3023533061708,0.5498810427111367
20.963277017340054,11.816709303027238,90.80522373930079,34.96714516670138,12.000812409654086,-13.092637522437775,47.9372066968053,6.338169882282817,52.436636508121296,54.40505271548104,-3.390592275486611,-69.18036111482367,53.500586128443025,-16.517854592660992,-15.784209390941411,47.67313988266199,-28.991100459414156,-127.98123737784753,35.29308834052774,-35.190839562452155,-76.04382465906956,22.613468492980424,-36.27131345456677,158.4206757783616,9.703640157976324,-29.891036690370193,-124.08442553204446,4.1023493769511035,-21.464378526041074,97.98475929827359,3.674644626347167,-6.026034009348837,179.9591645741507,9.054125737927535,7.0838381459403745,63.506585835466694,-135.681885485397,60.21809557594672,0.532832961075183
21.064796314342523,11.843336964535967,90.83097342838852,35.0546246779269,12.034576704214395,-13.050705234510882,48.133774359277815,6.366267778257152,52.61928500490749,54.45329603009505,-3.3609399371596638,-69.14870990158046,53.55262896573786,-16.499789598709537,-15.716553495012016,47.580854352980474,-28.91902725690356,-127.92179402424573,35.28741333047923,-35.16104847833619,-75.94460484048228,22.642677944301212,-36.27513538611196,158.25451370042944,9.674086953646807,-29.85379383449274,-124.06617040306286,4.029384846381269,-21.395160064714705,97.98309440546804,3.6324404322382122,-5.990553602879547,177.5492641317719,9.09745219499969,7.104811371615737,63.610321726613336,-135.74218720336475,60.20323076626266,0.5379490839453336
21.028254715759665,11.845964854929655,90.78397678986421,34.961921617510264,12.036813970394903,-13.075275705946337,48.197027809353976,6.370867917692262,52.641986202327274,54.48237672334397,-3.3598243655737132,-69.15236115559397,53.494723101128024,-16.48118322386107,-15.636139277618863,47.591791656090244,-28.922832443638782,-127.96452422311995,35.34908696160932,-35.201151317400786,-75.99996235552867,22.577472190834158,-36.228457334604755,158.24261400273426,9.681691078533596,-29.86245134773739,-124.00096245793605,4.033292378281779,-21.39794408249341,97.98918720524975,3.6837246908569554,-6.014971054137744,-179.99914759453975,9.18299222162959,7.106562039022574,63.52707294973956,-135.9677909147396,60.300608422596575,0.5142035164397084
21.068176936832735,11.84103457724165,90.77076875904854,35.01461073423237,12.028031864458097,-13.117099035372823,48.09885633674737,6.361520417500475,52.5693980224204,54.39676331599966,-3.3604384748802456,-69.13297984422343,53.533995213829364,-16.50388585197242,-15.729804728882312,47.53077419248459,-28.90822303411595,-128.00545921491877,35.241374295747256,-35.144500625555395,-76.00531044577446,22.577472190834158,-36.228457334604755,158.24261400273426,9.667926795452665,-29.854391134149616,-124.03187203291446,4.061734951510594,-21.426935867329618,98.02326455856287,3.5800659569741384,-5.975761317798547,177.5799138756365,9.075076799965949,7.102504997180363,63.5842187770003,-135.7959683222242,60.22282371325697,0.4891387512522447
20.877775609958256,11.82013740445038,90.76248421243284,34.92338621513232,12.007004922039314,-13.06231540293055,47.944119657602506,6.350275346177382,52.498927470609296,54.40034119824761,-3.382078310732794,-69.25700370915405,53.4410055561052,-16.495972108446413,-15.7250032993781,47.59709566805257,-28.95367450740485,-128.02345406748805,35.30122211768755,-35.19609272200895,-76.08351326285923,22.577472190834158,-36.228457334604755,158.24261400273426,9.68575906221676,-29.876964495413326,-124.04266776163698,4.0471229101267525,-21.41889833057278,97.98725192229759,3.7096205555240402,-6.036142430805604,179.9450708728112,9.084249370895115,7.091605701173194,63.53152494113981,-135.81362238309657,60.25713537020415,0.4715904958418391
20.954167539729518,11.810936560153326,90.83698693120205,35.01362722334151,11.995027493296284,-13.058916243845001,47.917975515317956,6.3306793752678185,52.506849964980916,54.49644704316537,-3.412415808963406,-69.16416427084617,53.50404901163794,-16.526740792446407,-15.752717962167244,47.660695111716244,-28.997646297951725,-127.95916309630898,35.31779274909447,-35.21636929171026,-76.06947244963483,22.659135398780627,-36.315402086083424,158.2541250129302,9.742896499195545,-29.93320757421438,-124.06684869606444,4.066156438488811,-21.43529732599345,97.93879934354868,3.6448470839783553,-6.013105335193538,177.5771638560497,9.096976310992105,7.076584990570101,63.53693406659456,-135.64861534066793,60.20655094494393,0.6075558655656206
20.879856896053816,13.039538657848318,92.42632930256116,34.748655612917254,12.617907177601715,-14.526941101807838,47.880863966579405,6.357507620237293,52.77212938464896,54.46819032344862,-3.3643914484989867,-68.92136549922924,53.52308766292524,-16.48781819869627,-15.678435316647107,47.56043288307985,-28.905704504059898,-127.96596589529393,35.249775085930516,-35.15083337308187,-76.08098803135093,22.659135398780627,-36.315402086083424,158.2541250129302,9.742896499195545,-29.93320757421438,-124.06684869606444,4.197029661439785,-21.443017175559874,97.45888649847728,4.308762765452947,-5.897994275099338,175.7686828048947,9.626976764445473,7.398065771479929,64.2375302059146,-135.87519480737961,60.289481000100835,0.4781895938628198
22.058895115155487,12.670241611024803,96.4074290533078,35.33444511797584,12.245775814461805,-14.04055155309149,49.16408971540114,6.874767428830069,78.98590933302197,54.276246568324915,-3.342035201762938,-68.21391562676789,53.59012583123566,-16.412253743886925,-15.61616311709459,47.65142000581424,-28.898018149136,-127.84516378081231,35.37816507992209,-35.218407793684484,-76.07458915467423,22.659135398780627,-36.315402086083424,158.2541250129302,9.736209995673214,-29.89957841999906,-124.08875600653974,4.119554175240083,-21.407101406686564,97.56574257426645,3.8472936863881486,-5.871006884646981,176.5107676448088,10.19874633629015,6.834610888530786,61.58215622400245,-135.82533044475244,60.235423218484655,0.5865421823368872
22.252604045200094,12.64732141869941,97.7427609420666,35.5151961100078,13.846210062936375,-15.126548966697518,48.119539291704534,6.973475623604065,47.334944461005904,54.30784738957808,-3.403799636163706,-68.19189712426973,53.48921231236812,-16.416063674090786,-15.645670453529783,47.59327710268776,-28.916941033023264,-127.80525682682489,35.331356178185096,-35.215659782386695,-76.05857470057717,22.659135398780627,-36.315402086083424,158.2541250129302,9.75385454996055,-29.93490590634522,-123.96344006040695,4.0957255368744185,-21.43509660185296,97.65717332681987,4.0130623787446424,-6.1652074339215215,176.39297623561617,9.866290825892648,6.396917063114914,64.23689985280402,-135.77799654489053,60.248838687395924,0.5068562318182327
22.19434665373724,12.642265210509374,97.73312665024994,35.448497077073604,13.841295288480866,-15.254319163168276,48.28529075175663,6.968409711338931,47.378070060785696,54.26622271747299,-3.4028662891743604,-68.16497602062425,53.50814741946004,-16.424735724394033,-15.794079485514262,47.591923422160484,-28.922454677515105,-127.72377477335606,35.264593590796174,-35.18347687781824,-76.12363943433787,22.659135398780627,-36.315402086083424,158.2541250129302,9.75385454996055,-29.93490590634522,-123.96344006040695,4.07518635026026,-21.427902647936705,97.65514153400089,3.8432717376206256,-6.102085233145502,176.03257251922452,10.080765948108755,6.382997406160063,59.798213271270896,-135.74407775864552,60.23248715577293,0.5408973979459614
22.2080254980934,12.63706277035873,97.74874834376024,35.47423426385779,13.834184886846964,-15.197999323401243,48.16463807673677,6.957145321353225,47.404468597965874,54.41582807014165,-3.432351290917735,-68.23765826635938,53.483234346467576,-16.426943609568646,-15.671178037939729,47.570477147845246,-28.918338741218037,-127.76695339273672,35.32984005529085,-35.226416404672825,-76.07764508284637,22.645256951487113,-36.30259761191334,158.23538512005578,9.75385454996055,-29.93490590634522,-123.96344006040695,4.0884753229123305,-21.436989171089795,97.55869033616456,3.924918908993938,-6.135159672066342,176.36948868639914,10.03334391548676,6.378028890877511,59.513938958475585,-135.75527336764014,60.259146581584005,0.5689531754285649
21.50631701849538,12.56547897133887,94.44438540560976,35.26239539872817,13.313806080322522,-13.25527097986846,47.98427344995559,6.848877707402881,48.359819231145444,54.20589336909807,-3.3530420788870536,-67.96346223381545,53.519257903488885,-16.369227712338144,-15.576114624413455,47.7199948758151,-28.934331759466744,-127.78159995300523,35.21404923322519,-35.13166892630932,-76.12028384089174,22.645256951487113,-36.30259761191334,158.23538512005578,9.75385454996055,-29.93490590634522,-123.96344006040695,4.150078938593616,-21.442990528025337,97.41745169593588,4.497127369590366,-6.210234163096741,176.2227038970398,9.634805892526359,7.129563126712591,63.43704600948104,-135.7661005323134,60.23495422019351,0.5618101796219953
21.524165784104717,12.470080146880427,94.7014521218062,35.24624587755695,13.314853340712993,-13.309076567661197,47.984355310511994,6.872826960940302,48.37126464120293,54.190760437334056,-3.348196649947802,-67.89790898066943,53.51983152672528,-16.367640121088495,-15.615524046612164,47.594805804674245,-28.88321234836218,-127.748191614953,35.29065577935125,-35.179775608855884,-76.04100026532471,22.645256951487113,-36.30259761191334,158.23538512005578,9.75385454996055,-29.93490590634522,-123.96344006040695,4.06669666010594,-21.389660019814507,97.46401060204165,3.846850792551656,-6.007715052830401,176.59397964106694,9.66063451182277,7.018237762677345,62.7503203417279,-135.7299912392725,60.20361728285187,0.6111775756981636
21.540385456180267,12.465966098361587,94.67866217334335,35.20824968592611,13.304626969107487,-13.312015403378503,48.04453724324396,6.864614918980683,48.28968853666077,54.24189823911859,-3.367222797456444,-67.93840062413615,53.54582138826883,-16.38624767913762,-15.456400640466038,47.61275625312114,-28.901074761459164,-127.76655724750137,35.30942014272717,-35.20018625639018,-76.13791513124625,22.645256951487113,-36.30259761191334,158.23538512005578,9.72356552802215,-29.894369129883877,-124.1258459653705,4.0891435362471995,-21.408494029963684,97.46813656192779,3.8747192067724896,-6.020727041696871,176.57746735074952,9.669005951751721,7.0138803252085085,62.692285131415716,-135.72874414032944,60.216287144842155,0.5415813120967651
21.57083466718158,12.467549128325293,94.70446744962022,35.22434565722323,13.306073164872803,-13.298880826430365,47.999662964328046,6.859635416066574,48.35373871386379,54.256330472466026,-3.372456555130226,-67.94600005317875,53.57646315742543,-16.396646350603262,-15.53845574176123,47.5757989919555,-28.888935340476593,-127.80127884843569,35.30942014272717,-35.20018625639018,-76.13791513124625,22.645256951487113,-36.30259761191334,158.23538512005578,9.720984969350447,-29.89303890480511,-124.16242581943335,4.056372960401987,-21.385173028938357,97.45435554136425,3.957473720386325,-6.054850173529367,176.66554271994463,9.580660311321296,7.014206613245714,62.6766790851252,-135.84791379200067,60.28666979036425,0.45493602345825174
21.530224168286892,12.474746583818273,94.66992789602614,35.17601574641949,13.314206012479918,-13.224981134136737,48.04206208825692,6.872632628090748,48.336101207565754,54.18320529919077,-3.350805603218081,-67.88599799274014,53.48347332728377,-16.35877399839757,-15.58288870220697,47.64466460334999,-28.905230056601006,-127.7368253022017,35.25797574515321,-35.15405027756014,-76.04769168081529,22.646624305776676,-36.282161213419634,158.09785371065064,9.684900584705382,-29.85114721578082,-124.0755744299489,4.0976875291515995,-21.410493354744432,97.48672911996435,3.8257253374986533,-5.9991836315688545,176.49931947163986,9.571995802364249,7.021734154034796,62.78714513929996,-135.7241196872418,60.21463936434607,0.5086194630681556
21.480573187079408,12.482463265900059,94.69314633423649,35.12574022895935,13.323189446772593,-13.226547661269727,47.97669908514613,6.887175722564045,48.384779902421,54.14234391588952,-3.334765378208914,-67.89179340721336,53.46069307319603,-16.34317938135319,-15.619646297031997,47.61917710373442,-28.890132711810736,-127.72877889714684,35.268347040051815,-35.157267275497716,-76.02613082696799,22.600085744787116,-36.242327997781054,158.18540838169122,9.654890303141713,-29.82169644482247,-124.1019199725861,4.094770178298674,-21.4061852684118,97.51862151619645,3.7923295165015176,-5.980652894793597,176.40669920330427,9.505164996673152,7.028987057229375,62.84050012752415,-135.86948432336064,60.26769228014463,0.5833720468191734
21.51643233642327,12.472342457654435,94.64656693480684,35.21712678245854,13.313537984349875,-13.279581144848843,48.04251426760219,6.8698709479297575,48.36472024811425,54.256007549844405,-3.364335165864075,-67.89116509603055,53.4971757480672,-16.37011276058687,-15.5628532958313,47.61141769470776,-28.89908507370692,-127.79815309324121,35.265401655823446,-35.16754918797072,-76.13526469019578,22.638739926022133,-36.28253208753645,158.17728159287063,9.663899673936179,-29.837532178214694,-124.1722054078159,4.057475039969852,-21.382120628069174,97.45518710242396,3.743042881299118,-5.96761161974162,176.4343211351741,9.52297090949078,7.022425797384687,62.7319594571196,-135.7425379959912,60.21866591694195,0.5031278916175765
21.57199286544693,12.470188186734571,94.63884008910996,35.21460888642178,13.304605717794063,-13.292985496722597,48.07530611780218,6.861636152215974,48.353915575088806,54.35354287794892,-3.386251136516437,-67.95015803319426,53.5112109664551,-16.382739274100253,-15.509179448759578,47.563352577179565,-28.88279354329962,-127.78176489597195,35.29080824626312,-35.189964630464964,-76.13974926935178,22.651257415392358,-36.29662333083506,158.24497128120046,9.689518974749056,-29.860806173399503,-124.11727728672524,4.054746523213758,-21.385050252774466,97.43939897509782,3.8266531230344825,-6.002868916042484,176.4675435517623,9.61113996209452,7.013778998447242,62.72048047759052,-135.76190605938206,60.24648788212651,0.618620140743469
21.521479964909993,12.480756935309135,94.7334207947351,35.17151936733601,13.318311165008264,-13.27052901445618,48.00329724659327,6.878863917877682,48.311236154597474,54.20502205161193,-3.348525961999975,-67.92044587372963,53.548575408783925,-16.37510464178225,-15.666703302225532,47.56425996476839,-28.868124996396915,-127.71158267335439,35.255303546099135,-35.151577483159095,-76.03559172424616,22.64908657538769,-36.283803009252,158.2169376469913,9.671857867143551,-29.83906817855334,-124.08287622916808,4.064847583578519,-21.384778392624856,97.50413217889069,3.7646928576093046,-5.9737769749634015,176.32253778572212,9.55522014058755,7.023624094460521,62.66709316054521,-135.67076514992175,60.182847096168025,0.5529082803620309
21.49549587066155,12.482629046761122,94.6917239363219,35.16877395793667,13.324661380490157,-13.243932346954692,48.06716650494716,6.882573797892401,48.34083281143092,54.16062731773837,-3.3410444878812022,-67.83968428262479,53.43390146739646,-16.342220149394695,-15.60131765801304,47.60778170279148,-28.888834620708202,-127.70244321403253,35.219000579510556,-35.12897598077983,-76.04790646678784,22.633349479049656,-36.27219801518533,158.17440131702864,9.644935481887167,-29.81581826603655,-124.12546816662173,4.087310326883056,-21.40244203930498,97.46897885343024,3.83050535265982,-5.998620155607023,176.4797754780585,9.481195690804554,7.02880123292277,62.75862623993597,-135.85218004127358,60.25868845012551,0.5326630011713641
21.505845416473242,12.473557348931758,94.72647089153108,35.185819439964824,13.311795372999839,-13.228478274686946,48.05461375486943,6.868011479573709,48.305929847510065,54.22844805800714,-3.3626287753676625,-67.83253717997613,53.50556934927048,-16.376242680006538,-15.563886377334677,47.57835886367241,-28.887145039817618,-127.81317306004453,35.31699799647057,-35.203043014405885,-76.14935715885011,22.643820204852226,-36.289471662131966,158.20729613536366,9.697259120603896,-29.87047477789647,-124.0597417195967,4.075197047483968,-21.398465678709773,97.4257229905839,3.8217224313662257,-5.999080970206638,176.48601014205232,9.563611271310968,7.0194605933769765,62.68133952877057,-135.66903991616846,60.185257817626415,0.5374353103106501
21.54425066034935,12.469902492450451,94.72833200241001,35.302483484082025,13.311714089359935,-13.326705146739567,47.96754173810556,6.86611548599539,48.28816369281788,54.2501489868316,-3.369619442761385,-67.92434348127513,53.542257554951995,-16.388813049926036,-15.530081681487493,47.659919776237096,-28.92748709957361,-127.7502652555009,35.266652108691424,-35.174162879818134,-76.09053757177367,22.615136046506535,-36.2682220171555,158.21551604701824,9.682039857783487,-29.85640079179231,-124.09670471694722,4.071621100338774,-21.396793959706354,97.48361157943351,3.834426123854904,-6.006517380913268,176.53989432826663,9.648699017493136,7.01220289079998,62.651794154488115,-135.74562387486262,60.23643198436485,0.472357646051771
21.519385128877666,12.475735286196343,94.71165755594326,35.19938213486868,13.314859176013465,-13.286375883790281,48.01056581837609,6.872878848766893,48.346804409690755,54.12824171526072,-3.344865038643416,-67.83085269703143,53.526313821638006,-16.37509005955086,-15.558028448667537,47.62902486617677,-28.902216966518765,-127.79702689360506,35.20154635184607,-35.1250316159123,-76.09118404623887,22.636246150845828,-36.27743639407817,158.19549210131805,9.653715915925467,-29.82488904640074,-124.05868523823042,4.0901890387719035,-21.40687701592928,97.51757079758734,3.7864039094875324,-5.984783647472339,176.3886024731659,9.5451148645666,7.02380394352145,62.701470922819844,-135.65293457910067,60.182858702858226,0.5794674619071307
